P1
# tessera_against_g4: Tessera 4707 bits over CCITT G4 (fax crate)
256 256
0000000000000000000000000000000000000000000000000000111111111111111111111101111100000000000001000011000000000000000000000000000011111111111100000000000000000000000000000000000000000000000000001110000000000011111110000001111000000000000011000000000000011111
0000000000000000000000000000000000000000000000000000000001111111110111111111111100000011111111111111100000000000000000000000000011111110000000000000000000000000000000000000000000000000000000001110000000000011111110000001111000000111100011000000000001111111
0000000000000000000000000000001111111111111100000000000011111111111111111110100011111011111111111111100000000000000000000000000011111111000000000000111111111111110000000111111111111111111111111111111111111111111111111111111000011111100011111100000001111111
0000000000000000000000000000111111111111111100000000000001111111111111111110000011111011111111111111100000000000000000000000000011111110000000000000111111111111111100000111111111111111111111111111111111111111111111111111111000001111111111111100000001111111
0000000111000001111000000000111111111111111100000000000001111111111111111110000011111011111111111111100000000000000000000000000011111110000000000000111111111111111100000111111111111111111111111111111111111111111111111111111000001111111111111100000001111111
0000000111000001111000000000001111111111111100000001111111111110111111111111111111111011111111111111100000000000000000000000000001111111111110000000111111111111110000000111111111111111111111111111111111111111111111111111111000001111111111111100000001111111
0000000111011101111000000000001111111111111100000001111111111110111111111111111111111011111111111111100000000011111111111000000001111111111110000000111111111111110000000111111111111111111111111111111111111111111111111111111000001111111111111100000001111111
0000001000111111111000000000001111111111111100000000000000000000110111111111111111111011111111111111100000000011111111100111000000000000000000000000111111111111110000000111111111111111111111111111111111111111111111111111111000001111111111111100000001100101
0000001000111111111000000000001111111111111100000000000000000000111111111111111111111011111111111111100000000010011111100111000000000000000000000000111111111111110000000111111111111111111111111111111111111111111111111111111000001111111111111100000001100001
0000001111111111111000000000001111111111111100000000000000000000000111111111111111111011111111111111100000000000011111100111000000000000000000000000111111111111110000000111111111111111111111111111111111111111111111111111111000000000000000001100000001100001
0000001111111111111000000000011111111111111110000000000000000000000111111111111111111011111111111111100000000000011111111000000000000000000000000001111111111111111000000111111111111111111111111111111111111111111111111111111000000000000000001100000001100001
0000001111111000000000000000001111111111111110000000000000000000000111111111111111111011111111111111100000000000011111111100000000000000000000000001111111111111110000000111111111111111111111111111111111111111111111111111111000000000000000001000000001100001
0000001111111000000000000000001111111111111100000000000000000000000111111111111111111011111111111111100000000000011111111100000000000000000000000000111111111111110000000111111111111111111111111111111111111111111111111111111000000000000000000000000001100000
0000001111111000000000000000001111100001111000000000000000000000000111111111111111111011111111111111111111100010000001111100000000000000000000000000011110000111110000000111111111111111111111111111111111111111111111111111111000000000000000000000000000000000
0000001111111011111111111100000000000001111000000000011111111100000111111111111111111011111111111111111111100011110001111000000000111111111000000000011110000000000000111111111111111111111111111111111111111111111111111111111000000000000000000000000000000000
0000001100000011111111111100001111000001111000000000111111111111111111111111111111111111111111111111111111111111111111111111000000111111111100000000011110000011110000111111111111111111111111111111111111111111111111111111111000000000000000000000000000000000
0000001100000011111111111100001110000001111000000000000111111111111111111111111111111111111111111111111111111111111111111111000000111111100000000000011110000001110000111111111111111111111111111111111111111111111111111111111000000000000000000000000000000000
0000001110000111111111111100001110000000000000000000000111111111111111111111111111111111111111111111111111111111111111111111000000111111100000000000000000000001110000111111111111111111111111111111111111111111111111111111111111000000000000000000000000000000
0000000000000000000000000000000000001000000000000000000111111111111111111111111111111111111111111111111111111111111111111111000011111111100000000000000000010000000000000111111111111111111111111111111111111111111111111111111000000000000000000000000000000000
0000000000000000000000000000000000001000000000000000000111111111111111111111111111111111111111111111111111111111111111100000000011111111100000000000000000010000000000000111111111111111111111111111111111111111111111111111111000000010000000000000110000000000
0000000000000000000000000000001111111111111000000000000111111011111111111111111111111111111111111111111111111111111111100000000000011111100000000000011111111111110000000111111111111111111111111111111111111111111111111111111000000001000000000001111111111100
0000000000000111111111000000001111111111111000000000000111111000000000000000011110000000000000000111111111100011110000000000000000001111100000000000011111111111110000000111111111111111111111111111111111111111111111111111111000000001111100011111111111111100
0000000000000111111111000000001111111111111000000000000111111000100000000000000000000000000000000000000000000011110000000000000000011111100000000000011111111111110000000111111111111111111111111111111111111111111111111111111000000001111100011111111111111100
0000000000000111111111000000001111111111111000000000000111111110110000000000000010000000000000000000000000000011110000000000000001111111100000000000011111111111110000000111111111111111111111111111111111111111111111111111111000000001111100011111111111111100
0000000000000111111111000000001111111111111100000000000111111110111110000000000010000000000000000000000000000011110000000000000001111111100000000000111111111111110000000111111111111111111111111111111111111111111111111111111000000001111100011111111111111100
0000000000000111111111000000000000000000000010000000000111111110111110000000000000000000000000000000000000000011110000000000000001111111100000000001000000000000000000000111111111111111111111111111111111111111111111111111111000000001111100000001111111111100
0000000000000111111111000000000000000000000000000000000111111110111110000000000000000000000000000000000000000000000000000000000001111111100000000000000000000000000000000011111111100000000000000000000000000000011110000000000000000001111100000001111111111100
0111111111111111111111000000000000000000000000000000000111111100000000000000000000000000000000000000000000000000000000000000000000111111100000000000000000000000000000000011111111111111111111100000000000000000000111111100000000000001111111000001111111111100
1111111111111111111111000000000000000000000000000000000000000100000000000000011000000000000000000000000000000000000000000001100000100000000000000000000000000000000000000011111111111111111111110000000000000000000000000000000000000001111100000001111111111100
1111111111111111111111000000000000000000000000000000000000000000000000000000011000000000000000000000000000000000000001000001100000000000000000000000000000000000000000000011111111111111111111110000000000000110000000000000000000000001111100000011111111111100
0111111111111111111111000000000000000000000000100000000000000000000000000000011000000000000000000000000111110011101111111111110000000000000000000100000000000000000000000011111111111111111111100000000000000110000000000000000000000001111100001011111111111100
0111111111111111111100000000000000000000000000100000000000000000000000000000011000000000000000000000000111110011101111111111110000000000000000000100000000000000000000000000111111111111111111100000000000000110000000000000000000000001111100111011111111111100
0111111111111111111100000000000000000000000000100000000000000000000000000000011000000000000000000000000111110011101111111111110000000000000000000100000000000000000000000000111111111111111111100000000000000110000000000000000000000001111100111011111111111100
0111111111111111111100000000000000000000000001100000000011111111000000000000011000000000000000000000000111110000101111111111110011111111000000000110000000000000000000000000111111111111111111100000000000000110000000000000000000000001111100111011111111111100
1111111111111111111100000000000000000000000001100000000011111111000000000000011000000000000000000000000111110000001111111111110011111111000000000110000000000000000000000000111111111111111111110000000000000110000000000000000000000000000000000000010000011000
0111111111111111111100000000000000000000000001100000000011111111000000000000000000000000000000000000000111110000000111111111110011111111000000000110000000000000000000000000111111111111111111100000000000000110000000000000000000000000000000000000000000011000
0111111111111111111100000000000000000000000001100000000011111111000000000000000000011111110000000000000111111100000111111111110011111111000000000110000000000000000000000000111111111111111111100000000000000000000000000000000000000000000000000000000000000000
0111111111111111111100000000000000000000000001111111111111111100000000000000000001111000000111111111111111111111111111111111110000111111111111111110000000000000000000000000111111111111111111101111100000000000000000000000000000000000000000000000000000000000
0111111111111111111100000000000000001000000001111111111111111100000000000000000001111000000111111111111111111111111111111111110000111111111111111110000000010000000000000000111111111111111111101111100000000000000000000000000000000000000000111100000000000000
0111111111111111111100000000000000001000000001111111111111111100000000000000001111111000000111111111111111111111111111111111110000111111111111111110000000010000000000000000111111111111111111101111100000000000100000000000000000000000000000111100000000000000
0111111111111111111100000000000000001000000001111111111111111100000000000000001111111000000111111111111111111111111111111111110000111111111111111110000000010000000000000000111111111111111111101100000000000000100000000000000000000000000000111100000000000000
0111111111111111100000000000000000001000000001111111111111111100000000000000001111111000000111111111111111111111111111111111110000111111111111111110000000010000000000000000000111111111111111101000000000000000000000000000000000000000000000111100000000000000
0000000000000000000000000000000000001000000011111111111111111100000000000000001111111000000111111111111111111111111111111111110000111111111111111111000000010000000000000000000000000000000000000000000000000111100000000000000001111111111000111100000000000000
0011111111111111111110000000000000001111111111111111111111111111100000000000001110000000000000000000001111111111111111111111110011111111111111111111111111110000000000000001111111111111111111000000001111111111111110000000000001111111111000111100000000000000
0011111111111111111110000000000000001111111111111111111111111111100000000000001110000000000000000000001111111111111111111100000011111111111111111111111111110000000000000001111111111111111111000000011111111111111110011111111111111111111000111100000000000000
0011111111111111111110000000000000000111111111111111111111111111011111111111111110000000000000000000001111111111111111111100000011111111111111111111111111100000000000000001111111111111111111000000011111111111111110011111111111111111111000111100011111110000
0011111111111111111110000000000000000111111111111111111111111111011111111111111110000000000000000000001111111111111111111100000011111111111111111111111111100000000000000001111111111111111111000000011111111111111110011111111111111111111000111100011111110000
0011111111111111111111011000000000000001111111111111111111111111011111111111111110000000000000000000001111111111111111111100000011111111111111111111111110000000000000011011111111111111111111000001111111111111111110111111111111111111111000111100011111110000
1100011111111111111111000000000000000001111111111111100111111111011111111111111110000000000000000000001111111111111111111100000011111111100111111111111110000000000000000011111111111111111000110001111111111111111110111111111111111111111000111100011111110000
1100011111111111111111000000111111100001111111111111100111111111011111111111111110000000000000000000001111111111111111111100000011111111100111111111111110000111111100000011111111111111111000110001111111111111111110111111111111111111111000111100011110000000
1100011111111111111111000000111111100000000001111100000000000000011111111000001111111111111111111111111111111111111111111100000000000000000000111110000000000111111100000011111111111111111000110001111111111111111110111111111111111111111000100000011111000000
1110011111111111111110000000000000000000000001111100000000000000011111110000001111111111111111111111111111111111111111111110000000000000000000111110000000000000000000000001111111111111111001110001111111111111111110111111111111111000000000000111111111000000
1100011111111111111110000000000000000000000001111100000000000000111000000000001111111111111111111111111111111111111111111110000100000000000000111110000000000000000000000001111111111111111000110001111111111111111110111111111111111000000000000111111111000000
0111111111111111111110000000000000000000000001111100000000000000110000000000000011111111111111111111111111111111111111111110000100000000000000111110000000000000000000000001111111111111111111100001111111111111111110111111111111111000000000000111111110000000
1111111111111111111110000000000000000000000001111100000000000000110000000000000011111111111111111111111111111111111111111110000100000000000000111110000000000000000000000001111111111111111111110001111111111111111110111111111111111000000000000111111001110000
1111111111111111111110000000000000000000000001111110000000000000111000000000001111111111111111111111111111111111111111111110000100000000000001111110000000000000000000000001111111111111111111111111111111111111111110111111111111111000000000100111111001110000
1111111111111111111110000000000000000000000001111111000000000000111000000000001111111111111111111111111111111111111111111110010100000000000011111110000000000000000000000001111111111111111111111101111111111111111110111111111111111000000000111111111001110000
1111111111111111111110000000000000000000000001111111000000000000111000000000001111111111111111111111111111111111111111111111111100000000000011111110000000000000000000000001111111111111111111111111111111111111111110111111111111111000000000111111111110000000
1111111111111111111100000000000000000000000001111111000000000000111000000000001111111111111111111111111111111111111111111111111100000000000011111110000000000000000000000000111111111111111111111111111111111111111110111111111111111000000000000000000000000000
1111111111111111100000001110000000000000000001111111000000000000111000000000001111111111111111111111111111111111111111111111111100000000000011111110000000000000000001110000000111111111111111111111111111100000111110111111111111111000000000000000000000000000
1111111111111111100000001110000000000000000001111111000000000000111000000000001111111111111111111111111111111111111111111111111100000000000011111110000000000000000001110000000111111111111111111111111111100000111110111111111111111000000000000000000000000000
1011111010000000000000001110000000000000000001111111100111111111111000000000001111111111111111100001111110001111110000000111111111111111100111111110000000000000000001110000000000000001011111011111111111101000111110111111111111111000000000000000000000000000
1111111110000000000000011110000000000000000001111111111111111111111000000000001111111000000111100000011110001100000000000111111111111111111111111110000000000000000001111000000000000001111111111101111111111111000000111111111111111000000000000000000000000000
1111111110000000000000111110000000000000000110000000111111111111111000000000001111111000000111100000000000001100000000000001111111111111111100000001100000000000000001111100000000000001111111111111111111011111000000000000010000110000000000000000000000000000
1111111111110000000110000000000000000111110000000000000111111111111110000000000000110000000000000111100000011111110000000000011111111111100000000000001111100000000000000001100000001111111111110000000000000000000000000000110000100000000000001111101111111111
1111111111111111111000000000000000000111100000000000000111111111111111100000000000110001111000000111100000011111110000000000011111111111100000000000000111100000000000000000011111111111111111110000000000000000000000000001111111111111110000001111111111111011
1111111110011111111000000000000000000111000000000000000101111101111111100000001111110001111110000111111111111111110000000000011110111110100000000000000011100000000000000000011111111001111111110000000000000000000000000001111111111111110111110001011111111111
0000000000001111111000000000000000000111000000011111111111111111111111100000001111111111111100000111111111111111110000000000011111111111111111111000000011100000000000000000011111110000000000000000000000000000000000000001111111111111110111110000011111111111
0000000000001111111000000000000000000111000000011111111111111111111111100000001111111111111100000111111111111111110000000000011111111111111111111000000011100000000000000000011111110000000000000000000000000000000000000001111111111111110111110000011111111111
0000000000001111111000000000000000000000000011111111111111111111111111100000001111111111111100000111111111111111110000000000011111111111111111111111000000000000000000000000011111110000000000000000000000000000000000000001111111111111110111111111111111111111
0000000000001111111000000000000000000000000111111111111111111111111111100000001111111111111100000111111111111111110000000000011111111111111111111111100000000000000000000000011111110000000000000000000111111111110000000001111111111111110111111111111111111111
0000000000001111111000000000000000000000000111111111111111111111101001100000001111111111111100000111111111111111110000000000011111111111111111111111100000000000000000000000011111110000000000000000111001111111110000000001111111111111110111111111111111111011
0000000000000111111000000000000000000000000111111111111111111111100001100000001111111111111100000000011111111111110000000000011111111111111111111111100000000000000000000000011111100000000000000000111001111110010000000001111111111111110111111111111111111111
0000000000000011111000000000000000000000000111111111111111111111100001100000001100000000000000000000011111111111000000000000001111111111111111111111100000000000000000000000011111000000000000000000111001111110000000000001111111111111110111111111111111111000
0000000000000011111000000000000000000000000111111111111111111110100001100000001100000000000000000000011111111111000000000000001101111111111111111111100000000000000000000000011111000000000000000000000111111110000000000001111111111111110111111111111111111000
0000000000000011111000000000000000000000000111111111111111100011100001100000000100000000000000000000011111111111110000000000011111000111111111111111100111111111111111111111111111111111111111111111111111111110000000000001111111111111110111111111111111111000
0000000000000011111000000000000000000000000111111111111111100111000001100000000000000000000000000000011111111111110000001111111011100111111111111111100111111111111111111111111111111111111111111111111111111110000000000001111111111111110111111111111111111000
0000000000000011111000000000011111110000001111111111111111100011000000000000000000000000000000000000011111111111110000011111111011000111111111111111110111111111111111111111111111111111111111111111111111100000010001111111111111111111110111111111111111111000
1111111110011111111111111000011111110000001111111111111111100011000000000000000000000000000000000000011111111111111111111111111011000111111111111111110111111111111111111111111111111111111111111111111111100011110001111111111111111111110111111111111111111000
1111111110011111111111111000000000000000001111111111111111100011000000000000000000000000000000000000011111111111111111111111111011000111111111111111110000000000000000011111111111111001111111110000111111100011110001111111111111111111110111111111111111111000
1111111111111111111111111000000000000001101111111111111111111100000000000000000000000000000000010000011111111111111111111111111000111110000000000000000000000000000000000000000000000000000001110000111111100011110001111111111111111111110111111111111111111000
1111111111111111111111111110000000000000000111111111111111111100000000000000000000000000000000111111111111111111111111111111111000111110000000000000000000000000000000000000000000000000000001110000111111100011110001111111111111111111100111111111111111100000
1111111111111111111111111110000000000000000111111111111111111100000000000000000000000000000000000111111111111111111111111111111000111110000000000000000000000000000000000000000000000000000001110000111111100011110001111111111111111111100111111111111111100000
1111111111111111111111111111000000000000000111111111111111111100000000000011000000000000010000000000000000111111110000000000000100111110000000000000000000000000000000000000000000000000000001110000000000000011110001111111111111111111100111111111111111100000
1111111111111111111111111111000000000000000111111111111111111100001111111111100000000000100000000000000000011111110000000000000100111111111111111111100000000000000011111111111111111111111111110000000000000011110001111111111000000000000111111111111111000000
0011111111111111111100000001000000000000000000000000000000000000001111111111111110001111100000000000000000011111110000000000000000000000000000000000000000000000000010000000111111111111111111000000000000000011110001111111111000000000000000011110000000000000
0011111111111111111000000001000000000000000000011111111111111110001111111111111110001111100000000000000000011111110000000000000001111111111111111000000000000000000010000000011111111111111111000000000000000011110000000000000000000000000000000000000000000001
0011111111111111111000000001000000000000000011111111111111111110001111111111111110001111100000000000000000011111110000000000000001111111111111111111000000000000000010000000011111111111111111000000000000000011110000000000000000000000000000010000000000000011
0011111111111111111000000001000000000000000011111111111111111110001111111111111110001111100000000000000000011111110000000000000001111111111111111111000000000000000010000000011111111111111111000000000000000011110000000000000000000000000000010000000000011111
0011111111111111111000000001000000000000000011111111111111111110001111111111100000001111100000000000000000011110000000000000000001111111111111111111000000000000000010000000011111111111111111000000000000000011110000000000000000000000000000000000000000011111
0011111111111111111000000000000000000000000011111111111111111110001111111111100000001111100000000000000000011110000000000000000001111111111111111111000000000000000000000000011111111111111111000000000000000000000000000000000000000000000000000000000000011111
1111111100000000011000000000000000000000000011111111111111111110001111111111100000111111100000000000001111111000000000000000000001111111111111111111000000000000000000000000011000000000111111110000000000000000000000000000000000000000000000000000000000000000
1111111100000000011000000000000000000000000011111111111111111110001111111111100000001111100000000000000000000000000000000000000001111111111111111111000000000000000000000000011000000000111111110001100000000000000000000000000000000000000000000110000000000000
1111111100000000011000000000000000000000000011111111111111111111001111111111110000001111100000000000000000000000011000000000000011111111111111111111000000000000000000000000011000000000111111110001100000100000000000000000000000000000000000000110000000000000
1111111100000000011000000000000000000000000011111111111111111110001111111111110100001111100000000000000000000000011000000000000001111111111111111111000000000000000000000000011000000000111111110011111111111101110011111000000000001000000000000110000000000000
0000000000000000010000000000000000000000000011111111111111111110001111111111110111001111100000000000000000000000011000000000000001111111111111111111000000000000000000000000001000000000000000000011111111111101110011111000000000000000000000000110000000000000
0000000000000000010000000000000000000000000011111111111111111110001111111111110111001111100000000000000000000000011000000000000001111111111111111111000000000000000000000000001000000000000000000011111111111101110011111000000000000000000000000110000000000000
0000000000000000010000000000000000000000001111111111111111111110001111111111110111001111100000000000000000000000011000000000000001111111111111111111110000000000000000000000001000000000000000000011111111111101000011111000000000000000000000000110000000000000
0000000000000000000000000000000000000000001111111111111111111111000110000010000000000000000000000000000000000000011000000000000011111111111111111111110000000000000000000000000000000000000000000011111111111100000011111000000000000000000000000110000000000000
0010000000000000000000000000000000000000001111111111111111111111000110000000000000000000000000000000000000000000011000000000000011111111111111111111110000000000000000000000000000000000000001000011111111111000000011111000000000000000000000000000000000000000
0011111110000000000000000000000000000000001111111111111111111110000000000000000000000000000000000000000000000000000000000000000001111111111111111111110000000000000000000000000000000001111111000011111111111000001111111000000000000011111110000000000000000000
0111111110000000000000000000000000000000001111111110000000000000000000000000000000000000000000000000000000000000000000000001111100000000000001111111110000000000000000000000000000000001111111100011111111111000000011111000000000000000000111100000000000000000
0111111110000000000100000000000000000000001111111110000000000000000000000000001111000000000000000000000000000000000000000001111100000000000001111111110000000000000000000000100000000001111111100011111111111000000011111000000000000000000111100000000000000000
0111111110000000000011111111111110000000001111111110000000000000000000000000001111000000000000000000000000000001000000000001111100000000000001111111110000000011111111111111000000000001111111100011111111111111100011111000000000000000000111111100000000000000
0111111110000000000001111111111111000000001111111110000000000000000000000000001111000000000000000000000000000001000000000000001100000000000001111111110000000011111111111110000000000001111111100011111111111111100011111000000000000000000111111100000000000000
0001111110000000000001111111111111000000001111111110000000000000000000000000001111000000000000000000000000000000000000000000000100000000000001111111110000000011111111111110000000000001111110000011111111111111100011111000000000000000000111111100000000000000
0001111110000000000001111111111111000000001111111110000000000000000000000000001111000111111111100000000000000001111000000000000000000000000001111111110000000011111111111110000000000001111110000011111111111111100011111000000000000000000111111100000000000000
0001111110000000000001111111111111000000000000000000000000000000000000000000001111000111111111100000000000011111111111111100000000000000000000000000000000000011111111111110000000000001111110000011111111111000000000001000000000000000000111111100000000000001
1111111110000000000000000001000000000000000000000000000000000000000000000000001111000111111111111111111110011111111111111110000000000000000000000000000000000000000010000000000000000001111111110000000000110000000000000100000000000000001111111100000000000001
1111111110000000000000000001000000000000000000000000000000000000000011111110001111000111111111111111111110011111111111111110000000000000000000000000000000000000000010000000000000000001111111110000000000000000000000000000000001111111111111111111111111111110
0011111110000000000000000000000111000011111111111110000111000000000011111110001111000111111111111111111110011111111111111110000000000011100001111111111111000011100000000000000000000001111111000000000000000000000000000000001111111111111111111111111111111110
0011111110000000000001111000000111000011111111111100000011000000000011111110001111000111111111111111111111011111111111111111100000000011000000111111111111000011100000011110000000000001111111000000000000000000000000000000000000000111111111111111111111111110
0011111111110000000001111000001111000011111111111100000011000000000011111110001111000111111111111111111111011111111111111111100000000011000000111111111111000011110000011110000000001111111111000000000000000000000000000000000000000111111111111111111111111110
0011111111100000000001111000000000000011111111111101111111000000000000011110001111000111111111111111111111011111111111111111100000000011111110111111111111000000000000011110000000000111111111000000000000000000000000000000000000000111111111111111111111111110
0000000000000000000001111000011111000000000000000001111111000000000000111110000001000111111111111111111111011111111111111111100000000011111110000000000000000011111000011110000000000000000000000000000000000000000000000000000000000111111111111100000111111110
0000000000000000000011111111111111000000000000000001111111000000000000111111111000000000000111111111111111011111111111111111100000000011111110000000000000000011111111111111000000000000000000000000011000000000000000000000000000000000000000000000000000000000
0000000000000000000111111111111111000000000000000001111111000000000000111111111000000000000111111111111111011111111111111111100000000011111110000000000000000011111111111111100000000000000000001000011000000001000000000000000000000000000000000000000000000000
0000000000000000000111111111111111100000000001111111111111000000000000011111111000000000000111111111111111011111111111111111100000000011111111111110000000000111111111111111100000000000000000001000011000000011000000000000000000000000000000000000000000000000
0000000000000000000011111111111111000000000001111111111111000000000011100111111000000000000111111111111111011111111111111111100000000011111111111110000000000011111111111111000000000000000000001000011000000011000000000000000000000000000000000000000000000000
0000000000000000000011111111111111000000000001111111110001000000000011100111111001000000000111111111111111011111111111111111111100000010001111111110000000000011111111111111000000000000000000001000011000000011111111111111000000000000000000000000000000000000
0000000000000000000011111111111111000000000001111111110001000000000011100111111111000000000111111111111111011111111111111111101100000010001111111110000000000011111111111111000000000000000000001010011000000011111111111111000001100000000000000000000000000000
0111111111111000000011111111111111000010000001111011101110000000000000011111111111000000000111111111111111011111111111111111111100000001110111011110000000000011111111111111000000011111111111101111111000000011111111111111000001100000000000000000000000000000
0111111111111000000011111111111111000000000001111000001110000000000000000000000000000000000111111111111111011111111111111111111100000001110000011110000000000011111111111111000000011111111111101111111000000011111111111111000001100000000000000000000000000000
1111111000000000000011111111111111110000000001111000001110000000000000000000000000000000000111111111111111011111000001111111111100000001110000011110000000001111111111111111000000000000011111111111111000000011111111111111000001100000000000000000000000000000
1111111000000000000011111111111111110000000000000000000000000000000000000000000000000000000111111111111111011101000001111111111100000000000000000000000000001111111111111111000000000000011111111111111000000011111111111111000000100000000000000000000000000000
1111111100000000000011111111111111000000000000000000000000000000000000000000000000000000000111111111111111011111000101111111111100000000000000000000000000000011111111111111000000000000111111111111111000000011111100011111100001100000000000000000000000000000
1111111000000000000000000000000000000000000000000000000000000000000000000000000000000000000111111111111111000000111111111111101100000000000000000000000000000000000000000000000000000000011111111111111000000000001100011110000001100000000000000000000000000000
1111111111110000000000000000000000000000000000000000000000000000000000000000000000000000000011000010000000000000111110111111111100000000000000000000000000000000000000000000000000001111111111111111100000000000001100011111111111100000000000000000000000000000
1111111111111111111111111111111111111111111111111111000000000000000000000010000011111111111110111100111111111111111111111111111100000000000011111111111111111111111111111111111111111111111111110001111111111100000001111111111111100000000000000000000000000000
1111111111111111111111111111111111111111111111111111111110000000001000000000000011111100000000000000011111111111111111111111111100000001111111111111111111111111111111111111111111111111111111110001111111111100000001111111111111100000000000000000000000000000
1111111111111111111111111111110000000000000011111111111100000000000000000001011100000100000000000000011111111111111111111111111100000000111111111111000000000000001111111111111111111111111111110001111111111100000000011111111111100000000000000000000000000000
1111111111111111111111111111000000000000000011111111111110000000000000000001111100000100000000000000011111111111111111111111111100000001111111111111000000000000000011111111111111111111111111110001111111111100000000011111111111100000000000000000000000000000
1111111000111110000111111111000000000000000011111111111110000000000000000001111100000100000000000000011111111111111111111111111100000001111111111111000000000000000011111111100001111100011111110001111111111100000000011111111111100000000000000000000000000000
1111111000111110000111111111110000000000000011111110000000000001000000000000000000000100000000000000011111111111111111111111111110000000000001111111000000000000001111111111100001111100011111110001111111111100000000011111111111100000000000000000000000000000
1111111000100010000111111111110000000000000011111110000000000001000000000000000000000100000000000000011111111100000000000111111110000000000001111111000000000000001111111111100001000100011111110001111111111100000000011111111111100000000000000000000000000000
1111110111000000000111111111110000000000000011111111111111111111001000000000000000000100000000000000011111111100000000011000111111111111111111111111000000000000001111111111100000000011101111110001111111111100000000011111111111111111111111111111111111111111
1111110111000000000111111111110000000000000011111111111111111111000000000000000000000100000000000000011111111101100000011000111111111111111111111111000000000000001111111111100000000011101111110001111111111100000000000001111111110000000000000011111110011110
1111110000000000000111111111110000000000000011111111111111111111111000000000000000000100000000000000011111111111100000011000111111111111111111111111000000000000001111111111100000000000001111110011111111111111000000000001111111111111111111110011111110011110
1111110000000000000111111111100000000000000001111111111111111111111000000000000000000100000000000000011111111111100000000111111111111111111111111110000000000000000111111111100000000000001111110011111111111111000000000001111111111111111111110011111110011110
1111110000000111111111111111110000000000000001111111111111111111111000000000000000000100000000000000011111111111100000000011111111111111111111111110000000000000001111111111111111100000001111110001111111111100000000000001111111111111111111110111111110011110
1111110000000111111111111111110000000000000011111111111111111111111000000000000000000100000000000000011111111111100000000011111111111111111111111111000000000000001111111111111111100000001111111000000011111100000000000001111111111111111111111111111110011111
1111110000000111111111111111110000011110000111111111111111111111111000000000000000000100000000000000000000011101111110000011111111111111111111111111100001111000001111111111111111100000001111111000000001111100000000000001111111111111111111111111111111111111
1111110000000100000000000011111111111110000111111111100000000011111000000000000000000100000000000000000000011100001110000111111111000000000111111111100001111111111111000000000000100000001111111000000000000000000000000001111111111111111111111111111111111111
1111110011111100000000000011110000111110000111111111000000000011111000000000000000000100000000000000000000011100001110000000111111000000000011111111100001111100001111000000000000111111001111111000000000000000000000000001111111111111111111111111111111111111
1111110011111100000000000011110001111110000111111111111000000011111000000000000000000100000000000000000000011100001110000000111111000000011111111111100001111110001111000000000000111111001111111000000000000000000000000001111111111111111111111111111111111111
1111110001111000000000000011110001111111111111111111111000000011111110000000000000000110000000000000000000011100001110000000111111000000011111111111111111111110001111000000000000011110001111111000000000000000000000000000000000111111111111111111111111111111
1111111111111111111111111111111111110111111111111111111000000000111110000000000000000110000000000000000000011100001110000000111100000000011111111111111111101111111111111111111111111111111111111000000000000000000000000000000111111111111111111111111111111111
1111111111111111111111111111111111110111111111111111111000000000111110000000000000000110000000000000000000011100001111111111111100000000011111111111111111101111111111111111111111111111111111110111111111111100000000111111111111111101111111111111001111111111
1111111111111111111111111111110000000000000111111111111000000111111111000000000000000111111111111000000000011100001111111111111111100000011111111111100000000000001111111111111111111111111111110111111111111100000001111111111111111110111111111110000000000011
1111111111111000000000111111110000000000000111111111111000000111111111111111100001111111111111111000000000011100001111111111111111100000011111111111100000000000001111111100000000011111111111111111111111111100000001111111111111111110000011100000000000000011
1111111111111000000000111111110000000000000111111111111000000111011111111111111111111111111111111111111111111100001111111111111111100000011111111111100000000000001111111100000000011111111111111111111111111100000001111111111111111110000011100000000000000011
1111111111111000000000111111110000000000000111111111111000000001001111111111111101111111111111111111111111111100001111111111111110000000011111111111100000000000001111111100000000011111111111111111111111111100000001111111111111111110000011100000000000000011
1111111111111000000000111111110000000000000011111111111000000001000001111111111101111111111111111111111111111100001111111111111110000000011111111111000000000000001111111100000000011111111111111111111111111100000001111111111111111110000011100000000000000011
1111111111111000000000111111111111111111111101111111111000000001000001111111111111111111111111111111111111111100001111111111111110000000011111111110111111111111111111111100000000011111111111111111111111111111100001111111111111111110000011111110000000000011
1111111111111000000000111111111111111111111111111111111000000001000001111111111111111111111111111111111111111111111111111111111110000000011111111111111111111111111111111100000000011111111111111111111111111111100001111111111111111110000011111110000000000011
1000000000000000000000111111111111111111111111111111111000000011111111111111111111111111111111111111111111111111111111111111111111000000011111111111111111111111111111111100000000000000000000011111111111111111111000000011111111111110000000111110000000000011
0000000000000000000000111111111111111111111111111111111111111011111111111111100111111111111111111111100000000000000000000000000000000000111111111111111111111111111111111100000000000000000000001111111111111111111111111111111111111110000011111110000000000011
0000000000000000000000111111111111111111111111111111111111111111111111111111100111111111111111111111100000000000000000000000000000000000111111111111111111111111111111111100000000000000000000001111111111111001111111111111111111111110000011111100000000000011
1000000000000000000000111111111111111111111111011111111111111111111111111111100111111111111111111111100000000000000000000000000000000000111111111011111111111111111111111100000000000000000000011111111111111001111111111111111111111110000011110100000000000011
1000000000000000000011111111111111111111111111011111111111111111111111111111100111111111111111111111100000000000000000000000000000000000111111111011111111111111111111111111000000000000000000011111111111111001111111111111111111111110000011000100000000000011
1000000000000000000011111111111111111111111111011111111111111111111111111111100111111111111111111111100000000000000000000000000000000000111111111011111111111111111111111111000000000000000000011111111111111001111111111111111111111110000011000100000000000011
1000000000000000000011111111111111111111111110011111111100000000111111111111100111111111111111111111100000000000000000000000000000000000111111111001111111111111111111111111000000000000000000011111111111111001111111111111111111111110000011000100000000000011
0000000000000000000011111111111111111111111110011111111100000000111111111111100111111111111111111111100000000000000000000000000000000000111111111001111111111111111111111111000000000000000000001111111111111001111111111111111111111111111111101111101111100111
1000000000000000000011111111111111111111111110011111111100000000111111111111111111111111111111111111100000000000000000000000000000000000111111111001111111111111111111111111000000000000000000011111111111111001111111111111111111111111111111101111111111100111
1000000000000000000011111111111111111111111110011111111100000000111111111111111111100000001111111111100000000000000000000000000000000000111111111001111111111111111111111111000000000000000000011111111111111111111111111111111111111111111111101111111111111111
1000000000000000000011111111111111111111111110000000000000000011111111111111111110000111111111111111100000000000000000000000000000000000000000000001111111111111111111111111000000000000000000010000011111111111111111111111111111111111111111101111111111111111
1000000000000000000011111111111111110111111110000000000000000011111111111111111110000111111111111111100000000000000000000000000000000000000000000001111111101111111111111111000000000000000000010000011111111111111111111111111111111111111111000011111111111111
1000000000000000000011111111111111110111111110000000000000000011111111111111110000000111111111111111100000000000000000000000000000000000000000000001111111101111111111111111000000000000000000010000011111111111011111111011111111111111111111000011111111111111
1000000000000000000011111111111111110111111110000000000000000011111111111111110000000111111111111111100000000000000000000000000000000000000000000001111111101111111111111111000000000000000000010011111111111111011111111111111111111111111111000011111111111111
1000000000000000011111111111111111110111111110000000000000000011111111111111110000000111111111111111100000000000000000000000000000000000000000000001111111101111111111111111111000000000000000010111111111111111111111111111111111111111111111000011111111111111
1111111111111111111111111111111111110111111100000000000000000011111111111111110000000111111111111111100000000000000000000000000000000000000000000000111111101111111111111111111111111111111111111111111111111000011111111111111110000000000111000011111111111111
1100000000000000000001111111111111110000000000000000000000000000011111111111110000000111111111111111100000000000000000000000000000000000000000000000000000001111111111111110000000000000000000111111110000000000000001111111111111111111111111111111111111111111
1100000000000000000001111111111111110000000000000000000000000000011111111111110000000011111111111111100000000000000000000000000000000000000000000000000000001111111111111110000000000000000000111111100000000000000001100000000001111111111111111111111111111111
1100000000000000000001111111111111111000000000000000000000000000100000000000000000000000000000011111100000000000000000000000000000000000000000000000000000011111111111111110000000000000000000111111100000000000000001100000000001111111111111111111111111111111
1100000000000000000001111111111111111000000000000000000000000000100000000000000000000000000000000011100000000000000000000000000000000000000000000000000000011111111111111110000000000000000000111111100000000000000001100000000001111111111111111111111111111111
1100000000000000000000100111111111111110000000000000000000000000100000000000000000000000000111111111100000000000000000000000000000000000000000000000000001111111111111100100000000000000000000111110000000000000000001000000000001111111111111111111111111111111
0011100000000000000000111111111111111110000000000000011000000000100000000000000000000000000111111111100000000000000000000000000000000000011000000000000001111111111111111100000000000000000111001110000000000000000001000000000001111111111111111111111111111111
0011100000000000000000111111000000011110000000000000011000000000100000000000000000000000000111111111100000000000000000000000000000000000011000000000000001111000000011111100000000000000000111001110000000000000000001000000000001111111111111111111111111111111
0011100000000000000000111111000000011111111110000011111111111111100000000111110000000000000111111111100000000000000000000000000000000000111111000001111111111000000011111100000000000000000111001110000000000000000001000000000001111111111111111111111111111111
0001100000000000000001111111111111111111111110000011111111111111100000001111110000000000000111111111100000000000000000000000000000000000111111000001111111111111111111111110000000000000000110001110000000000000000001000000000001111111111111111111111111111111
0011100000000000000001111111111111111111111110000011111111111111000111111111110000000000000111111111100000000000000000000000000000000000111111000001111111111111111111111110000000000000000111001110000000000000000001000000000001111111111111111111111111111111
1000000000000000000001111111111111111111111110000011111111111111001111111111111100000000000111111111100000000000000000000000000000000000111111000001111111111111111111111110000000000000000000011110000000000000000001000000000001111111111111111111111111111111
0000000000000000000001111111111111111111111110000011111111111111001111111111111100000000000111111111100000000000000000000000000000000000111111000001111111111111111111111110000000000000000000001110000000000000000001000000000001111111111111111111111111111111
0000000000000000000001111111111111111111111110000001111111111111000111111111110000000000000111111111000000000000000000000000000000000000111110000001111111111111111111111110000000000000000000000000000000000000000001000000000001111111111111111111111111111111
0000000000000000000001111111111111111111111110000000111111111111000111111111110000000000000000011111000000000000000000000000000000000000111100000001111111111111111111111110000000000000000000000010000000000000000001000000000001111111111111111111111111111111
0000000000000000000001111111111111111111111110000000111111111111000111111111110000000000000000011111000000000000000000000000000000000000111100000001111111111111111111111110000000000000000000000000000000000000000001000000000001111111111111111111111111111111
0000000000000000000011111111111111111111111110000000111111111111000111111111110000000000000000011111000000000000000000000000000000000000111100000001111111111111111111111111000000000000000000000000000000000000000001000000000001111111111111111111111111111111
0000000000000000011111110001111111111111111110000000111111111111000111111111110000000000000000011111000000000000000000000000000000000000111100000001111111111111111110001111111000000000000000000000000000011111000001000000000001111111111111111111111111111111
0000000000000000011111110001111111111111111110000000111111111111000111111111110000000000000000011111000000000000000000000000000000000000111100000001111111111111111110001111111000000000000000000000000000011111000001000000000001111111111111111111111111111111
0100000101111111111111111111111111111111111111111110011000000000000111111111110000000000000000011110000000000000000000000000000000000000011000000001111111111111111110001111111111111110100000100000000000010111000001000000000001111111111111111111111111111111
0000000001111111111111111111111111111111111111111110000000000000000111111111110000000111111000011111100000000000000000000000000000000000000000000001111111111111111110000111111111111110000000000010000000000000111111000000000001111111111111111111111111111111
0000000001111111111111111111111111111111111111111111000000000000000111111111110000000111111000011111100000000000000000000000000000000000000011111110011111111111111110000011111111111110000000000000000000100000111111111111101111111111111111111111111111111111
0000000000111111111111111111111111111111111111111111111000000000000001111111111111001111111111111000000000000000000000000000000000000000011111111111110000011111111111111110011111110000000000001111111111111111111111111111001111111111111111111111111111111111
0000000000111111111111111111111111111111111111111111111000000000000000011111111111001110000111111000000000000000000000000000000000000000011111111111111000011111111111111111100000000000000000001111111111111111111111111110000001111111111111111111111111111111
0000000001111111111111111111111111111111111111111111111010000010000000011111110000001110000001111000000000000000001111111111100001000001011111111111111100011111111111111111100000000110000000001111111111111111111111111110000001111111111111111111111111111111
1111111111111111111111111111111111111111111111111110000000000000000000011111110000000000000011111000000000000000001111111111100000000000000000000111111100011111111111111111100000001111111111111111111111111111111111111110000001111111111111111111111111111111
1111111111111111111111111111111111111111111111111110000000000000000000011111110000000000000011111000000000000000001111111111100000000000000000000111111100011111111111111111100000001111111111111111111111111111111111111110000001111111111111111111111111111111
1111111111111111111111111111111111111111111111111110000000000000000000011111110000000000000011111000000000000000001111111111100000000000000000000000111111111111111111111111100000001111111111111111111111111111111111111110000001111111111111111111111111111111
1111111111111111111111111111111111111111111111111110000000000000000000011111110000000000000011111000000000000000001111111111100000000000000000000000011111111111111111111111100000001111111111111111111000000000001111111110000001111111111111111111111111111111
1111111111111111111111111111111111111111111111111111111111111111111111111111111111111111111111111111111110000000001111111111100000000000000000000000011111111111111111111111100000001111111111111111000110000000001111111110000001111111111111111111111111111111
1111111111111111111111111111111111111111111111111111111111111111111111111111111111111111111111111111111110000000001111111111100000000000000000000000011111111111111111111111100000011111111111111111000110000001101111111110000001111111111111111111111111111111
1111111111111111111111111111111111111111111111111111111111111111111111111111111111111111111111111111111110000000111111111111110000000000000000000000011111111111111111111111100000111111111111111111000110000001111111111110000001111111111111111111111111111111
1111111111111111111111111111111111111111111111111111111111111111111111111111111111111111111111111111111110000000111111111111110010000000000000000000011111111111111111111111100000111111111111111111111000000001111111111110000000000000001000000000000000000111
1111111111111111111111111111111111111111111111111111111111111111111111111111111111111111111111111111111110000000001111111111100000111000000000000000011111111111111111111111100000111111111111111111110000000001111111111110000000000000001000000000000000000111
1111111111111100000111111111111111111111111000000111111111111111111111111111111111111111111111111111111110000000001111110000000100011000000000000000011111111111111111111111100000111111111111111111110000000001111111111110000000000000001000000000000000000111
1111111111111100000111111111100000001111110000000111111111111111111111111111111111111111111111111111111110000000001111100000000100111000000000000000001111110000000111111111100000111111111111111111110000011111101110000000000000000000001000000000000000000111
0000000001100000000000000111100000001111110000000111111111111111111111111111111111111111111111111111111110000000000000000000000100111000000000000000001111110000000111100000000000000110000000001111111000011100001110000000000000000000001000000000000000000111
0000000001100000000000000111111111111111110000000111111111111111111111111111111111111111111111111111111110000000000000000000000100111000000000000000001111111111111111100000000000000110000000001111000000011100001110000000000000000000001000000000000000000111
0000000000000000000000000111111111111110010000000111111111111111111111111111111111111111111111111111111110000000000000000000000111000000000000000000001001111111111111100000000000000000000000001111000000011100001110000000000000000000001000000000000000000111
0000000000000000000000000001111111111111111000000000000000000011111111111111111111111111111111000000000000000000000000000000000111000000000000000000011111111111111110000000000000000000000000001111000000011100001110000000000000000000011000000000000000011111
0000000000000000000000000001111111111111111000000000000000000011111111111111111111111111111111111000000000000000000000000000000111000000000000000000011111111111111110000000000000000000000000001111000000011100001110000000000000000000011000000000000000011111
0000000000000000000000000000111111111111111000000000000000000011111111111100111111111111101111111111111111000000001111111111111011000000000000000000011111111111111100000000000000000000000000001111111111111100001110000000000000000000011000000000000000011111
0000000000000000000000000000111111111111111000000000000000000011110000000000011111111111011111111111111111100000001111111111111011000000000000000000011111111111111100000000000000000000000000001111111111111100001110000000000111111111111000000000000000111111
1100000000000000000011111110111111111111111111111111111111111111110000000000000001110000011111111111111111100000001111111111111111111111111111111111111111111111111101111111000000000000000000111111111111111100001110000000000111111111111111100001111111111111
1100000000000000000111111110111111111111111111100000000000000001110000000000000001110000011111111111111111100000001111111111111110000000000000000111111111111111111101111111100000000000000000111111111111111100001111111111111111111111111111111111111111111110
1100000000000000000111111110111111111111111100000000000000000001110000000000000001110000011111111111111111100000001111111111111110000000000000000000111111111111111101111111100000000000000000111111111111111100001111111111111111111111111111101111111111111100
1100000000000000000111111110111111111111111100000000000000000001110000000000000001110000011111111111111111100000001111111111111110000100000000000000111111111111111101111111100000000000000000111111111111111100001111111111111111111111111111101111111111100000
1100000000000000000111111110111111111111111100000000000000000001110000000000011111110000011111111111111111100001111111111111111110000000000000000000111111111111111101111111100000000000000000111111111111111100001111111111111111111111111111111111111111100000
1100000000000000000111111111111111111111111100000000000000000001110000000000011111110000011111111111111111100001111111111111111110000000000000000000111111111111111111111111100000000000000000111111111111111111111111111111111111111111111111111111111111100000
0000000011111111100111111111111111111111111100000000000000000001110000000000011111000000011111111111110000000111111111111111111110000000000000000000111111111111111111111111100111111111000000001111111111111111111111111111111111111111111111111111111111111111
0000000011111111100111111111111111111111111100000000000000000001110000000000011111110000011111111111111111111111111111111111111110000000000000000000111111111111111111111111100111111111000000001110011111111111111111111111111111111111111111111001111111111111
0000000011111111100111111111111111111111111100000000000000000000110000000000001111110000011111111111111111111111100111111111111100000000000000000000111111111111111111111111100111111111000000001110011111011111111111111111111111111111111111111001111111111111
0000000011111111100111111111111111111111111100000000000000000001110000000000001011110000011111111111111111111111100111111111111110000000000000000000111111111111111111111111100111111111000000001100000000000010001100000111111111111111111111111001111111111111
1111111111111111101111111111111111111111111100000000000000000001110000000000001000110000011111111111111111111111100111111111111110000000000000000000111111111111111111111111110111111111111111111100000000000010001100000111111111111111111111111001111111111111
1111111111111111101111111111111111111111111100000000000000000001110000000000001000110000011111111111111111111111100111111111111110000000000000000000111111111111111111111111110111111111111111111100000000000010001100000111111111111111111111111001111111111111
1111111111111111101111111111111111111111110000000000000000000001110000000000001000110000011111111111111111111111100111111111111110000000000000000000001111111111111111111111110111111111111111111100000000000010111100000111111111111111111111111001111111111111
1111111111111111111111111111111111111111110000000000000000000000111001111101111111111111111111111111111111111111100111111111111100000000000000000000001111111111111111111111111111111111111111111100000000000011111100000111111111111111111111111001111111111111
1101111111111111111111111111111111111111110000000000000000000000111001111111111111111111111111111111111111111111100111111111111100000000000000000000001111111111111111111111111111111111111110111100000000000111111100000111111111111111111111111111111111111111
1100000001111111111111111111111111111111110000000000000000000001111111111111111111111111111111111111111111111111111111111111111110000000000000000000001111111111111111111111111111111110000000111100000000000111110000000111111111111100000001111111111111111111
1000000001111111111111111111111111111111110000000001111111111111111111111111111111111111111111111111111111111111111111111110000011111111111110000000001111111111111111111111111111111110000000011100000000000111111100000111111111111111111000011111111111111111
1000000001111111111011111111111111111111110000000001111111111111111111111111110000111111111111111111111111111111111111111110000011111111111110000000001111111111111111111111011111111110000000011100000000000111111100000111111111111111111000011111111111111111
1000000001111111111100000000000000111111110000000001111111111111111111111111110000111111111111111111111111111110111111111110000011111111111110000000001111111100000000000000111111111110000000011100000000000000011100000111111111111111111000000011111111111111
1000000001111111111110000000000000111111110000000001111111111111111111111111110000111111111111111111111111111110111111111111110011111111111110000000001111111100000000000001111111111110000000011100000000000000011100000111111111111111111000000011111111111111
1110000001111111111110000000000000111111110000000001111111111111111111111111110000111111111111111111111111111111111111111111111011111111111110000000001111111100000000000001111111111110000001111100000000000000011100000111111111111111111000000011111111111111
1110000001111111111110000000000000111111110000000001111111111111111111111111110000000000000000000000000000000000000000000001111111111111111110000000001111111100000000000001111111111110000001111100000000000000011100000111111111111111111000000011111111111111
1110000001111111111110000000000000111111111111111111111111111111111111111111110000000000000000000000000000000000000000000001111111111111111111111111111111111100000000000001111111111110000001111100000000000111111111110111111111111111111000000011111111111110
0000000001111111111111111110111111111111111111111111111111111111111111111111110000000000000000000000000000000000000000000001111111111111111111111111111111111111111101111111111111111110000000001111111111001111111111111011111111111111110000000011111111111110
0000000001111111111111111110111111111111111111111111111111111111111100000001110000000000000000000000000000000000000000000001111111111111111111111111111111111111111101111111111111111110000000001111111111111111111111111111111110000000000000000000000000000001
1100000001111111111111111111111000111100000000000001111000111111111100000001110000000000000000000000000000000000000000000001111111111100011110000000000000111100011111111111111111111110000000111111111111111111111111111111110000000000000000000000000000000001
1100000001111111111110000111111000111100000000000011111100111111111100000001110000000000000000000000000000000000000000000000011111111100111111000000000000111100011111100001111111111110000000111111111111111111111111111111111111111000000000000000000000000001
1100000000001111111110000111110000111100000000000011111100111111111100000001110000000000000000000000000000000000000000000000011111111100111111000000000000111100001111100001111111110000000000111111111111111111111111111111111111111000000000000000000000000001
1100000000011111111110000111111111111100000000000010000000111111111111100001110000000000000000000000000000000000000000000000011111111100000001000000000000111111111111100001111111111000000000111111111111111111111111111111111111111000000000000000000000000001
1111111111111111111110000111100000111111111111111110000000111111111111000001110000000000000000000000000000000000000000000000011111111100000001111111111111111100000111100001111111111111111111111111111111111111111111111111111111111000000000000011111000000001
1111111111111111111100001000000000111111111111111110000000111111111111000000000000000000000000000000000000000000000000000000011111111100000001111111111111111100000000000000111111111111111111111111100111111111111111111111111111111000000000000011111100000001
1111111111111111111000000000000000111111111111111110000000111111111111000000000000000000000000000000000000000000000000000000011111111100000001111111111111111100000000000000011111111111111111110111100111111110111111111111111111111000000000000011111111111000
1111111111111111111000000000000000011111111110000000000000111111111111100000000000000000000000000000000000000000000000000000011111111100000000000001111111111000000000000000011111111111111111110111100111111100111111111111111111111000000000001111111111111100
1111111111111111111100000000000000111111111110000000000000111111111100011000000000000000000000000000000000000000000000000000011111111100000000000001111111111100000000000000111111111111111111110111100111111100111111111111111111111000000000001111111111111100
1111111111111111111100000000000000111111111110000000001110111111111100011000000000000000000000000000000000000000000000000000000011111101110000000001111111111100000000000000111111111111111111110111100111111100000000000000111111111000000000000011111111111000
1111111111111111111100000000000000111111111110000000001110111111111100011000000000000000000000000000000000000000000000000000010011111101110000000001111111111100000000000000111111111111111111110101100111111100000000000000111110000000000000000011111111111000
1000000000000111111100000000000000111111111110000100010001111111111111100000000000000000000000000000000000000000000000000000000011111110001000100001111111111100000000000000111111100000000000010000000111111100000000000000111110000000000000000011111111111000
1000000000000111111100000000000000111111111110000111110001111111111111111111110000000000000000000000000000000000000000000000000011111110001111100001111111111100000000000000111111100000000000010000000111111100000000011111111111111111111111111111111111111111
0000000111111111111100000000000000001111111110000111110001111111111111111111110000000000000000000000000000000000000000000000000011111110001111100001111111110000000000000000111111111111100000000000000111111100000000011111111111111111111111111111111111111111
0000000111111111111100000000000000001111111111111111111111111111111111111111110000000000000000000000000000000000000000000000000011111111111111111111111111110000000000000000111111111111100000000000000111111100000000011111111111111111111111111111111111111111
0000000011111111111100000000000000111111111111111111111111111111111111111111110000000000000000000000000000000000000000000000000011111111111111111111111111111100000000000000111111111111000000000000000111111100000011111111111111111111111111111111111111111111
0000000111111111111111111111111111111111111111111111111111111111111111111111110000000000000000000000000000000000000000000000010011111111111111111111111111111111111111111111111111111111100000000000000111111111110011111111111111111111111111111111111111111111
0000000000001111111111111111111111111111111111111111111111111111111111111111110000000000000000000000000000000000000000000000000011111111111111111111111111111111111111111111111111110000000000000000011111111111110011111111111111111111111111111111111111111111
