P1
# horizontal_streaks_vs_g4: horizontal streaks: runs of set and clear cells about 8 long across and 5 down, each row loosely following the one above, no repeated 8x8s; G4 codes each run edge against the row above, Tessera writes every 2x2 not all one value as four raw cells
# from record against_g4: Tessera 29096 bits over CCITT G4 (fax crate)
256 256
0000000000000000000000000111000000000100011000101001101100000100110010110010001010111101111000000011111110000000111111100000001111111000000011111111111111100000000000000000010011011111010011111111111110101000001011101000101000011101100010000000000000000001
0000000000000000000000000111000000011111111111101111000000000000000000000000000001111001111000000000000000000000000000000000000000000000000000001111111111100000000000000000010100111101111011111111111000000000000000000111100000000001110001111110000011111111
0000000000000000000000000111000000011111111111111111000000011100000000000000000001111001111000000010000001100000000111100000001111111000001100111111111111100000000000000000000000000000001000111111111000000000000000000111100000000001110001111110000111111111
0000000001111111111111111111111111111111111111111111111111111111111111000000000001110000000111111100000001100000000000011100001111111000001100111111111111100000000000011111111111111111111111111111111111111111111111111111111111111111111111111111111111111111
0000000001111111111111111111111111111111111111111111111111111111111111000000000001110000000111111100000001100000000000011000001111111000001100000111111111100000000000011110000000001111111111111111111111111111111111101111111111111111111111111111111111111111
0000000001111111111111111111111111111111111111111000000000011100000000000000000001110000000111111100000001100000000000000000000000000000000000000111100000000001111111111110011000001111111111111111111111111111111111101111111111111111111111111111111111111111
0100000001111111111111111111111111111111111111111000000000011100000000000000000001110000000111111100000001100000000000000000000000000000000000000001000000000000000000000001111000001111111111111111111000000111111111100001000000011110000001111110001111111111
0000000001111111111111111111111111111111111111111011111111111111111110000000000000001111111000000011111110011111111111111111111111111111111111111111111111111100000000000001111000001111111111111111110000000111111111100000000000011110000001111110001111111111
0000000001111111111111111111111111111111111111111011111111111111111110000000000000001111111000000011111110011111111111111111111111111111111111111111111111111100000000000001111000001111111111111111110000000111111111100000000000011110000001111110001111111111
0000000001111111111111111111111111111111111111111011000000000000000000000000111111111111111111111111111111111111111111111111111111111111111111111111111111111100000000000000011000000000000001111111110000000111111111100000000000011110000001111111111111111111
0000000001111111111111111111111111111111111111111000000000000000000000000000111111111111111111111111111111100000000111111100000000000000000000001111000000000000000000000000011000000000000001111111110000000111111111100000000000011110000001111111111111111111
0000000001111111111111111111111111111111111111111000011111110000000000000000000000000000000000000000000000000000000000000000000000000000000000001111111110011111111111100000011111111111111111111111110111111000001111111111111000011111111111111111111111100000
0000000001111111111111111111111111111111111111111000011111110000000000000000000000001000000000000000000000000000000000000000000000000000000000001111111110011111111111100000011111111111111111111111111000000000000001000111111000011111111111111111111111100000
0000000000000000000000000000000010000000000001111111100111111111000000011111111111110000000111111100000001100000000000000000000000000000000000000000000000000001111111111111011111100000001111111111111000010000000000000111111000011110000001111000000000000000
0000000000000000000000000000000010000000000001111111100110011111000000011111111110001111111000000011111110000000000000000000000000000000000000000000000000000001111111111111011111100000001111111111111000000000000000000111111000011110000001111000000000000000
0000000000000000000000000000000111111111011110000000011110011111000000011111111110001111111000000011111110000000000111100111001110000111111100000000000000000001111111111111011000000000000000000000000000000000000000000000000000000110000001111000000000000000
0000000000100000000000000000000111111111111110000000011110011111000000011111111110001111111000000011111110000000000111100111001110000111111100000000000100000001111111111111011000000000000000000000000000000000000000000000000000000110000001111000000000000000
0000000000000000000000000000000111111100000001111111111110011111111111111111111110001111111000000011111110000000000111100000000000000110000011000000000001111111111111111111011111111111110000011111111111111000001111111111111000011111110001111000000000000000
0000000000000000000000000000000000000000000000011111111110011111111111111111111110001111111000000011111110000000000111100000000000000110000111000001111110110111100000000000011000000011110000011111111111111000001111111111111000011111110001111000000000000111
0000000000000000000000000000000111111111111110000011111110011111000000011111111110001111111000000011111110000000000111100000000000000110000111111110000000111111101110000000011000000000000000000000000111100000001111111110111000000000000001111000000000000111
0000000000011111111111110000000111111000000001111111111110011110000000011111111110001111111000000011111110000000000111100000000000000110000111111110000000111111101110000000011000000000000000000000000100000000001111111111111000000000000000000000000000000111
0000000000000000000000000000000111111000000001111111111110011110000000000000000000001110000111111100000001100000000000011111111111111111111111110001111111000000010001100000011110000000000000000000000000000000001100000000000000010000000001111000001111111111
0000000000000000000000000000000111111001100001111111111110011110000000001111111111110000000111111100000001100000000000011111110000011001111100001111111111111111111111100000011110000000000000000000000000000000001100000000000000010000000001111000001111111111
0000011111111001101111111111111111111001100000000000000000000000000000000000000000010000011000000100000001000000000001100001110000011001111000001111111111111100000000000000011000000000000000000000000000000000000000000000000001111100000110001000011111111111
0000011111111001111111111111111111111001100000000000000000000000000000000000000000010000011000000100000001000000000000111111110000011001111100001111111111111100000000000000011000000000000000000000000000000000000000000000000000111100000111100000011111111111
0000011111111001111111111111000000000000000000000000000000000000000000100000000000010000011001000100000001000000000000000000000000000001111100010000000000000001111111100000011000000000000000000000000000000000000000000000000000000000000000000000000000000000
0000010000000001111111111111000000000000000000000000000000000011111111111111111111111111111111111111100001000000000000000000000000000001111100001111111111111111111111100000011000000000000000000000000000000000000000000000000000000000000000000000000000000000
0000010000000001111111111111110000000110011000000000000000000000000000000000000000010011111000000100000001111111111111111111111111111101111111110001111111000000011000000000011000001111110000011111111111111000000000000000000000000000000000000000000000000000
0000010000000001111111111111100000000110011000000000000000000000000000000000000001101111111111111011111110111111111111111111111111111100000111111110000000111111111111111111111111111111110000011111111111111000000000000000000000000000000000000000000000000000
0000010000000001111111111111100000000111111000111111111111111111111000000000000001101111111111111100000000000000000000000000000000000000000111111110000000111111111111111111111111111111100000011111111111111111111111111111111111111111111111111110000000111111
0000011111111000000000000000000001111111111111111111111111111111111000011110000001111111111111111111111111100000000000000000000001111000000111111110000000111111100000000000011000000000000000000000000111111000000000000000000000111111111111111110000000000111
0000011111111000000000000000000001111111111111111000000000011100000000000010000110011111111111111111111111100000000001111000001111111001111000111110000000111111100000000000011000000000000000000000000111111000000000000000000000111111111111111110000000000111
0000011111111000000000000000000001111111111111111000000000011100000000000010000110011111111111111111111111100000000001011000001111111001111000111110000000011111100000000000011000000000000000000000000111111000000000000000000000111111111111111110000000000111
0000000000000001111111111111100000011111111111111000000000011100000000000000000000000000000000000000000000100000000001011000001111110001111110111100000000111111100000000000011000000000000001111111111111000000000000000000000000111111111111111100000000000111
0000000000000001111111111111100000011111111111111000000000011100000000000000000000000000000000000000000000100000000001010000001111111001111110111110000000111111110000000001111111111111111111111111111111110000000000000000000000111111111111111000000000000111
0000000000000001111111111111100000000000000000000000000000000000000000000001111111111111111111111111100000000000000110100111110000000100000110110001111111000001010000000001111111111111111111111111111111110001110000011111111000000000000000000000000000000111
0000000000000001111111111111100000000000000000000000000000000000000000000001111111111111111111111111100000000000000110100111110000000100000110110001111111000001010000000001111111111111111111111111111111110001110000011111111000000000000000000001100000000111
0000100000000001111111111111100000000000000000000000000000000000000000000001111111111111111111111111100000000000000110100001110000000101111111111111111111111111111111111111111111111111111111111111111111110000010001100001111110000000000000000001100000000111
0000100000001001111111111111100000000000000000000000000000000000000000000001111111111111111111111111100111100000000110111111110000000101111111111111111111111111111111111111111111111111111111111111111111110000010001100001111110000111111000001110000000000111
1110000000000001100001111111100001111111111000011111111000011111011111111110000000011111111111111111100111100000000110111111101111111001111111111111111111111111111111111111111111111111111111111111111111110001111111111111111111111111111111111110000000111111
1110000000011001111110000000000001111111111000011111111000011111011111111110000000011111111111111111100111100000000110111111101111111111111111111111111111111111111111111111111111111111111111111111111111110000011110011111111001111111111111111110000000111111
1111100000011001111110011111100001100000000000000000000000000000001111111111111111111111111111111111110000000000000110011111101111111111111111111111111111111111111111111111111111111111111111111111111111110001111111100000111001111111111111111110000000111111
1111100000011000000001111111100001100000000000000000000000000000000000000000000000000000011111111111100000000000000110011111000000000111111111100001111111000000011111100001111111111111111111111111111111110001111111100000111001111111111111111110000000111111
1111100000000001111100011111100000000000000000000000000000000000000000000000000000000000011111111111100000000000000110011111000000000110000110000001111111000000011111100000011111111100000000000000001111000001111110000000000000000111111011111111111111111111
1111100000000001110110011111100000000000000000000000000000000000000000000000000000000000011111111111100000000000000100011111000000000110000110000001111111000000011111100000011111111100000000000000001111000001111110000000000000000111111111111111111111111111
1111101111111001100001100000000001111100000110000000000000000000000000000000000000000000011000000000000000000000000000011111001111111001111110000001111110000000011111100000011111111101111000000000001111000001111110000000000000000111111000000000001110000111
1111101111111001100001100000000001111100000111111000000000000000011110000000000000000011111000000000000000000000000111011110000000000110000110000110111111000000011111100000011111111100000000000000001110000001111110000000000000000111111000000000001110000111
1111101001111001100001111110000001111100000111111000000000000000011110001110000001110011111000000011111111100000000000011111110000000110000110000110000000111110111111100000011111111100000000000000000111000001111110000000000000000111111000000000001110000111
1111101001111001100001111110000001111100000111111000000000000000011110000000000001110011111000000011111111100000000000011111110000000110000110000110000000111110111111100000011111111100000000000000000111000001111110000000000000000111111000000000001110000111
1111101001111001111110000000000001111100000111111111111110000001100000000000000000001111111111111100000000000000000111100000001111110111111110001001111111000000011100000000011000000000000000000000000111000001111110000000000000000111111000000000001110000111
0111101001111001111110000000000001111100000000011111110000000001100000000000011000001111111000000011011111100000000000100001111111110111111111110111111111111111111100000000000000000000000000000000000111000001111110000000000000000111111000000000000000000111
1111111001111001111110000000000000110000000000011111110000000001100000000000011000001111111000000011011111100000000111100000110000000111111111110111111111111111111100000000000000000000000000111110000111000000000000011111000001111111111110001111100000000111
0111111001111001111100000000000001110000000000011111111000011101100000000000011000001111111000000011011111100000000111100000110000000111111111110111111111111111111100000000011110000000000000111110000111111111111111100000111001111111111000001111100000000111
1111111001111001111110011100000001111100000000011111111000011110011110000000000000001111110111111100000000000000000111100000110000000110000111110111111111110000000000000000000000000000000000000000000000000000000000000000000000000111111000000000011111111111
1111110110000001111110011110000000010011111001011111110000111111111111111111111111111111111111111111111111111110000000000000111111111110000110000111111111110000000000000000000000000000000000000000000000000000000000000000000000000111111000000000011111111111
1111110110000001111110011110000000000011111000111111110000111111111111111111111111111111111111111111111111111110000000000000111111111110000110000111111111111110100000000000011111111100000011111110000000000000000000000000000000000111111011111111100001111111
1111110110000001100001100000000000000011111000011111110001111111111111111111111111111111111111111111111111111110000000000000000000000000000000000111111111111110100000000000000001000000000000000000000000000001000000000000000000000111111011111111100001111111
1111110000000001100001100000000000000011111000011111110000111111111111111111111111111111111111111111111111111110000000000000000111111110001110000111100000000000000001111100000000000000000000011111110111111111100000011111000110000111111111111111100001111111
1111110000000001100001100001100000000111111000000000000000111111111111111111111111111111111111111111110111111110000000000000000111111110001110000000100000000000000001111100000000000000000000011111110111111111100000011111111111111111111111111111111111111111
1111110000000001100001100001100000000111111000000000000000111111111111111111111111111111111111111111111111111110000111111111111111000000000000000000000000011110100001111100000100000000000000011001110111111111100001100011111111111111111111111111111111111111
1111110000000001100001100001100000000111111000000000000001111111111111111111111111111111111111111111111111111110000111111111111110000000000000000000000000011110100001111100000000000000000000011001110111111111100010011111111111111111111111111111111111111111
1111110000000011100001100001100001111111111001111111111001111111111110000000000011100000000111101111000001100000000111111111111110000000001110000000100000011110100001111100000000000000000000011001110111111111100010011111111111111111111111111111111111111111
1111110000000011100001100001100000001111111001111111111001111111111110000000000111100000001110000011000000000000000111111111111110000000011110000000111111111111100001111100000000000000000000011001110111111111100010011111111111111111111111111111111111111111
1111110000000100011110011111100000001111111001100000000111111111111111111001111111111111101111111100111111100000111110000000001110000001100001111000111111111111111111111100011111111110000111111001110111111111100010011111001110000111111111110001011110000001
1111110000000100011111001111100000001111111001100000000111111111111000011001111111111111101111111100111111100000111110000000001110000001100001111000111111111111111111111100011111111110000111111001110111111111100010011111001110000111111111110001011110000001
1111110000000100011110011111100000000111111111100000000111111111111001111100000000000000000000000000000111100000111110000000001110000001100001111000111111111111111111100000011111111110000110000001111110000000000011100000111110000111111000001111100000000001
0111110000000110011110011111100000001111111111100000000111111111111001111100000000000000000000000000000111100000111110000000001110000001110001111000100000011110111111100000011111101110000001111111111110000000000011100000111110000111111000001110100000000001
0111110000000000000000000000000000111111111111111111111111111111111001111100000000000000000000000000000111111111000000000111110001110001110001111000100000011110111111100000011111101110000000000000000000011111100001100000110001111111111111110000100000000001
1111110000000000000000000000000000011111111111111000000001111101111001111100000000000000000000000000000111111111000000000111110000111110000001111000100000011110111111100000011111101110000000000000000000011111100001100000110001111111111111110001100000000001
0111111000000000000000000000000000011111111111111000000001111100000000011100000000000000000000000000000110000001000000000111111111111111111111111111111111111110111111111111111111101110000000000001111111111111110001100000110001111111111111110001100000000001
0111111000000000000000000000000000100011111111111000000001111100000000011100000000000000000000000000000110000000111111111011111111111111111111111111111111111110011111111111111111100000000000000001111110000000000000011111000010000111111000000000000010000111
1111111000000000000000000000000000100011111111111000000001111100000000011110000000010000001111111110111110000000111111111000001111111110000001111000111111111110111111111111111111100000000010000001111110000000000000011111111110000111111000001110011110000111
1001000000000111111111111111100001100011111111111000000001111100000000000001100111111111101110000010111000000000111111111000001111111110000001111000111111111110111111111111000000000000000000000001111110000000000000011111111111111111111000001110011110000111
1001000000000000000000000001100001100011111111111000000001111100000000000001100111000000000011111110111001111111111111100111111111111100000001111000001111111110111111111111000000101110000111111111111110000000000000011111111111111111111000001110011110000111
0001000000000000000000000001100001100011111111111000000001111100000000000001100111000000000011111110111001111111111111100111111111111110000001111000001111111110111111111111000000001110000111111111111110000000000000011111111111111111111000001110011110000111
1001100000000000000000011110000001100011111111111000000000000000011001100010000000000000010000000000000110000000000001100000000000000001111110000000111110000000000000000000000000000000000111111110000000000000011111100111110000000111111111011110011111111111
1001100000011110000000011110000000000011111111111000000000000000011000100000000000011111110000000000000110000000000001100000000000000001111110000000111110000000011110000000000000000000000111111110000000000000001111100111110000000111111110011110011111111111
1001100000011110000000011110000001111111111111111111111111111011111001111111100111111111111111111110000000000000000000000000011110000000000000000000111111111111111110000001111111100000000110000011100001000000011111100111110000000111111111111111111100000111
0001100000011110000000011110000001111111111111111111111111111111111001111111100111111111111111111110000000000000000000000000011110000000000000000000111111111111111110000001111111100110000001111110011000000000001111100111110000000111111111111111111100000111
0001100000011110000000011110000001111111111111111111111111111111111001111111100111111111111111111110000000000000000000000000011110000000000000000000111111111111111110000001111111100110000001111110011000000000001111100111110000000111111111111111111100000111
0001100000011110000000011110000001111111111111111111111111111111111001111111100111111111111111111000000000000000000000000000011110000000000000000000111111111111111110000001111111100111000011111110011000000000000000011111111111111111111111111111111100000111
1011111110011110001111111000000001110000000001111111111111111111111001111111100111111111111111111000000111111001000111111000011110000001111110000000000000000000011111111110000000001111111110000011111000000000000000011111110001111111111111111111111111111111
0101100001111110001111111010000001110000000001111111111111111111111001111111100111111111111111111000000111111001000111111000011111000001111110000000000010000000011111111110000000001111111110000011111000000000000000011111110001111111111111111111111111111111
0101100001111110001111111000000000001100000001111111111111111110000001111111100111111111111000000110011111111001000111111000011111000001111110000000100000000000011111111110000000001111111110000001111000000000000000011111110001111111111111111111111100000111
0100000001111110001111111000000000001100000001111111111111111111000001111111100111111111111000000110011111111001000111111000011111000001111110000000000000000000011111111110000000001111111110000001111000000000000000011111110001111100001000000011100000000111
1100000001111110001111111001000000001111111110000111110000000000000000000000000000000000000000000000000000000001000111111000011111000001111111000000000000000000011111100000000000001111111110000001111000011000001111100111111110000011111000000000011111111001
1100000001111110001111111000000000001111111110001111110000000000000000000000000000000000000000000000000000000001000111111000011111000001111111000000000000000000011111100000000000001111111110000001111000011000001111100111111110000011111000000000011111111001
0100000001111110101111111001111111101111111111111111111110000000000000001110000111011000001000000110000000000001000000000111111111100001111111000000111110000000011111100000000000011111111110000000000100011000001111100111111110000011111000000000011111111011
1100111111111110101111111010000001101111111111111111111111100000000000000001100000000000001000000110000000000001000001101001111111100001111111000000111110000000011111100000000000001111111110000001111100011000001111100111111110000011111000000000011111111001
0100011111111111111111111111111111111001111111111111110000000000000000000000000000000001111111111110100000000011001111110111111111111111111111111111111110000000011111100000000000001111111011111111111111111111111111111111111111111111111111111110000000000001
0111111110000001111111111111111111111110000000010111110000000000000000000000000000000000000000000000000000000001000001110000000000000001100000001000000001111111111110000001111111110000100000000000000000000000000000000000000000000000000000000000000000000001
0111111110000000000001111110000000001111111111111111111111111111111111111111111111111111111111111110000000000001000001110000000000000001100000011000000001111111111110000001111111100000000000001111111111111111111111111111111111111111111111110000000000000001
0111111110000000000001111110000000001111111111111111111111111111111111111111111111111111111111111110000000000001000001110000000000000001100000001000000001111111111110000001111111100000000000001111111111111111111111111111111111111111111111110000000000000001
0111111110000000000001111110000000001111111111111111111111111111111111111111111111111111111111111111000000000001000110000000011111000000100000001000000001111111111111100001111111111111111111111111111111111111111111111111111111111111111111111111100000111111
1111111110000000000001111110000000001111111111111111111111111111111111111111111111111111111111111111000000000001000110001110010000111111011111110110000001110000011111100001111111110111111111111111111111111111111111111111111111111111111111111111100000000001
0111111110000000000001111100000000001111111110001111111111111111111110001111111111111100001111100000100001111111111111111111111111000001100110001000000000000000011111100000000111100000000001111110011100011000001111100110000000000001110111110000011111111111
0111111110000000000001111100000001110001111110001111111111111111111110001111111111111100001111100000100001111111111111111111111111000001100110001000000000000000011111100100001111100001111111111110011100011000001111100110000000000001100111110000011111111111
0111111110000000000000001101111111110001111110001111111111111111111110001111111111111100001111100001111111111111111111111111111111000010011111110111111100000000001000000000000000000000000000000000011100011000001111100110000000000001100100000000000000000001
0111111110000000000000000101111111110001111110001111111111111111111111111111111111100000001111100001111111111111111111111111111111000000011111110111111100000000000000000000000000000000000000000000011100011000001111100110000000000001100100000000000000000001
0100000001111110001111100101111110001111111110000100011111111000000000000001100000000000000000000000000111111111111111111111111111111111111000001111111111111111111111100001111111100001111000000000111100011000001111100110000000000001100100000000000000000001
0100000001111110001111000101111110001111111110000100011111111100000000000001100000000001110000000000000111111111111111111111111111111111111111011111111111111111111111100001111111100001111000000001111100000110010000011110000000000000011000001100011111000110
0100000001111110001111100101111111111111111110011111111111111111111111111111111111111111111000000000000000000111111111111111111111111111111111111111111111111111111111100001111111100001111000011001111100000110010000011110000000000000000111110000011111111111
1100000001111111101111100101100110010000000110011111111111100000000000000000011000000000000000000000000000000000011111110001111111111111111111111111111111111111111111100000000000000001111000000001111100000110011111111111111111111111111111111111111111111111
0100000001111111101111100101100110001111111110000111111111110000000000011110011111110000001111111100000110000000000000001111111111111111111111111111111111111111111111100000000000000001111000000001111100000110010000000111111111111111111111111111111111111111
0100000001111111101111100101100110001111111110000111111111100000000000011110011111110000001111111100000000011111111111101111111111111111111111111111111111111111111111100000000000000001111000000001111100000110010000000111111111111111111111111111111111111111
0100000001111110001111100101100110001111111110000111110000001111111111111111000111101111110000000011111111100000000000010111110000011110000111110000000001111111111110000000000000000001111000000001111100011111111111111111111111111111111111111111111111111111
1111111111111111100000000000001000000000000000000111111111111111111111111110000111101111110000000011111111100000000000010111110000111110000111110000000001111111111110000000000000000000000000000000000000011111111111111111111111111111111111111111111111111111
0111111111111111110000000000001000000000000000000111111111111111111011100000000110000000001111111111111110000000000000010111110000111110000011110000001110011111111110000000000000000000000000000000000000011110000000000111111000000001111000001111100000000001
0111111111111111100000000000001000000000000000000111111111101111111111100000000110000000001111111111111110000000000000001000000000000000000000011111110001100000011111100000000000000000000000000111111111111110000000000111111000000001111000001111100000000001
0111111111111110000000000000001000011111111001111000111111100000010000011111100110000000001111111111111110000000000000001001111110000000000000011111110001100000011111100001111111100001111111111111111111111111111111111111111111111111111111000000000000000000
1111111111111110000000000000001000011111111001111000111111100000010000000000000000000000000000000000000000000000000000001001111110000000000000011111110000011111111111100001111111100001111111111111111111111111111111111111111111111111111111000000000000000000
0111111111111110000000001000001000000000100001111000111111100000011110011110000110000000001111111110000001111110000000001001111111111111111111111111111111111111111111111111111111111111100010011011111111111111111111111111111111111111111111000000000000000000
0111111111111110000000000000001000000000100001111000111111100000011110011110000110000000001111111110000001111110000000001001111111111111111111111111111111111111111111111111111111111111100010011011111111111111111111111111111111111111111111000000000000000000
1111111111111110001000000000001000000000100000011111111111100000001110011111100110000000000000000000000000000000000000000000000001111111111111111111111111111111111111111111111111111111100010011111110000000000000000000001111001000000011000000010000000000000
0111111111111110000000000000011000000000100000011111111111100000001110011111100110000000000000000000000000000000000000000000000001111111111111111111111111111111111111111111111111111111100010011111110000000000000000000001111000001111111110000000000000000001
0111111111111110000000000000011000000000100000011111110000100000001111011111100110000000000000000000000000000000000000000000000001111111111111111111111111111111111111111111111111111111100010011110000000000000000000000001111000000000000000000000000000000001
1111111111111110000000000000011000000000100000011111110000100000001110011111100110000000000000000000000000000000000000000000000001111111111111111111111111111111111111111111111111111111110010011110000000000000000000000001111000000000000000000000000000000001
0111111111111110000000000000011000000000110000011111110000100000001110011111100111111000000000011001111111111111100111100001100000000000000000000011110111111111111110000000000000000111111110011110000000000000000000000000000000000000000000000000000000000001
0111111111111111000000000000011000000000000000011111100000000000000000011111100111111000000000011001111111111111100000000001111110000000000000000011100111111111111110000001111111111111111111111111110000000000000000000000000000000000000110000000000000000001
1111111111111111111111000101111111111110000000011100000011100000001110011111100111111000111000011000111111000001100000000001111111000001100111100010001111100000011110000001111111111111111111111111110000000000000000000000000000000000000110000000000000000001
0111111111111111111111000101111111111110000000011111111111100000001110011111100111111001111000011111000001111110000000000001111110000110100111100010000111100000011110000001111111111111111111111111110000000000000000000000000000000000000110000000000000000000
1111111111111111111111111101111111111110000000011111111111100000001110011111100001111001111000011111000001111110000000000001111111111111111111100010000111100000011110000000000000000111111000000000000000000000000000000000000000000000000111111000000000000111
0111111111111111111111111101111111111110000001111111111111100000001111111111100001111001111000011110000001111110000000000001111111111111111111100010000111100000011110000000000000000000000000000000000000000000000000000000000000000000000111111000000000000111
1111111111111111111111111101111111111110000001111111111001100000000001000001100000000001111001111111100001111111111111111111111111111111111111100010000111111111111111111111111110000111111000000001111100000011110000000111111111000111111111111000000000000111
1100000000000000000000000000001111111110000001111111111001100000000001000001100000000001111001111111000001111111111111111111111111111111111111100010000111111111111111111111111110000111111000000001111100000011110000000111111111000111111111111000000000000111
1100000000000000000000000000001111111111111111111111100001100000000001000000000001111111110111111000000110011111111111111111111111111111111111100010000000000000011110100001110000000111111000000001111100100000000110011111111010110111100011110000000000000111
1100000000000000000000000000001111111111111111111111100001100000000001000000000001111111110111111000000110011111111111111111111111111111111111100010000000000000011110100001110000000111111000000001111100100000000110011111111010001111000000010000000000000111
1111111111111111111111000111111111111111111111111111100001100000000001000000000001111111110001111000000001111111111111111111111111111111111111100011100000011111111110100001110000000000111000000001111110100000000110011111111010001111000000010011111111100111
0011111111111111111111000111111111111110000000111111111001100000000001000000000001111111110001111000000000111111111111111111111111111111111111111111100000011111111110100001110000000000111000000001111110100000000110011111111001111111000000010011111111100111
1111111111111111111110000111111111111110000000011111111001100000000001000000000001111111110001111000000001111100000000000001111111111111111111111111111111111111111110100001110000000000111111111111111111111111111111111111111001111111000000010011111111100111
0111111110011110000000000000011000000110000000011111111001100000000001000000000001111110001111111000111110000111100000000001111110111110011111111111100000011111100000100001110000000000111111111111111111111111111111111111111001111110000000010011111111100111
0111111110011110000000000000011000000111100000011111111111100000001111000000000001111110001111100000111110000111100000000001111110111110111111111111100000011111100000100001110000000000111000000001111110100000000110000001111001111110000000001111111111100111
1111111110011110000000000000011000000111100000011111111111100000001111111111100000111110001111100000111110000111100000000001111110111110111111111111100000011111100000100001110000000000111000000001111110100000000110000001111001111110011111101111111111100111
0111111110011110000000000000011000000111100000011000000001100000000000000111100000111110001111100000111110000111100000000001111110111111000111000000000000001111100000100001110000000111111000000001111110100000000110000001111001111110011111101111111111100111
0111011110011110000000000000011000000111100000011111111111100000000000000111100000111110001111100000101110000111100000000001111110111111000111000000000000000111100000100001110000000111111000000000000000100000000010000001111001111110011111101111111111100110
1111111110000000000000000000011000000111100000011111111111100000000000000111000000111111110000011111000001111100000000000000000000110000000000000000000000000000000111111111111000000111111000000001111111111111111110000001111110000001111111110000010000000110
1111111110000000000000000000011000000111100000011111111111100000001111111111100000111111110000011111000001111100000000000000000000110000000111011111111111111111111111111111111000000111111000000001111111111111111110000011111110000000000000101100010000000110
0111111110000000000000000000011000000111100000011111111111100000001111111111100000111111111111111111111111111111100000000001100000101110000000000000000000000000001111111111110000000000000000000000000000100000000010000001111111111111111111111111110000000010
0000000000000000000000000000000000000111100000001110000001100000001111111111100000111111111111111111111111111111100000000001100000101110000000000000000000000000001111111111110000000000000000000000000000100000000010000001111111111111111111111111111111111110
1001111000000000000000000000000000000111111111111110000001100000001111111111100011000000000000000000000000000000000000000000000000101110000111011111100000011111100001111111110000000000000000000000011110100000000010000001111110000000000000001100011111111110
0001111000000000000000000000000000000111111111111110000001100000001111111111100001000000001000000000000000000000000000000000000000111110000111000000000000011111100000111111110000000000000000000000011110100000000010000001111110000000000000001100011111111110
1001111000000000000000000000000000000111111111111110000001100000001111111111100001000000000000000000000000000000000000000000000000111110000111000000000000011111111111111111111111111111111000000001111110100000000010000001111000000000000000000000011111111110
1001111000000000000001111111000000000111111111111110000001100000001111111111100001000000000000000111111111111111100000000001111111111111100111000000000000011111111111111111111111111111111000000001111110100000000110000001111000000000000000000000011101111111
1001111111111100001110000000100111111111111111111110000001100000001111000000100000000000000000000111111111111111100000000001111111111111100000000000000000010000000000111111111111111111111000000001111110100000000110000001111000000000000000000000011111111111
1001110000010000000001111111110000000111111111111110000001100000001111011111100000000000000000000111111111111111100000000011111111111111100000000000000011111111111111111111111111111111111000000001111110100000000110000001111000000000000000000000011111111111
0001111000000000000001111111110000000111111111111111000001111110000000000000000000000000000000000111111111111111111111111111111111111111100000000000000000010000000000111111110000000111111111111111111111111111111111111111111111111111111111111111111111111111
0001111000000000001110000000010111111111111111111000000001111110000000000000000000000000000000000000000000000000000000000011100000100000000111000000000000010000000000111111111111111111111111111111111111111111111111111111111111111111111111111111111111111111
1111111110000000001111111111110000111111111111111000000001111110000000000001111111111111111111111111111111111111111111111111111111111111110111000000000000010000000000000000001111111111111111111111111111111111111111111111111111111110000000011100000000011111
1111111110000000001111111111110000111111111111111000000001111110000000000001111111111111111111111111111111111111111111111111111111111111110111000000000000010000000000000000001111111111111111111111111111111111111111111111111110001110000000011100000000011111
0111111111111100001111111111111000011111110000111111111111111111111111111110000001111111111111111110000000000000000000000011100000100000000000000000000000000000000001100010000000000111100000000000001110000001111110000001111111111111111111111111111111111111
1111111111111000001111111111110000011111110000000000000001111110000000000000000001111111111111111110000000000000000000000011100000000000000000000000000000000000000001100000000000000000000000000000001110000001111111000001111111111111111111111111111111111111
1111111111111000001111111111110000011111110000000000000001111110000000000000000001111111111111111110000001111000000000000011100000111111111111111111100000011111000001100000000000000010000000000000001110000001111000000001111111111111111111111111111111111111
1001111011111000001111111111110000011111110000000000000001111110001000000000000001111111111111111110000001111000000000000011100000111111111111111111100000011111000000100000000000000010000000100000001110000001110000000001111111111111111111111111111111111111
0001111011111000001111111111000000011111110000000000000001111110000000000001100001111111111111111111111100000000000000000011111111111111111111111111100000011111111111111111111000000000111000000000010001111110000110000001111111111111111111111111111111111111
0000000011111000001111111111000000011000001111111100000001111110000000000001100001111111111111111111111100000000000000000011111111111111111001111111110000111111101111111111111111111111111000000001111111111111100000000001111100000001111110000111000000011111
0000000000000000000001111111000000011111110011111011111111111111111111111001100001111111111111111111111100000000000011111111100000000000000000000000000000000000000111111111111111111111111000000000000000000000000000000000000000000000111110000111100000011111
0000000000000000000001111111000000011111110011111011111111111111111111110001100001111111111111111111111011111000000000001111100000000000000000000000000000000000000111111111111111111111111000000000000000000000000000000000000000000000111110000111100000011111
0000000000000000000000000000000000000000000011111000000001111110000111111110000001111111111111111110000001111000000000000011100000000000000000000000000000000000000111111111111111111111111000000000000000000000000000000000000000000000111110000111111111111111
0000000000000000000000000000000000000000000011111000000001111110000111111110000001111111111111111110000001000000011111110011100000000000000000000000000000000000000111111111111111111111111000000000000000000000000000000000000000000000111110000111111111111111
0000000001111000001111111111111111111111111011111000000001111110000111111110000001111111011110000000000000000000000000000000000000000000000000000000000000000000000000000000001111000001111000000001111111111110000000000000000010000001111110000111100000011111
0000000000000000001111111111111111111111111011111000000001111110000111111110000001111111111110000000000000000000000000000000000000000000000000000000000000000000000000000000001000000001111000000001111111111110000000000100000010000001111110000111100000011111
0000000001111000001111111111111111111111111100000111111111111110000111111110000001111111111110000000000000000000000000000000000000000000000000000000000000000000000000000000001000000001111000000001111111111111111111111111111111111111111111111111111110000001
0000000001111000001111111111001111111111111000000111111111111110000111111110000001111111111110000000000000000000000000000000000011111111111111100000110000000001111000000000001000000001111000000001111111111111111111111111111111111111111111111111111110000001
0000000001111000000000000000110000000000000000000000000001111110000000000001110001111111111110000000000001000000011111101111111111111111111111100000110000000000000000000111111111111101111000000000000000011111111110000001111111111111100000000000000000011111
0000000001111000001111111110010110011100110000000110000000000000000000000001110001111111111110000000000001000000011111011111111111111111111111100000110000000000000000000111110111111101111000000000000000011111111110000001111111111111100000000000000000011111
0000000001111000001111111110001110000000111111111110000000000000000000000111110001111111111111111111111111111000000000010000000000000000000000000000000000011100000111111100011000000111000000000001111111111111111110000001111111111111100000000000000000011111
0000000001111000001111111110001110000000000000000000000000000000000000000010000001111111111111111110000111111000000000010000000000000000000000000000000000011100000111111110011000000111000000000001111111111111111110000001111111111111100000000000000000011111
0111111111111000001111111111001111111111111111110000000000011100000000000000000000000000001111111110000111111000000000011000001011111110000000000000000000011100000111111110011000000111001000000001110000000000011110000001111111111111100000000000000000000111
0111111111111000001111111111001111111111111111110000000000011100000000000000000000000000001111111110000111111000000000011000001001111110000000000000000000011100000111111110011000000111001001111111110000000000011110000001111111111111100000000000000000000111
0111111111111000001111111111001111111111111111111111000000011100000000000000000000000000001111111110000111111000000000011000001001111110000000000000000111111111111111111111111111111111111111111111111111110000011110000001111111111111101110000000011110001111
0111111111111000001111111111001111111111111111111111000000011100000000000000000000000000001111111110000111111000000000011000001001111110000001111000000111111111111111111111111111111111111111111111111111111111111110000001111111111111111110000000011110000001
0111111111111000001111111111111111111111111111111111111111011100000000000000000000000111110000000000000001111000000000011000000001111110000001111000000111111111111111111111111111111111111111111111111111111110000000000001111100000001111110000000011110000001
0111111111111000001111111111111111111111111111111111111111011100000000000000000000000111110011111110000110111000000000011000000001111110000001111000000111111111111111111111111111111111111111111111111111111110000000000001111100000001111110000000011110000001
0000000001111000000010000000111110000000011111111111111111011100000001111101110001111111110000000000000000000000000000001111111111111110000001111000000111111100000111111100000000000001111111100000001111111110000000000001111100000001111110000100011110000001
0000000001111000000000000000011110000000011111111111111111011100000111111101110001111111110000000000000000000000000000001111111111111110000001111000000000000010000111100000000000000001111111100000001111111110000000000001111101111110000000000100011110000001
0000000000000000000011111111011111000000011111111111111111011100000111111101110001111110001111100000000000000000011111110000000000000001111111111000000000000011111111111000000000000111000000011110001111111001111110000000000010000001111110000011100000000001
0000000000000000000011111111011111000000011111111111111111011100000111111101110001111111110000000000000000000000011111110000000000000001111111111000000000000011111111111000000000000011000000011110001111111001111110000000000010000001111111111111111000000001
0000000000000000000011111111011111000000011111111111111111011111111111111101110001111110001111100000000000000000011111110000010000000001111111111000000000000011110111100111111111111111111111111111111111111110011111110000111001111111111111111111111000000000
0000000000000000000011111111011111000000011111111111111111000001111111111101110001111110001111111110000001111001111111110000000000000001111111111000000000000011110111100111111111111111111111111111111111111110011111110000111101101110011111111111111000000000
0001111100000000000011111111011111000000011111111111111111000001111111111111110001111110000000000000011111111000000000001111111111100000000001111000000110000011110111100111111111111111111111111111110000011110011111110000110000001110011111111111111000000000
0001110001111000000011111111011111000000001110000000011111000001111111111111110001111110000000000000011111000001111111110000000000011111111110000000000110000000001111111111111111111111111111111111110000000001100000001111000000000000011111111111111000000000
0001110001111000000000111111111111111111111111111110011111000000000111100000000000000000000001111100011111000000000000001000001111111110000000000000000110000000001111111001111000000000000000000000000000000001100011001111000000000000000000000011100000000000
0001110001111000000001111111111111111111111111111110011111000000000111100000000000000000000001111100011111000000111110001000001111111110000000000000000110000000001111111001111000000000000000000000000000000001100000001111000000000000000000000000011111111111
0001110001111001111110000000100000000011111111111111111111000000000111100000000000000000000111111100011111000001111100001111111111111110000000000000000111111111111111111001111001000000000000011111100000000001100000001111000000001111111110000000011111111111
0001110001000001111110000000100000000011111111111111111111000000000111100000000000000000000001111100011111000001111100001111111111111110000000000000000111111111111111111001111000000000000000011111100000000001100000001000110000011111111110000000011111111111
1111110001000001111111111111111111111111111111111111111111111111111111111111111111111111111111111111111111000001111111110000001111111111110000000000000001111111100000000000000000000000000000000011100000000001100000000000000000000000000000000000000000000111
1111110001000001111111111111111111111111111111111111111111000000000111100000000000000000000000000000000000111001111111110000001111111111110000000000000001111111110000000000000000000000000000000001110000000001100000000000000000000000000000000000000000000111
0000000001111001100001111111000111000000011110000000011111000000000111100000000000000000000000000000000000000000000001111000000111111110000001111111000000000000000000111100000000000000000000000011111111111111100000000000000000000001000000000000000000000111
0000000001111001100001111111000111000000011110000000011111000001111101111000000110000000000000000000000000000000000001111000001111111110000001111111000110000000000000111100000000000000000000000011111111111111100000000000000000000000000000000000000000000111
0001000001111001100000000000111111000000000000000000011111000001111111111000000110000000000000000000000100000011111111111100001111111110000001111111000000000000000000111111111111111000111111111111111111111111100000000000000000000000000000000000000000000111
0001000001111001100000000000000111000000000000000000011111000001111111111000000111111100000111111000000000100011111111111100001111111110000000011111000000000000000000000000000000000000000000111111111111111001100000000000000000000000000000000000000000000111
0011000000000000000000000000000111000000000000000000011111100001111111111000000000000000000111111100000000000000111111111000000001111111111111111111000000000000000000000000000000000000000000111111111111111001111111111111100000010001111110000111100000000110
0001000000000000000000000000000111000000000000000000011111100001111111111000000000000000000111111111111111111111111111111111111111111111111111111111000000000000000000000000000000000000000000111111111111111001111111111111100000010001111110000011100000000110
0001110000000001111111111111111111111111111111111111111111100001111111111000000000000000001111111111111001111001111111111000000001111111111111100000000001111111001111111000001000000000000000111111111111111000000000100000000000000000000000000000000000000000
0001110000000000000000000000000000000000000000000111111111100001111111111000000000000000001111111111111001111000001111111000000001111111111111100000000001111111001111111000001000000000000000111111111111111000000000000000000000000111000000000000000000000000
0001110000000000000000000000000000000000000000000000000000000000000111111000000111111111110001111100000110000000000000011000000001111111111111100000000001000000110001111000001011111000111000000000000001111100000000011111100000011111100000000000000111111110
0001110000000000000000000000000000000000000000000000000000000000000111111000000110000000000001111100000110000000000000001000000001111111111111100010000001000000000001100001111001111000111000000110000001111100000000011111100000011111100000000000000111101110
0001111001111001100000000010000000000001111110000111111111100001111111100000000111111111110001111111111111111000001111111000000101111111111111111110000001000000000001100001111011111000111000000110000001111100000000011100000000000111100000000000000111100110
0011111001100001100000000000000000000001111110000111100000000001111111100000000111111111110001111111111111111000001111111000000111111111111111111111000001000000000001100111111100000111000000000110000001111100000000011100000000000111100000000000000111100110
0011111001100001100000000000000000000001111110000111100000000001111111100000000111111111110001111111111111111000001111111000000111111000001111111111000001000000000001100111111100000111000000000111111111111111111000111100000000000111100000000000000111100010
0011111001100001100000000000000000000001111110011111100000000001111111100000000111000110011111111111111111111000001111111000000111111000001111111111000001000000000001100111111100000000000000000111111111111111111111111100000000000111100000000000000111100010
0000000000000000000000000000000000000000000000000000000000000001111111100000000111000110001111111111111111111000001111111000000111111000001111111110000000111111111110000110000011111111100000011111111111111111111111111100000000000111111111111111111111111110
0000000000000000000000000000000000000000000000000000000000000001111111111000000111000110011111111111111111111000001111111000000111111000001111111110000000111111111110000110000011111111100000011111111111111111111111111100000000000111111111111111111111111110
0000000000000000000000000000000000000000000000000000000000000001100000111000000010000111111111111111111000000000000000000000000000000000000000000000000001000001111110000110000100000001111111111111111111111110000000000111100000011111111111111111111111111110
0000000000000000000000000000000000000000000000000000000000000001100000111000000100000111111111111111111101111000001111111000000111111000001111111111000001000001111110000110000011111111111111111111111111111110000000000111100000011111111111111111111111111110
0011111011111001111110011100000000000000000000000000011111111111111111111111111111111111111111111111000000000000001000000000000001111000001111100001000000000000000000000010000011111001000000000000000000000000000000000000000000000111000000000111111111111110
0011111011111001111110011100000000000000000000000000011111111111111111111111111111111111111111111111000000000000001000000000000001111000001111100001000000000000000000000010000011111000111111111111111111111111111111111111000000000111000000000111111000011110
0011111011111001111110011100011100000000000000000000011111111111111111111111111111111100000001110000000000000111111111111111111111111100001111100001110000000000000000000011110011111000011111111110000011111111111111111111110000011111111111111111111000011110
0011111001111001111110011100011100000000000000000000011111111111111111111111111111111111111111110000000000000111111111111111111111111100001111100001110000000000000000000011110011111000011111111110000011111111111111111111110000011111111111111111111000011110
0011111001111111111110011100011100001001110111111111111111111111111111111111111111111111111111110000000000000111111110000000000000111111000000000000000000000000000000000000000000000001100111111110000001111110000000000000000000011111111111000111111000010110
0011111001111111111110011111111111111111110111111111111111111111111111111111111111111110011111110000000000000111111110000000000000111111000000000000000001111111111111111111111111000111000111111110000001111110000000000111110000000001110000111111000000001110
0011111001111000011110011100000000000000000111110111111111000001111110000000000111111110011111110000000000000111111110000000000000111111000000000000000001111111111111111111111111000111000111111110000001111110000000000111000000000011110000111111100000001110
0011111001111111111110011111111111111111111111111000000000000001110000000000000111111110000001110000000000000000001001111111111110111000000000000000000001111111111111111111111111111111111000011110000001111110000000000111000000000001110000111111100000001110
0011111000000111111110011100000000000001111111100000000000000001100000000000000111111110000001110000000000000000001000000000000111111000001111111100000000000000000000000000000011111111111000011110000001111110000000000000000000000000001111111111111000011110
0011111000000110000000000000000000000000000000000000000000000001111111111000011111111111111111110000000000000110001000000000000111111000001111111100000000000000000000000000000011111111111000011110000001111110000000000000000000000000001111111111111000011110
0000000000000110000000000000000111111111111111111100000000000001111111111000011111111111111111111111111111111110000111111000000001111000000000000000000000111111111111111000000011111001100111111111100001111110000000000000000000000000000000000000000000000000
0000000000000110000000000000000000000000000000000000000000000001111111111000011111111100000000000000000000000000000001111000000001111000000000000000000000111111111111111000000011111000100111111111100001111110000100000000000000000000011111111111111000011000
0000000000000110000000000000000000000000000000000000000000000000111111111000011111111111111111111111101111111110000111111000011111111111111111111111111111000000000001111111100011111000100111111111111111111111111111111111110000011111111111111111111000011111
0000000000000110000000000000000000000000000000000000000000000001111111111000011111111111111111111111111111111110000000000000011111111111111111111111111111000000000001111111100011111000100111111111100000000000000001111111110000011111111111111111111000011111
0111111000000111111110011100011100000001111110000000000000000000010000000000011111111111100011111100111111111000000000000000001111111111111111111111111111000000000011111111100011111000111000000011100000000011111111111111110000011111111111111111111000011111
0111111000000111111100011100011100000001111110011000000000000001100000000001111111111110000001111111000000000000000000000000011111111111111011111110000000111111111110111000011100000001000000000011100000000011111111111111110000011111111111111111111000011111
0000000111001000000000000011100001111110000001100000000000000001100000000111111111110101100000000000000000000000000000000100000001100000000001111110000000111111111110111000011100000001011111000011100000000011111111111111110000011111111111111111111000011111
0000000111011000000000000000011100000001111111111000000000000001111110000111111111110101100000000000000000000000000000000000000001100000000001111110000000111111111110111000011000000001011111000011100000000011111111111111110000011111111111111111111111111111
0000000111111000000000011000011100000001111111111000000000000001111110000111111111110101100000000000000000000000000000000000000001100000001111111111111111111111111110111000011000000001011111000011100100000111111111111111110000011111111111111111111111111111
0000000111111000000000011000000000000001111111111000000000000001111110000111111111110101100000000000000000000000000000000000000001100000001111111111111111111111111110111000011000000001011111000011100000001111111111111111111111111111111111111111111111111111
0000000111111000000000011000000000000001000001111000000000000000011110000000000000000000000000000000000000000000000000000000000001100000000001111110000000000111111110111000011000000111011111111111111111111111111110000110001000011111111111111111111111111111
0000000111111000000000011000000000000001000001111000000000000000011110000000000000000000000000000000000000000000000000111111111111111111111111111111111111111111111110111000011000000000011111111110000000000011111110000110001000001111111111111111111111111111
0000000111111111111110011111111111111111111011111000000000000000011110000000000000000000000001111111100110000000111111111110000000000000000000000001111111000000000000111111111000000000011011111110000000000011111110000110001000000111100000000100000000011110
0000000111111111111110011111111111111111111011111011111111111111111111111111111111111111111111111111100110000000111011111110000000000000000000011110000000000000000000111111110000100000011000000001110000000011111110000110001000000111100000000000000000011110
0000000000000111110000000000000000000001111111111011111111111111111111111111111111111111111001111111111110000000111111110000000000000000000000000000000000000000000111111111111111111111111111111111111111111111111110000110010000000111111111111111111000011110
0000000000000111111110011000000000000001111111111011111111111111111111111111111111111111111001111111111110000000111111110000000000000000000000000000000000000000000111111111111111111111111111111111111111111111111110000110000000000111111111111111111000011110
0000000000000111111110011000011111111111111111111000000000000001100000000100011111111000000001111111111110000000111111111110001111111111111111111111110111000000000001111111111000000000000111111111111111111111111110000110000000000111100000001111111000011110
0000000000000111111110011000011111111111111111111000000000000001100000000100011111111000000001111111111110000000111111111110000000000111111011100000000111000000000001111111111000000000000111111111111111111111111110000110000000000111100000001111111000011110
0000000000000111111110011000011111111111111111111111000111000001100000000100011111111000000001111111111111111111111111111111111111111111111111111111111111000000000001111111111100000011111111111111111111111111111111111111111111111111111110001111111000011110
1111000001111000000010000000011111111110000010000000111000000001100000000100011111111000000001111111111111111111111111111111111111111111111111111111111111000000000001111111111100000011111111111111111111111111111111111111111111111111111110001111111000011110
0111000001111111111111111000011111111111111111111110000111000000011111111111111111110111111001111111111111111111111100000000000011111111111111111111111111111000011110111000001100011000000100000000000000000000000000000000000000111111111110001000000000000110
1111000001111111111111111000011111111111111111111110000111000000011111111111111111110111111001111111111111111111111100000000000011111111111111111111111111111000011110111000001100011000000100000000100000000000000000000000000000111111111111101000000000000110
0111000000000000000000000000011111111110000000111110000111000000011111111111111100000111111000001111111111000000000000000000000000000000000000011111111100111111111110111000001100011000000100000000000000000100000000000000000000111111111111101111101000111110
0111000000000000000010000000001111111111000000111110000111000000011111111111111100000111111000001000000001111000001100000000000000000000000000011111111100111111111110111000001100011000000100000000000000000000000000000000000000111111111111101111101000011110
1111000000000000000000000000001111111110000000111100000000000000000111111110000000000000001111111111111110011000001100000000000001111100000000011111111100111111111110111111111100011000000111111111111111111111110000000111111111111111111111101111101000011110
0111000000000000000000000000001111111110000000100011111000000000000111111110000000000000000000000000000000011000001111110000000000000000000000000111111100111111111110111000000011111000000111111111111111111111110000000111111111111111111111100000010000000110
1111000001111111111111111111111111111111111111111111111111111100000111111110000000000000000000000000000000011000001111110000000000000000000000000111111100111111111110111000000011111000000111111111111111111111110000000111111111111111111111100000010000000110
0111000001111111111111111111111111111111111111111111111111111100000111111110000000000000000000000000000000011000001111110000000000000000000000000111111111000000000001111111111100000111111111111111111111111111111000000111111111111111111111100000010000000110
0111000000111000000000000000001111111110000000011100000100000001100000000110000100000111110000000000111111111000001111111111111111100001111111000111111100000000000001111000000011100000011111011110010000000000000000000111111111111111111111100000010000000110
0111000000111000000000000000001111111110000000011100000100000001100000000110000100000011110000000000111111111000001111111111111111000001111111000111111100000000000001111000000011100000011000011110010000000000000000000111111111111111111111100000010000000110
1111000000111000000000000000001111111110000000000111111111000001100000000110000011111000001000100000000000000000000000000000000000000000000000000000000000000000000000000000000000000111111110000000010000000000000000000111111111111111111111100000010000000110
1111000000111000000000000000001111111110000000000111111111000001100000000110000011111000001000100000111111111000001111111111110000000001111111000000000000000000000000000000000000000111111110000000010000000000010000000111111100000000001111111111111000000110
0111000001111000000111110011111111111111111110000111111111000001100000000110000011111000001000100000111111100000000001111111111000000001111111000110000000111100000001111100000000000111111110000000010000000000001000000000000000011111110000000000000111111110
0111000001111000000111110011111111111111111110000111111111000001100000000110000011111000001000100000111111100000000001111111111000000001111111000111111111111100000000000011111100000111111110010000010000000000000000000000000000011111110000000000000111111110
0111000001111000000111110011110000000011111110000111111111000001100000000110000011111000001000100000111111100000100001111111111000000001111111000111111111111100000000000011111100000111111110010000010000000000000000000000000000000000001111000011111000000110
0111000001111000001110000000111000000011111110011111111111000000011110000001111100000111110001100000111111100111111111111111111111111001000000100000001111111100000000000000000000000000000000010000010000000000000000000000000000000000011111000011111000000110
1111000001111000000110000000111000000011111110011000001000000000000000000000000000000111110000100000111111100111111111111111111111111001111000111111111111111100000000011111111111111111111111111111111111000000000000000000000000000000011111000011111000000110
0111000001111000000110000000110000000011111110011000001000000000000000000000000000000111110000100000111111100111111111111111111111111001111000111111111111111100000000011111111111111000000000010001111111000000000000000000000000000000011111000011111000000110
0111111000011000000110011111111111111111111111111111111111000001111111111111111111111111111111111111111111111111111111111111111111111001111000111111111111111111111111111111111111111110000000000000100000000000000000000000000000011111111111111111111111111111
0111111000011000111111011111111111111111111111111111111111000001111111111111111111111111111111111111111111111111111111111111111111111111111000111111111111111111111111111111111111111110000000111111111111111111111111111111111000011111111111111111111111111111
1000000000000000000000000000000000000000000000000000000000000000011111111111110000000000000000000000000000000000000000001000100000000000000000000000001111111111111111111111111111111110001110000000000000000000000000000000000000011111111111111111111111111111
