P1
# gct_against_jbig: gct 7036 bits over JBIG (jbigkit)
256 256
1011111111100100110101000000011011110000011111111111111111100000011111111111111111111110011001000100001100111010110101110100011100000111111111111111111000001111011000000010101100100111111111010000000000000000000000000010111000001111111111111111111111111000
1111111111010000000000111001001100100001110000000000111111110000100000000011111111111111001011010101011001011010111000110000111000001111111111111111110000000100110010011100000000001011111111110000000110101000000000000011111001110000111111111111111111111000
1100111111000000000000010101011101110001100000000000111111010000000000000011111111111111111111101011010001011111111111110111101100001011111111111111111000001110111010101000000000000011111100110000000001111000000000000011111101110000111111111111111111111000
0111111100000000000001000000000011110001101111111111001110001111000000000011100000000100111110000001111111111111111111110010101111110001110000000000001000001111000000000010000000000000111111100000000100100100100000000111111000110000111111111111111111111000
0010111100000000000000000000000001100001011111111111001111011111100000000011100000000100111100000001111111111111111111111111111111111011110000000000000100000110000000000000000000000000111101000000001111110100010000000111111000110000111111111111111111010110
0011111100000000000001000001000110000001001111111111000111001111100000000011100000000100111111111111111111111111111111111111111111110011100000000000001100000001100010000010000000000000111111000000001111111010000000000010010100110000111111111111111111000011
1010111100000000000000000001000000000001011111111111001111111111100000000011100000000100111111111111111111111111111111111111111111111111110000000000000100000000000010000000000000000000111101010011111111101010000000000011101111100101111111111111111111110111
0000111100000000000001000001000101100001111111111111001111111111000000000011100000000100000111111111111111111111111111111111111111111111110000000000000000000110100010000010000000000000111100000011111111101111110000000011000010011010001001011111111111111111
1111111100000000000001000001000010110001001111111111001111111111011111000011100000000100000111111111111000001111111100000000011111111111110000000000001100001101000010000010000000000000111111110011111111111111111101111111101110000001111010011100111111111111
1111111100000000000000000001000001010001001111111111001111111111011111000011100000000100000111111111111000001110000000000000011111111111110000000000001100001010000010000000000000000000111111110011111110000000000010111111001110101111110110110101111111011111
1011111100000000000000000001000100010001111111111111001111111111011111000011111111000100000011111111111000001110000000000000000111111111110000000000000000001000100010000000000000000000111111010000000000000000000110111111001001100000011111100000000000000111
0011111100000000000000000001000000000001001111111111001111111111000000000011111111000100000011111111111000001110000000000000001011111111110000000000001100000000000010000000000000000000111111000000000000000000000111111111001010001110110110100000000000000111
1011111110000000000000000001000110000001010001111111001011111111000000000011111111111111111111111111111000001110000000000000000011111111010000000001110100000001100010000000000000000001111111010000000000000000000000111111010001100011100110000000000000000111
0111111110000000001111111001000101011110011110000000111100000000111111111111111111111111111111111111111011111110000000000000000111111111000000000001111000000110100010011111110000000001111111100000000000000000000000111111110010110000011111000000000000000111
1111111110000000001111111001000010111110011110000000110000000000111111101000111111111111111111111111111111111110000000000000000011111111110000000001111000000001000010011111110000000001111111110000000000011111111110111111100111110000011111000000000000000111
1111111110000000001111111001000001101110011110000000111000000000111111000000011111111111100000000001111111111110000000000000000011111111100000000001111000001010000010011111110000000001111111110000000000011111111111010001000100000000011111000000000000000111
0011111110000000001111111001000110001110011110000000110000000000111111101110111111111111100000000001111111111110000000000000000111111111110000000001111000001101100010011111110000000001111111000000000000011111111110110111000010000000011111000000000000000111
1111111111111111111111111001000101011110011110000000000110000000111111001010110001000000000000000001111111111110000000000000000111111110011100000001111000000110100010011111111111111111111111110000000000011111111111000011110100000000011111000000000000000111
0011111111111111111111111011011110101110000001111110101100000000111111111111111111111111111110000000000000111111111000000000000011111111001001111110000000001001111011011111111111111111111111000000000000011111111111000000000010100000011111000000000000000111
1111111111111111111111111001111100100110000001111111000010000000111111111111111111111111111110000000000000111111111000000000000111111110111111111110000000011000111110011111111111111111111111110000000000000011111110000110111011000000000000111111000000000111
1111111100000111111111111100011111000110000001111111000110000000100001111111111111111111111110000000000000111111111000000000000011111110011111111110000000011111111000111111111111100000111111110000000000000011111111111111101000100000000000111111000000000111
1001111100000111111111111000111111000110000001111110101000000000100000000111111111111111111110000000000000111111111000011010100111111111101001111110000000011111111100011111111111100000111110010000000000000011111111111111110100000000000000111111000000000111
0111111100000111110000000100000011000110000001111110000010000000100000000111111111111111111110000000000000111111111000000000001011111110111101111110000000011111000000100000001111100000111111101111100000000011111110000000000000000000000000111110101100101101
0001111100000111110000001000000101000110000000000001010010000000100000000111111111111111111110011110100100111111111000000000011011111110110110000000000000011110100000010000001111100000111110001111100000000000010010000000000101100000000000000001101101110000
1001111100000111110000010000000001000110000000000001110010111110100000000111111111111111111110000010011010111111111000000000001010000010110010000000000000011110000000001000001111100000111110011111100000000000011100000000000111000000000000000000000000000000
1101111111111111110000001000000001000110000000000001010101111110100001111000011111111111111110000011010001010000000000000000010010000001010110000000000000011110000000010000001111111111111110111111100000000000000000000000000000100000000000000000000000000000
0111111111111111110000001100000001111001111111111111101001000001011111000100011111111111111110000011000000000100000000000000000010000010010100000000000000011110000000110000001111111111111111101111100000000000000000000000000000110000000000000000000000000000
0001111111111111110000010000000010011001111111111111101010000001011111000100011111111111111110000011000000001111111111111110011010000001010100000000000000011001000000001000001111111111111110001111100000000000000000000000000000111111111110000000000000000000
0111111111111111110000000111000000111101111111111001000010111110011111000100011111111111111110000000000000101000000000000000000001111101000001100000000000111100000011100000001111111111111111101111100000000000010000000000000000111111111111011000011100001101
0010011111111110000000011111000111111111011010111000011001111110011111000100011111111000000000000000000000111100000000000000010101111110011011100010100101111111100011111000000001111111111001000000001000000000010000000000000000110111111100110010000110011111
1100011111111110000000010000000011000000011101111010010001000110011111000011111111000000000000000000000000111100000000000000011101100010001010100001000110000011000000001000000001111111111000110000001110111111110000000000000111100111111100101010001010011101
0010011111111110000000010000000011000000111100101001101111000000011111000011111111000000000000000010000010111111001101001010011000000011110101101011000010000011000000001000000001111111111001000000001111111111110000000000000111101000011101010101000100101001
0100011111111110000000010000000011000000010111010011001101100100011111000011111111000000000000011110100001110101010100010010100100100110110000110100010110000011000000001000000001111111111000100000001111111111110000000000000000100000101111110011010010100110
0010011111111110000000000000000000000001111001111111111101011111011111000111111111000000000000011110011111110010101000101001110111111010111100000001100000000000000000000000000001111111111001000000001111111111110000000000000000000000001111000000000000000111
1110011111111110000000000000000000000001110101011100000000111111011111011100000001000000000000000011011111110011001000011001111111111100000011000101010000000000000000000000000001111111111001110000001110000111111110000000000000000000001111000000000000000101
0111011111111110001111111111100000000001110001011001000101011111100001111100000001000000000000000011111111111101100001110000110111111010100001100101110000000000000111111111110001111111111011100000001110000111111111111111100000000000001010000000000000000000
0011111111001110001111111111100000000001110011000000111111011110100001111100000000000000000000000011111111111000000000000000000001111011111111111100110000000000000111111111110001110011111111000000001110000111111111111111100000110000000011111111111111100110
1111111000001110001111111111100000000001110001001000111111111111100001111100000000000000000000000011000000000000000000000000000011111111111111101101110000000000000111111111110001110000011111110000001110000111111111111111100000110000000001000000000000000000
1011111000001110001111111111100000000001110001101000111100011000100001111100000000000000000000000010000000000000000000000000000000011000111111101001110000000000000111111111110001110000011111010000011110000111111111111111100000110100010100000000000000000100
0011111000001111101111111111100000111110001100000111000011111111011110000000000001110000000000011100000000000000000000000000000000000000111111100000110000000000000111111111110111110000011111000000000001111111111111111111100000100110101111111110000000000010
0110000000001111101111111111100000111110001100011111000011111111011110000000000001001000000000010110000000000000000110110111000000000000111111111000110000000000000111111111110111110000000001100000000001111111111111111111100111101001001111111110000000000110
1110000000001111101111111111100000111110001100010111000011111111011110000000001111111000000000000000000000000011111010110010110100000000111111101000110000000000000111111111110111110000000001110000000001111111111111111111100000000000001111111110000000000010
1111111111111111101111111111100000111110001101101000011011111111100000000000001111111111111111010000000000000011111100000000011100000000100100010110110000000000000111111111110111111111111111110000000001111111111111111111100000000000001111111110000110101001
1110000000001111101111111111110000111110111111111100000111111111100000000000001111111111111110100010000000000011111100000000011100000000011100111111111100000000001111111111110111110000000001110000011111111111111111111111100000000000001111111110000000000000
1110000000001111101111111111110000111111011111111100001011111111100000000000001111111000011011101100000000000011111100000000011100000000101100111111111010000000001111111111110111110000000001110111111111111111111111111111100000000000001111111110000000000001
1110000000001111101111111111110000111111011111111100111011111111100000000001111111111100000000001010000001111100000000000000011100000000100000111111111010000000001111111111110111110000000001110111111111111111111111111111100000000000001111111110000000000000
1110000000111111111111111111111111001111111111111100111001101111100000000001111111111100001111010000000001111100000000000000011100001001100000111111111110001111111111111111111111111100000001110111110010101100010000000000000000011111111111100000000000000001
1110000000111111101111111111111111111110011111111100111001110111100000000001111111111011011100001000000001111100000000000000011100010001100000111111111000000011111111111111110111111100000001110111111011101111111111111000000000011111111111100000000000000001
1110000000111111101111111111111111111110011111111100111001111111100000000001111111111101000100010000000001111100000000000000011100000001100000111111111000000011111111111111110111111100000001110111110000000111111111111000000000011111111111100000000000000000
1110000000111111101111111111111111111110011111111100111000011111100000000001111111111011111110011111000001111100000000000000011100000111100000111111111000000011111111111111110111111100000001110111111010001111111111111111111111111111111111100000000000000000
1110000000111111111111111111111111000000000001111100000110011000000000000000000000000011111111001011000001111100000000000000011100011001100000111110000000000011111111111111111111111100000001110111111111111111111111111111111111111111111111100000000000000001
1111111111111110111111111000001111000000000001111100000111100110000000000000000000000011111101000110001110011000000000000000011101100111100000111110000000000011110000011111111101111111111111110111111111111111111111111111111111111110000011100000000000000000
1111111111111100001111111000001111000000000001111100000100110100000000000000000000011111111100101000111011011010000000000000011100101100100000111110000000000011110000011111110000111111111111110111111111111111110001000000111111111110000011100000000000000010
1111111111111100111111111000001111000000000000000000000111111110000000000000000000011011111100100110000001111110000000000000011101111111100000000000000000000011110000011111111100111111111111110000001111111111110001000000111111111110000011100000000000000001
1111111111111100101111111000001110000000000000000000000111110100001111111000000000001011111100111010111111011011010111111101111100101111100000000000000000000001110000011111110100111111111111110000001111111000000001000001111111111110000011100000000000000111
1111111111111110111110000111111111000000000000000000001111110010001111111111111111110111111110111000000111101001110011111111111101001111110000000000000000000011111111100001111101111111111111110000001111111000000001000001111111111110000011111111000000000111
1111111111111100001110000111111111000000000000000000001111111010001111111110111111000000001100001001101000100101111111111111111101011111110000000000000000000011111111100001110000111111111111110111111111111000000001000001111111111111111111111111111111111111
1111111111111110101110000111111111100000000000000000001111110000001111111110101000000000001110111110010111111111111111111111011100001111110000000000000000000111111111100001110101111111111111111111111111111000000001001111111111111111111111111111111111111111
1111111100011111111110000100000000000000000000000000001111000000000000111111101000000000001001010011000011111111111111111100001100000011110000000000000000000000000000100001111111111000111111111111111111111000000001001111111111111111111111111111111111111111
1111111100011111111100000000000000011111110000000000001111000000000000111111010001000000011111100011000011111111111111111101011000000011110000000000001111111000000000000000111111111000111111111111111111111000000001001111000000011111111111111111111111111111
1111111100011111111100000000000000011111110000000000001111000000000000010010010010000000011111100011000011111111111111111111100000000011110000000000001111111000000000000000111111111000111111110111111111111000000001001111100000011111111111111111111100101011
1111111100011111111100000000000000011111110000000000001111000000000000000111100000000000001111110111000011111111111111111111100000000011110000000000001111111000000000000000111111111000111111110111111111111111111111111111111010110100010111111111111101111011
1111111100011111111100000000000000011111110000000000000000000000000000011010100000000000001111100111000011111111111111111111100000000000000000000000001111111000000000000000111111111000111111111111111111111111111111110010110101010110010110101110001100001110
0100111000000000000000000000000000011111110000000000000000000000000000000000000000000000001011100000111111111111111111111111100000000000000000000000001111111000000000000000000000000000011100100111111111111111111111100110010001000011001110101101011101000111
0000000000000000000000111111100000000000000000000000000001110010000111111111111111111111111100000111010000000000000000000000000001001110000000000000000000000000000111111100000000000000000000001110001011101011010111001100001000100110011111111111111111111110
0000000000000000000000111111100000000000000011111111100011111111000111111111111111111111000011100111110000000000000101011000000011111111000111111111000000000000000111111100000000000000000000000111000011000111010110100110101010110100111111111111111111111111
0000001111000000000000111111100000000000000011111111100011111111000111111111111111111111000011101111110000000000000111100000000011111111000111111111000000000000000111111100000000000011110000001101111011111111111110100010110101111111111111111111111111111110
0000001111000000000000111111100000000000000011111111100011111111000111111111111111111111000011000111111000000001001001001000000011111111000111111111000000000000000111111100000000000011110000001101010011111111111111111111100000011111001000000001111111111110
0000001111000000000000111111100000000000000011111111100011111111011010111111111111111111000011000111111000000010001011111100000011111111000111111111000000000000000111111100000000000011110000001111111111111111111111111111100000001111001000000001111111111111
0000001111000000000000000000000000000010000111111111100011111111110000111111111111111111000011001010010000000000010111111100000011111111000111111111100001000000000000000000000000000011110000001111111111111111111111111111111111111111001000000001111111111111
0000111111000000000000000000011111111110000111010111111111111111111011111111111111111111101001111101110000000000010101111111110011111111111111101011100001111111111000000000000000000011111100001111111111111111111111111111111111111111001000000001111111111111
0101111111000000000000000000001111111110000111000011111111111111111111111111111110100100010110010000110000000011111101111111110011111111111111000011100001111111110000000000000000000011111110101111111111111111111111111111111111111000001000000001111111111110
0100111111000000000000000000001111111110000111110111111111111111111111111111001110010111100000011101111111101111111111111111110011111111111111101111100001111111110000000000000000000011111100101110000000001111111100000111111111111000001000000001111111000000
0010111110000000000000000000000111000001111111010011111111111111111110111111101011011011111101011100111111010000000000011111110011111111111111001011111110000011100000000000000000000001111101001110000000000000011100000111111111111000001000000001111111000000
0111111110000000000000000000001111000001111111110011111111111111111000000000000001111110000001100100111111011000000000000000000011111111111111001111111110000011110000000000000000000001111111101000000000000000011100000111111111110000001000111111111111000000
0010110010000011111000000000001111000001111111000011111111111111111000000000000001011011011100010100111111111000000000000000000011111111111111000011111110000011110000000000011111000001001101000100000000000000011100000111111111110000001000111111111111111110
0110011110000011111000000000001111000001111111110111111111111111111000000000000000011001110001100010111111000000000000000000000011111111111111101111111110000011110000000000011111000001111001100000000000000000011100000111111111111111111111111111111111111110
0001100110000011111000000000001111111111111111111111110000000111111000000000000000111110000011010011111111000000000000000000000011100000001111111111111111111111110000000000011111000001100110001000000000000000011111111111111111111111111111111111111111111110
0000011110000011111111100000001111111111111111011111110000000111111000000000000000111110000011111001111111011111111110000000000011100000001111111011111111111111110000000111111111000001111000000000000000000000011111111111111111111111111111111111000101111110
0000000110000011111111100000001111111111111111011111110000000111111000000000000000111110000000001000100010111111111110000000000011100000001111111011111111111111110000000111111111000001100000000000000000000000011111111111100000000001111111111110000000111110
0001000110000011111111100000001111111111111111011111110000000111111000000000000000111110000000010000111011011111111110000000000011100000001111111011111111111111110000000111111111000001100010001000000000000000011111111111100000000001111111111111011101111110
0000100110000011111111111000111111111111111111111111110000000111111000000000000000111110000000001011110000111111111110000000000011100000001111111111111111111111111100011111111111000001100100001000000000000000011111111111100000000000000000100011010100111110
0000000010000011111111101000000000111111111111011111000000000111111000000000000000111110000001010000000000111111111110000000000011100000000011111011111111111100000000010111111111000001000000000000000000000111111111000000000000011111111111111111111111111110
0000000010110011111111101000000000111111111111011111000000000111111000000000111111000000000000110111011000011111110000000000000011100000000011111011111111111100000000010111111111001101000000001000000000000111111111000000000000011111111111111111111111111110
0000000001110011111111110000000000111111111111011111000000000111111000000000111111000000000001000101111111111111110000000000000011100000000011111011111111111100000000001111111111001110000000000000000000000111111111000000000000011111111111111111111111100000
0000000010010001011011000000000000011111111111011111111111111111111000000000111111000000000000001011111111111111110000000000000011111111111111111011111111111000000000000011011010001001000000001001010110000111111111000000000000011111111111111111111000000000
0000000011111110100011000000000000011111111111011111000000000111101101001101011111000000000000000000000000011111110000000001111111100000000011111011111111111000000000000011000101111111000000000100000000000111111111000000000000011111111111111111111000000000
0000000011111111100011000000000000011111111111011111000000000110000011101101100000000000000001101000000000010010000000000001111101100000000011111011111111111000000000000011000111111111000000000110000000000111111111001001011110011111111111111111111000000000
0000000011111110000011000000000000011111111111011111000001111100000000000000000000000000000000111000000000001110000000000001111100111110000011111011111111111000000000000011000001111111000000000100000000000111111111010110010000011111111111111111111000000000
0001100011111110100111000000000000011111111111000111000001111101000000000000000000000000000001000000000000000000000000000001111110111110000011100011111111111000000000000011100101111111000110000010000000000000000010100010110000011111111111111110000111100000
1111111111111110110111000000000000011111111111000111000001111111000000000000000000000000000011000000000000000000000000000001111111111110000011100011111111111000000000000011101101111111111111110000000000000000001000000000110000011111111111111110000111000000
0111101111111111110011000000000000011111111111000111001111111100000000000000000000011111111111000000000000000000000000000001111100111111110011100011111111111000000000000011001111111111110111100110011111111111111100000000110000011111111111111110000111000000
1111101010000110010111000000000000011111111111000111111111101110101100001110000110111111111111000000000000000010000000000001111101110111111111100011111111111000000000000011101001100001010111110000000000000000000101000000000000011111111111111110000111000000
1111110000001100010101000000000000000000000000000111111111100111111110011000010011001111111011000000000000000010000000000100000011100111111111100000000000000000000000000010101000110000001111111010000000000000001111000000000000000000000111111110000111000000
1111101011110000000110000000000000000000000000000111111111100100101110010100010101001111111001111000000000000011111111011100000000100111111111100000000000000000000000000001100000001111010111111110000000000000001111000000000000000000000000111111111111000000
0010011011000011010001011000001100000000100000000111111111100010100101001000101010101110000101111000000000000011111111111100000001000111111111100000000100000000110000011010001011000011011001000110010100101100111111010000010000000000000000111111111111000000
0000001111010110101100001000001100000000100000000111111111100100011001010010110011111101000001000000000000000011111111111100000000100111111111100000000100000000110000010000110101101011110000001001010010001010101011100001011110000000000000111111111111000000
0110001000101010000100011000001100000000100000000111111111100011111000000000000000111100000000000000000000000011111111111100000011000111111111100000000100000000110000011000100001010100010001101011100101000101010011111110011110000000000000111111110111000000
0111111001101110001010010111111110001111100000000111111111100100101000000000000000111100000000000000000000011111111000011100000000100111111111100000000111110001111111101001010001110110011111101111100110000100110011111110110000000000000000100000000001000000
0111110100000110000000000011110000001110000000111111111111111110000000000000000000010100000000000001111111111111111000011100000001111111111111111100000001110000001111000000000001100000101111101011000011100001101111111111110000000000000000100000000000011111
1000000101010000000000000001100100000000100000111111111111111000011001111111111111110000000011000001111111111111111000011100000000011111111111111100000100000000100110000000000000001010100000010000000000000000000111111111110000000000000000000000000000011111
1000001001010000000000000001111000000011000000111111111111111110000000000000000000100000000011000001111111111111111000011100000001111111111111111100000011000000011110000000000000001010010000010000000000000000000000000000110000000000000000000000000000011111
1000000101011000000000000001111000000001000000111111111111111011001000000000000000001010001011000001111111111111111000011110000011011111111111111100000010000000011110000000000000011010100000010000000000000000000000000000010000000000000000000000000000011111
1000001011001000000000000001111000000000100000111110000011111001010000000000011111111101011001000001111111111111111111100000000010011111000001111100000100000000011110000000000000010011010000010000000000000000000000000000001110000000000011100000000000011111
1111111011011000000000000001111010000001000000111110000011111000011000000000011111111100100101111001111111111111111111100000000000011111000001111100000010000001011110000000000000011011011111110000111011011000000000000000011010000000000100100000000000011111
1111111011110111111000000001111100000010000000111110000011111110010000000000011111111100000000000001111111111111111111100000000001111111000001111100000001000000111110000000011111101111011111111011010011010111110000000000000000000000000111111100000000011111
1111111110100111111000000001111111110001111111111110000011111001100101011000011111111100000000000001111111111111111111100000000010011111000001111111111110001111111110000000011111100101111111111110000000001111110000000000000010111111111111111100000000000000
1111111001111111111000000001111111100011111111111110000011111111000000000000011111111100000000000001111111111111111111111110000011111111000001111111111111000111111110000000011111111110011111111110000000001111110000000000010001011111111111111100000000000000
1111111011111111111000000001100011111001111111111111111111111111100000000000011111111100000000000001111111111111111111111111111011111111111111111111111110011111000110000000011111111111011111111110000000001111110000000000001101110110000111111100000000000000
1111111100100111111000000000100111101101111111111111111111111100000000000000011111111100000000000001111111111111111111111111111000111111111111111111111110110111100100000000011111100100111111111110000000000000001111100000010100000000001111111111100000000000
1111111001110000000111100000011010001001111111111111111111111111100000000000000001111111111110000000000000000010001101010011111011111111111111111111111110010001011000000111100000001110011111111110000000000000001111100000000010111100001111111111100000000000
1111111111000000000111100000110110001001111111000000000111111100100000000000000001111111111110000000000111111111111101110111111000111111100000000011111110010001101100000111100000000011111111111110000000000000001111100000000100001110110111111111100000000000
1111111110000000000111100000101000001001111111000000000111111111000000000000000001111111111110000000000111111111111000000011111011111111100000000011111110010000010100000111100000000001111111111110000000000000001111100000000010001000101111111111100000000000
1111111111000000000111100000000100001001111111000000000111111111000000000000000001111111111111111111111111111111111100010111111011111111100000000011111110010000100000000111100000000011111111111110000000000000001111100000111110011111110111111111100000000000
1111111100000000000111100000011010001001111111000000000111111110100000000000000001111111111111111111111111111111111111111111111001111111100000000011111110010001011000000111100000000000111111111110000000000000001111100000110100111111110000000000000000000000
1111111101000000000111010000000110001000000000000000000111111101000000000000000001110000011111111111111111111111111111111111111010111111100000000000000000010001100000001011100000000010111111111110000000000000000110011100011000101111110000000000000000000000
1111111111000000000000110000000000001000000000000000000011111100010000000000000001110000011111111111000000100011111111111111111000111111000000000000000000010000000000001100000000000011111111111110000000000000010110110111000101001111111110000000000000000000
1111111111000000000000000000100010001000000000000000000011111101100000000000000001110000011111111111000000100011111111111100000010111111000000000000000000010001000100000000000000000011111111111110000000000000011111100000011001001111110110000000000000000000
1111111111000000000000110000101000001000000000000000000011111111111000000000000001110000011111111111100000100000000111111100000011111111000000000000000000010000010100001100000000000011111111111111101111111010110110111111010111001111110100000000000111111100
1111111111000000000000110000110100001000001000000000000011111111111000000000111111110000011111111111100000100000000111111100000011111111000000000000010000010000101100001100000000000011111111111111111111110011100101111000000111011111111011111111111111110011
1111111111000000000000000000011010001000001000000000000011110000111111111111111111111111111111111111100000100000000111111111111000001111000000000000010000010001011000000000000000000011111111111111111111110000101001000101100100001100000000111111011111110011
1111111111000000000000010000000000001000000000000000000011110101111111111111111111111111111111111111111100100000000111111111111110101111000000000000000000010000000000001000000000000011111111111110111111110000111111111010011111011100000000000101011111110011
1111001110000000000000110000000110001000001000000000000011111100111111111111111111111111111111111111111100100000000111111111111100111111000000000000010000010001100000001100000000000001110011111100001111110000111111110000110010100100000000000101111111001111
1111101111000000000000010000011000000000000000000000000011110100111111111111111111111111111110000000111100100000000111111111111100101111000000000000000000000000011000001000000000000011110111110110101111110000111111110000110001111110000000100010111111001111
1111000111000000000000100000111100000000001000000000000011111110110101001111111111111111111110000001111100100000000111111111111001111111000000000000010000000000111100000100000000000011100011110001111111111111111111110000110001111110000000010010010010001111
0000101111111111111111100000111011101010100000000000001111110011110111101111111111111010001011010111111111111111111111111111111011001111110000000000000101010111011100000111111111111111110100000001111111111111111111110000111011111100000000000001111000001111
0000111111111111111111000000010011001001110000000000101111111111011100001100011101011010011010101011010011111111111111111111111111111111110100000000001110010011001000000011111111111111111100000001111111111111111111110000111001111100000000000001011001110000
0000011111111111111111100000111101100000001010110010011111111101111000101110101101011100110000100010011001111111111111111111111010111111111001001101010000000110111100000111111111111111111000000001111111111111111111111111000001110100000000000000001111110000
0100000000011011001010111111100100001111100000000000000000011111100000000000000000000001100110111011110011000101001010001011100011111000000000000000000111110000100111111101010011011000000000101111111111111111111111111101000111110000000000000000001111110111
0000000000101111111111000110110011011111110000000000000000001111000000000000000000000000110100101010100110100101000111001111000111110000000000000000001111111011001101100011111111110100000000001111111001010111111111111100000110001111000000000000001111110111
0011000000111111111111101010100010001111100000000000000000101111100000000000000000000000000000010100101110100000000000001000010011110100000000000000000111110001000101010111111111111100000011001111111110000111111111111100000010001111000000000000001111110111
1000000011111111111110111111111100001111101111111111110001110000100000000000011111111011000001111110000000000000000000001101010000001110001111111111110111110000111111111101111111111111000000011111111011011011011111111000000111001111000000000000001111110111
1101000011111111111111111111111110011111011111111111110000100000000000000000011111111011000011111110000000000000000000000000000000000100001111111111111011111001111111111111111111111111000010111111110000001011101111111000000111001111000000000000001111011001
1100000011111111111110111110111001111111001111111111111000110000000000000000011111111011000000000000000000000000000000000000000000001100011111111111110011111110011101111101111111111111000000111111110000000101111111111101101011001111000000000000000000110011
0101000011111111111111111110111111111111011111111111110000000000000000000000011111111011000000000000000000000000000000000000000000000000001111111111111011111111111101111111111111111111000010101100000000010101111111111100010000011010000000000000000000000111
1111000011111111111110111110111010011111111111111111110000000000100000000000011111111011111000000000000000000000000000000000000000000000001111111111111111111001011101111101111111111111000011111100000000010000001111111100111101100101110110100000000000001111
0000000011111111111110111110111101001111001111111111110000000000111111000000011111111011111000000000000111110000000011111111100000000000001111111111110011110010111101111101111111111111000000001100000000000000000010000000010001111110000101100011000000001111
0000000011111111111111111110111110101111001111111111110000000000111111000000011111111011111000000000000111110001111111111111100000000000001111111111110011110101111101111111111111111111000000001100000001111111111101000000110001010000001001001010000000101111
0100000011111111111111111110111011101111111111111111110000000000111111000000000000111011111100000000000111110001111111111111111000000000001111111111111111110111011101111111111111111111000000101111111111111111111001000000110110011111100000011111111111110111
1100000011111111111111111110111111111111001111111111110000000000100000000000000000111011111100000000000111110001111111111111110100000000001111111111110011111111111101111111111111111111000000111111111111111111111000000000110101110001001001011111111111110111
0100000001111111111111111110111001111111010001111111110100000000100000000000000000000000000000000000000111110001111111111111111100000000101111111110001011111110011101111111111111111110000000101111111111111111111111000000101110011100011001111111110000001000
1000000001111111110000000110111010011111100001111111111100000000100000000000000000000000000000000000000000000001111111111111111000000000111111111110000111111001011101100000001111111110000000011111111111111111111111000000001101001111100000111111110000001000
0000000001111111110000000110111101111111100001111111110000000000100000010111000000000000000000000000000000000001111111111111111100000000001111111110000111111110111101100000001111111110000000001111111111100000000001000000011000001111100000111111110000001000
0000000001111111110000000110111110101111100001111111111000000000100000111111100000000000011111111110000000000001111111111111111100000000011111111110000111110101111101100000001111111110000000001111111111100000000000101110111011111111100000111111110000001000
1100000001111111110000000110111001001111100001111111110000000000100000010001000000000000011111111110000000000001111111111111111000000000001111111110000111110010011101100000001111111110000000111111111111100000000001001000111101111111100000111111110000001000
0000000000000000000000000110111010011111100001111111000110000000100000110101001110111111111111111110000000000001111111111111111000000001100011111110000111111001011101100000000000000000000000001111111111100000000000111100001011111111100000111111110000001000
1100000000000000000000000100100001101111111110000001101100000000100000000000000000000000000001111111111111000000000111111111111100000000110110000001111111110110000100100000000000000000000000111111111111100000000000111111111101011111100000111111110000001000
0000000000000000000000000110000011100111111110000000000010000000100000000000000000000000000001111111111111000000000111111111111000000001000000000001111111100111000001100000000000000000000000001111111111111100000001111001000100111111111111000000111111110111
0000000011111000000000000011100000000111111110000000000110000000111110000000000000000000000001111111111111000000000111111111111100000001100000000001111111100000000111000000000000011111000000001111111111111100000000000000010111011111111111000000111111110111
0110000011111000000000000111000000000111111110000001101000000000111111111000000000000000000001111111111111000000000111100101011000000000010110000001111111100000000011100000000000011111000001101111111111111100000000000000001011111111111111000000111111110111
1000000011111000001111111011111100000111111110000001000010000000111111111000000000000000000001111111111111000000000111111111110100000001000010000001111111100000111111011111110000011111000000010000011111111100000001111111111111111111111111000001010011011101
1110000011111000001111110111111010000111111111111110010010000000111111111000000000000000000001100001011011000000000111111111100100000001001001111111111111100001011111101111110000011111000001110000011111111111101101111111111010011111111111111110010010000000
0110000011111000001111101111111110000111111111111110110010111110111111111000000000000000000001111101100101000000000111111111110101111101001101111111111111100001111111110111110000011111000001100000011111111111100011111111111000111111111111111111111111110000
0010000000000000001111110111111110000111111111111110010101111110111110000111100000000000000001111100101110101111111111111111101101111110101001111111111111100001111111101111110000000000000001000000011111111111111111111111111111011111111111111111111111110000
1000000000000000001111110011111110000111111111111111010110111110111111000111100000000000000001111100111111111011111111111111111101111101101011111111111111100001111111001111110000000000000000010000011111111111111111111111111111001111111111111111110000001111
1110000000000000001111101111111101100111111111111111010101111110111111000111100000000000000001111100111111110000000000000001100101111110101011111111111111100110111111110111110000000000000001110000011111111111111111111111111111000000000001111111110000001111
1000000000000000001111111000111111000011111111111001111101000001111111000111100000000000000001111111111111010111111111111111111110000010111110011111111111000011111100011111110000000000000000010000011111111111101111111111111111000000000000100111101100000010
1101100000000001111111100000111000000001011010111000100110000001111111000111100000000111111111111111111111000011111111111111101010000001100100011101011010000000011100000111111110000000000110111111110111111111101111111111111111001000000011001101110110010000
0011100000000001111111101111111100111110011101111010101110111001111111000000000000111111111111111111111111000011111111111111100010011101110101011110111001111100111111110111111110000000000111001111110001000000001111111111111000011000000011010101111010010010
1101100000000001111111101111111100111110111100101001010000111111111111000000000000111111111111111101111101000000110010110101100111111100001010010100111101111100111111110111111110000000000110111111110000000000001111111111111000010111100010101010110100100110
1011100000000001111111101111111100111110010111010011110010011011111111000000000000111111111111100001011110001010101011101101011011011001001111001011101001111100111111110111111110000000000111011111110000000000001111111111111111011111010000001100100010101001
1101100000000001111111111111111111111111111001111111000010100000111111000100000000111111111111100001100000001101010111010110001000000101000011111110011111111111111111111111111110000000000110111111110000000000001111111111111111111111110000111111111111110111
0001100000000001111111111111111111111111110101011100111111000000111111011111111110111111111111111100100000001100110111100110000000000011111100111010101111111111111111111111111110000000000110001111110001111000000001111111111111111111110000111111111111110101
1000100000000001110000000000011111111111110001011001111010100000000001111111111110111111111111111100000000000010011110001111001000000101011110011010001111111111111000000000001110000000000100011111110001111000000000000000011111111111110101111111111111110000
1100000000110001110000000000011111111111110011000000000000100001000001111111111111111111111111111100000000000111111111111111111110000100000000000011001111111111111000000000001110001100000000111111110001111000000000000000011111001111111100000000000000010110
0000000111110001110000000000011111111111110001001000000000000000000001111111111111111111111111111100111111111111111111111111111100000000000000010010001111111111111000000000001110001111100000001111110001111000000000000000011111001111111110111111111111110000
0100000111110001110000000000011111111111110001101000000011100111000001111111111111111111111111111101111111111111111111111111111111100111000000010110001111111111111000000000001110001111100000101111100001111000000000000000011111001011101011111111111111110100
1100000111110000010000000000011111111111110011111000000011111111000001111111111110001111111111100011111111111111111111111111111111111111000000011111001111111111111000000000001000001111100000111111111110000000000000000000011111011001010000000001111111110010
1001111111110000010000000000011111111111110011100000000011111111000001111111111110110111111111101001111111111111111001001000111111111111000000000111001111111111111000000000001000001111111110011111111110000000000000000000011000010110110000000001110000001001
0001111111110000010000000000011111111111110011101000000011111111000001111111110000000111111111111111111111111100000101001101001011111111000000010111001111111111111000000000001000001111111110001111111110000000000000000000011111111111110000000001110000001101
0000000000000000010000000000011111111111110010010111011011111111111111111111110000000000000000101111111111111100000011111111100011111111011011101001001111111111111000000000001000000000000000001111111110000000000000000000011111111111110000000001110110100110
0001111111110000010000000000001111111111000000000011000111111111111111111111110000000000000001011101111111111100000011111111100011111111100011000000000011111111110000000000001000001111111110001111100000000000000000000000011111111111110000000001110000001111
0001111111110000010000000000001111111110100000000011001011111111111111111111110000000111100100010011111111111100000011111111100011111111010011000000000101111111110000000000001000001111111110001000000000000000000000000000011111111111110000000001110000001110
0001111111110000010000000000001111111110100000000011111011111111111111111110000000000011111111110101111110000011111111111111100011111111011111000000000101111111110000000000001000001111111110001000000000000000000000000000011111111111110000000001110000001111
0001111111000000000000000000000000001110000000000011111001101111111111111110000000000011110000101111111110000011111111111111100011110110011111000000000001110000000000000000000000000011111110001000001101010011101111111111111111100000000000011111110000001110
0001111111000000010000000000000000111111100000000011111001110111111111111110000000000100100011110111111110000011111111111111100011101110011111000000000111111100000000000000001000000011111110001000000100010000000000000111111111100000000000011111111111110001
0001111111000000010000000000000000111111100000000011111001111111111111111110000000000010111011101111111110000011111111111111100011111110011111000000000111111100000000000000001000000011111110001000001111111000000000000111111111100000000000011111111111110000
0001111111000000010000000000000000111111100000000011111000011111111111111110000000000100000001100000111110000011111111111111100011111000011111000000000111111100000000000000001000000011111110001000000101110000000000000000000000000000000000011111111111110000
0001111111000000000000000000000000111111111110000011111001100111111111111111111111111100000000110100111110000011111111111111100011100110011111000001111111111100000000000000000000000011111110001000000000000000000000000000000000000000000000011111111111110001
0000000000000001000000000111110000111111111110000011111000011001111111111111111111111100000010111001110001100111111111111111100010011000011111000001111111111100001111100000000010000000000000001000000000000000000000000000000000000001111100011111111111110000
0000000000000011110000000111110000111111111110000011111011001011111111111111111111100000000011010111000100100101111111111111100011010011011111000001111111111100001111100000001111000000000000001000000000000000001110111111000000000001111100011111111111110010
0000000000000011000000000111110000111111111111111111111000000001111111111111111111100100000011011001111110000001111111111111100010000000011111111111111111111100001111100000000011000000000000001111110000000000001110111111000000000001111100011111111111110001
0000000000000011010000000111110001111111111111111111111000001011110000000111111111110100000011000101000000100100101000000010000011010000011111111111111111111110001111100000001011000000000000001111110000000111111110111110000000000001111100011111110000001000
0000000000000001000001111000000000111111111111111111110000001101110000000000000000001000000001000111111000010110001100000000000010110000001111111111111111111100000000011110000010000000000000001111110000000111111110111110000000000001111100000000111111111000
0000000000000011110001111000000000111111111111111111110000000101110000000001000000111111110011110110010111011010000000000000000010100000001111111111111111111100000000011110001111000000000000001000000000000111111110111110000000000000000000000000000000000000
0000000000000001010001111000000000011111111111111111110000001111110000000001010111111111110001000001101000000000000000000000100011110000001111111111111111111000000000011110001010000000000000000000000000000111111110110000000000000000000000000000000000000000
0000000011100000000001111011111111111111111111111111110000111111111111000000010111111111110110101100111100000000000000000011110011111100001111111111111111111111111111011110000000000111000000000000000000000111111110110000000000000000000000000000000000000000
0000000011100000000011111111111111100000001111111111110000111111111111000000101110111111100000011100111100000000000000000010100111111100001111111111110000000111111111111111000000000111000000000000000000000111111110110000111111100000000000000000000000000000
0000000011100000000011111111111111100000001111111111110000111111111111101101101101111111100000011100111100000000000000000000011111111100001111111111110000000111111111111111000000000111000000001000000000000111111110110000011111100000000000000000000011010100
0000000011100000000011111111111111100000001111111111110000111111111111111000011111111111110000001000111100000000000000000000011111111100001111111111110000000111111111111111000000000111000000001000000000000000000000000000000101001011101000000000000010000100
0000000011100000000011111111111111100000001111111111111111111111111111100101011111111111110000011000111100000000000000000000011111111111111111111111110000000111111111111111000000000111000000000000000000000000000000001101001010101001101001010001110011110001
1011000111111111111111111111111111100000001111111111111111111111111111111111111111111111110100011111000000000000000000000000011111111111111111111111110000000111111111111111111111111111100011011000000000000000000000011001101110111100110001010010100010111000
1111111111111111111111000000011111111111111111111111111110001101111000000000000000000000000011111000101111111111111111111111111110110001111111111111111111111111111000000011111111111111111111110001110100010100101000110011110111011001100000000000000000000001
1111111111111111111111000000011111111111111100000000011100000000111000000000000000000000111100011000001111111111111010100111111100000000111000000000111111111111111000000011111111111111111111111000111100111000101001011001010101001011000000000000000000000000
1111110000111111111111000000011111111111111100000000011100000000111000000000000000000000111100010000001111111111111000011111111100000000111000000000111111111111111000000011111111111100001111110010000100000000000001011101001010000000000000000000000000000001
1111110000111111111111000000011111111111111100000000011100000000111000000000000000000000111100111000000111111110110110110111111100000000111000000000111111111111111000000011111111111100001111110010101100000000000000000000011111100000110111111110000000000001
1111110000111111111111000000011111111111111100000000011100000000100101000000000000000000111100111000000111111101110100000011111100000000111000000000111111111111111000000011111111111100001111110000000000000000000000000000011111110000110111111110000000000000
1111110000111111111111111111111111111101111000000000011100000000001111000000000000000000111100110101101111111111101000000011111100000000111000000000011110111111111111111111111111111100001111110000000000000000000000000000000000000000110111111110000000000000
1111000000111111111111111111100000000001111000101000000000000000000100000000000000000000010110000010001111111111101010000000001100000000000000010100011110000000000111111111111111111100000011110000000000000000000000000000000000000000110111111110000000000000
1010000000111111111111111111110000000001111000111100000000000000000000000000000001011011101001101111001111111100000010000000001100000000000000111100011110000000001111111111111111111100000001010000000000000000000000000000000000000111110111111110000000000001
1011000000111111111111111111110000000001111000001000000000000000000000000000110001101000011111100010000000010000000000000000001100000000000000010000011110000000001111111111111111111100000011010001111111110000000011111000000000000111110111111110000000111111
1101000001111111111111111111111000111110000000101100000000000000000001000000010100100100000010100011000000101111111111100000001100000000000000110100000001111100011111111111111111111110000010110001111111111111100011111000000000000111110111111110000000111111
1000000001111111111111111111110000111110000000001100000000000000000111111111111110000001111110011011000000100111111111111111111100000000000000110000000001111100001111111111111111111110000000010111111111111111100011111000000000001111110111000000000000111111
1101001101111100000111111111110000111110000000111100000000000000000111111111111110100100100011101011000000000111111111111111111100000000000000111100000001111100001111111111100000111110110010111011111111111111100011111000000000001111110111000000000000000001
1001100001111100000111111111110000111110000000001000000000000000000111111111111111100110001110011101000000111111111111111111111100000000000000010000000001111100001111111111100000111110000110011111111111111111100011111000000000000000000000000000000000000001
1110011001111100000111111111110000000000000000000000001111111000000111111111111111000001111100101100000000111111111111111111111100011111110000000000000000000000001111111111100000111110011001110111111111111111100000000000000000000000000000000000000000000001
1111100001111100000000011111110000000000000000100000001111111000000111111111111111000001111100000110000000100000000001111111111100011111110000000100000000000000001111111000000000111110000111111111111111111111100000000000000000000000000000000000111010000001
1111111001111100000000011111110000000000000000100000001111111000000111111111111111000001111111110111011101000000000001111111111100011111110000000100000000000000001111111000000000111110011111111111111111111111100000000000011111111110000000000001111111000001
1110111001111100000000011111110000000000000000100000001111111000000111111111111111000001111111101111000100100000000001111111111100011111110000000100000000000000001111111000000000111110011101110111111111111111100000000000011111111110000000000000100010000001
1111011001111100000000000111000000000000000000000000001111111000000111111111111111000001111111110100001111000000000001111111111100011111110000000000000000000000000011100000000000111110011011110111111111111111100000000000011111111111111111011100101011000001
1111111101111100000000010111111111000000000000100000111111111000000111111111111111000001111110101111111111000000000001111111111100011111111100000100000000000011111111101000000000111110111111111111111111111000000000111111111111100000000000000000000000000001
1111111101001100000000010111111111000000000000100000111111111000000111111111000000111111111111001000100111100000001111111111111100011111111100000100000000000011111111101000000000110010111111110111111111111000000000111111111111100000000000000000000000000001
1111111110001100000000001111111111000000000000100000111111111000000111111111000000111111111110111010000000000000001111111111111100011111111100000100000000000011111111110000000000110001111111111111111111111000000000111111111111100000000000000000000000011111
1111111101101110100100111111111111100000000000100000000000000000000111111111000000111111111111110100000000000000001111111111111100000000000000000100000000000111111111111100100101110110111111110110101001111000000000111111111111100000000000000000000111111111
1111111100000001011100111111111111100000000000100000111111111000010010110010100000111111111111111111111111100000001111111110000000011111111100000100000000000111111111111100111010000000111111111011111111111000000000111111111111100000000000000000000111111111
1111111100000000011100111111111111100000000000100000111111111001111100010010011111111111111110010111111111101101111111111110000010011111111100000100000000000111111111111100111000000000111111111001111111111000000000110110100001100000000000000000000111111111
1111111100000001111100111111111111100000000000100000111110000011111111111111111111111111111111000111111111110001111111111110000011000001111100000100000000000111111111111100111110000000111111111011111111111000000000101001101111100000000000000000000111111111
1110011100000001011000111111111111100000000000111000111110000010111111111111111111111111111110111111111111111111111111111110000001000001111100011100000000000111111111111100011010000000111001111101111111111111111101011101001111100000000000000001111000011111
0000000000000001001000111111111111100000000000111000111110000000111111111111111111111111111100111111111111111111111111111110000000000001111100011100000000000111111111111100010010000000000000001111111111111111110111111111001111100000000000000001111000111111
1000010000000000001100111111111111100000000000111000110000000011111111111111111111100000000000111111111111111111111111111110000011000000001100011100000000000111111111111100110000000000001000011001100000000000000011111111001111100000000000000001111000111111
0000010101111001101000111111111111100000000000111000000000010001010011110001111001000000000000111111111111111101111111111110000010001000000000011100000000000111111111111100010110011110101000001111111111111111111010111111111111100000000000000001111000111111
0000001111110011101010111111111111111111111111111000000000011000000001100111101100110000000100111111111111111101111111111011111100011000000000011111111111111111111111111101010111001111110000000101111111111111110000111111111111111111111000000001111000111111
0000010100001111111001111111111111111111111111111000000000011011010001101011101010110000000110000111111100111100000000100011111111011000000000011111111111111111111111111110011111110000101000000001111111111111110000111111111111111111111111000000000000111111
1101100100111100101110100111110011111111011111111000000000011101011010110111010101010001111010000111111100111100000000000011111110111000000000011111111011111111001111100101110100111100100110111001101011010011000000101111101111111111111111000000000000111111
1111110000101001010011110111110011111111011111111000000000011011100110101101001100000010111110111111111111111100000000000011111111011000000000011111111011111111001111101111001010010100001111110110101101110101010100011110100001111111111111000000000000111111
1001110111010101111011100111110011111111011111111000000000011100000111111111111111000011111111111111111111111100000000000011111100111000000000011111111011111111001111100111011110101011101110010100011010111010101100000001100001111111111111000000001000111111
1000000110010001110101101000000001110000010000000000000000000000000000000000000000000000000011111111111111100000000111100011111111011000000000011111111000001110000000010110101110001001100000010000011001111011001100000001001111111111111111011111111110111111
1000001011111001111111111100001111110001110000000000000000000000000000000000000000000000000011111110000000000000000111100011111110000000000000000011111110001111110000111111111110011111010000010100111100011110010000000000001111111111111111011111111111100000
0111111010101111111111111110011011111111010000000000000000000000000000000000000000000000000000111110000000000000000111100011111111100000000000000011111011111111011001111111111111110101011111101111111111111111111000000000001111111111111111111111111111100000
0111110110101111111111111110000111111100110000000000000000000000000000000000000000000000000000111110000000000000000111100011111110000000000000000011111100111111100001111111111111110101101111101111111111111111111111111111001111111111111111111111111111100000
0111111010100111111111111110000111111110110000000000000000000000000000000000000000000000000000111110000000000000000111100001111100100000000000000011111101111111100001111111111111100101011111101111111111111111111111111111101111111111111111111111111111100000
0111110100110111111111111110000111111111010000000000000000000000000000000000000000000000000010111110000000000000000000011111111101100000111110000011111011111111100001111111111111101100101111101111111111111111111111111111110001111111111100011111111111100000
0000000100100111111111111110000101111110110000000000000000000000000000000000000000000000000010000110000000000000000000011111111111100000111110000011111101111110100001111111111111100100100000001111000100100111111111111111100101111111111011011111111111100000
0000000100001000000111111110000011111101110000000000000000000000000000000000000000000000000011111110000000000000000000011111111110000000111110000011111110111111000001111111100000010000100000000100101100101000001111111111111111111111111000000011111111100000
0000000001011000000111111110000000001110000000000000000000000000000000000000000000000000000011111110000000000000000000011111111101100000111110000000000001110000000001111111100000011010000000000001111111110000001111111111111101000000000000000011111111111111
0000000110000000000111111110000000011100000000000000000000000000000000000000000000000000000011111110000000000000000000001110000011111100111110000000000000111000000001111111100000000001100000000001111111110000001111111111101110100000000000000011111111111111
0000000100000000000111111110011100000110000000000000000000000000000000000000000000000000000011111110000000000000000000001111111011111100000000000000000001100000111001111111100000000000100000000001111111110000001111111111110010001001111000000011111111111111
0000000011011000000111111111011000010010000000000000000000000000000000000000000000000000000011111110000000000000000000001111111000111100000000000000000001001000011011111111100000011011000000000001111111111111110000011111101011111111110000000000011111111111
0000000110001111111000011111100101110110000000000000000000000000000000000000000000000000000001111111111111111101110010100011111011111100000000000000000001101110100111111000011111110001100000000001111111111111110000011111111101000011110000000000011111111111
0000000000111111111000011111001001110110000000000000000000000000000000000000000000000000000001111111111000000000000010000111111000111100011111111100000001101110010011111000011111111100000000000001111111111111110000011111111011110001001000000000011111111111
0000000001111111111000011111010111110110000000000000000000000000000000000000000000000000000001111111111000111111111000001100000100000000011111111100000001101111101011111000011111111110000000000001111111111111110000011111111101110111010000000000011111111111
0000000000111111111000011111111011110110000000000000000000000000000000000000000000000000000000000000000000111111111100011000000100000000011111111100000001101111011111111000011111111100000000000001111111111111110000011111000001100000001000000000011111111111
0000000011111111111000011111100101110110000000000000000000000000000000000000000000000000000000000000000000111111111111110000000110000000011111111100000001101110100111111000011111111111000000000001111111111111110000011111001011000000001111111111111111111111
0000000010111111111000101111111001110111110000000000000000000000000000000000000000000000000000000000000000111111111111110000000101000000011111111111111111101110011111110100011111111101000000000001111111111111111001100011100111010000001111111111111111111111
0000000000111111111111001111111111110111110000000000000000000000000000000000000000000000000000000000111111100011111111110000000111000000111111111111111111101111111111110011111111111100000000000001111111111111101001001000111010110000000001111111111111111111
0000000000111111111111111111011101110111110000000000000000000000000000000000000000000000000000000000111111100011111111110011111101000000111111111111111111101110111011111111111111111100000000000001111111111111100000011111100110110000001001111111111111111111
0000000000111111111111001111010111110111110000000000000000000000000000000000000000000000000000000000011111100000000111110011111100000000111111111111111111101111101011110011111111111100000000000000010000000101001001000000101000110000001011111111111000000011
0000000000111111111111001111001011110111110000000000000000000000000000000000000000000111111000000000011100011111111001110011111100000000111111111111101111101111010011110011111111111100000000000000000100001100011010000111111000100000000100000000000000000011
0000000000111111111111111111100101110111110000000000000000000000000000000000000000000111111000000000011100011111111001110000000111110000111111111111101111101110100111111111111111111100000000000000000000000000010110111010011011110011111111000000100000000011
0000000000111111111111101111111111110111110000000000000000000000000000000000000000000111111000000000000000011111111001110000000001010000111111111111111111101111111111110111111111111100000000000001000000000000000000000101100000100011111111111010100000000011
0000110001111111111111001111111001110111110000000000000000000000000000000000000000000111111000000000000000011111111001110000000011000000111111111111101111101110011111110011111111111110001100000011110000000000000000001111001101011011111111111010000000111111
0000010000111111111111101111100111111111110000000000000000000000000000000000000000000111111001111111000000011111111001110000000011010000111111111111111111111111100111110111111111111100001000001001010000000000000000001111001110000001111111011101000000111111
0000111000111111111111011111000011111111110000000000000000000000000000000000000000000111111001111010000000011111111001110000000110000000111111111111101111111111000011111011111111111100011100001110000000000000000000001111001110000001111111101101101101111111
1111010000000000000000011111000100010101010000000000000000000000000000000000000000000111111000101000000011000000000001110000000100110000001111111111111010101000100011111000000000000000001011111110000000000000000000001111000100000011111111111110000111111111
1111000000000000000000111111101100110110000000000000000000000000000000000000000000000111111001010100101111000000000001110000000000000000001011111111110001101100110111111100000000000000000011111110000000000000000000001111000110000011111111111110101001111111
1111100000000000000000011111000010011111110000000000000000000000000000000000000000000111111011011101100101111111111110001111111010111100000110110010101111111001000011111000000000000000000111111110000000000000000000000000111110001011111111111111111111111111
