P1
# gct_against_zstd19: gct 10270 bits over zstd level 19
256 256
1111111111111111111110111110000000001110000001111111111111111111111111111111111111111111111111111000000000001111111101111111111100000000000000000001111110001111111110000010000000000000000000000111111111000000000111111111000001111000100101111111110000000000
1111111111111111111110111110000000001110000001111111111111111111000011111111111111111111110001111011100000001111111111111111111100000000000000000001111110001111111110000010000000000000000000001000000000111001111000000111111001110111111001110111110000000000
1111111111111111111110111110000000001110000001111111111111111111000001111111111111111111110001111011100000111111111111011111111100000000000000000001111110001111111110000010000000000000000000001000000000111001111000000111111001110111100101001001110000000000
1111111111111111111010111110000000001110000001111111111111111111000000111111111111111111110001111011100000111111111111111111111100000000000010000001111110001111111110000010000000000000000000001000000000111001111000000111111001110111100101000001111111000000
1111111111111111111110111110000000001110000001111111111111111111000001111111111111111111110001111011100000111000011111101111111100000000000000000001111110001111111110000010000000000000000000000000000000111001111000000111111001111000111011000001111111000000
1111111111100111111110111110000000001111111111111100000111111111000001111111111000000001111110000100000000110000010000001111111100000000011111000000000000001111111110000010000000011000000000000111111110111001111000000111111111111000111011000001111111000000
1111111111100111111110111110000000001111111111111100000000000111111110000111111111111110011111111000000000110000011111111111111100011111111111000000000000001111111110000010000000011000000000000111111110111001111000000111111001111000111011000001111111000000
1111111111111100000001111110000000001111111111111100000000000111111110000111111000000001111111111111111111000000011111111111111100011111111111000000000000001111111110000001111111000000000000001111111110111001111000000111111001110111111011000001111111000000
1111001110001110011111111110000000001111111111111100000000000111111110000111111111111111111111111101111111000000011111111111111100011111111111000000000000001111111110000000000110001110001100001111111110000000000111000000111001110111111011111111111111000000
1101101111111111111111000001111111011111111111111111111000000111111110111000000000000010001111100001111111111111111111101111111100011111100000000000000000000100000001111100000000000000001001000000000110000011000111000000111111110111100011111111110111100000
1111101111111111111111001011111111110000010001111111100000000000111110000111111110000010001111100011111111111111111111101111111111111111111000000001110111110000000000101100000000000000001000001000000110000010000110111001001000000110111111111111110111100000
1111101111111111111111111010000011110000010001111111100000000000111111111001111110000010001111100001100000000111111111101001111111111111111000000001110111110000111110100000000000000000001000001000000110000010000110111000110000000001000010000000000111100000
1111101111111111111111111010000011110000010001111111100000000000111111111001111110000010001111111101101111111000011111111001111111111111111000000001110111110000111110100000000000000000001000001000000110000010000001000001110000000110000010000000000111100000
1111101111111110000000000100000011110000010001111111100011111100000000000001111111111110001111111101110000000011101111111111111111000000111000000001110111110000111111011111111110000000001000001000000110000010000000111000001000000000000000000000000111100000
1111111111111001111000000100000011110000010001111111100011111100000000000001111111111110001111111111100000000011101111110111111111000000111000000001110111110000111111011111100001100000000000001000000001111101000000111000001000000000000000000000000000000000
1111000001110110001000111110111100011110011100000111100011111010000000000001111111111110001111111111111111111100010111100111111110100000111000011111000110000111000010000011101110010001111100001001111001000010111111000000001000001111111111111000000000000000
1111000001110110001000111110111100011110011100000111100011111100000000000101111111111110001111111111111111111100010111100111111111000000111000011111000110000111000010000011101110010001111100001001111001000010111111001000001000001000111000111000000000000000
1111000001110110001000111110111100011110011100000111100011111100000000000001100111111101111111111111111100111100010111110111111111000000111000011111000110000111000010000011101110010001111100000111111001000010111110111001001000001111000000111000000000000000
1111000001110001110111000001011100001110001101110111100000000000000000000001100111111100001111111100000011000011110111110111111111111111111000010001001110001111000101111100010001110001111100001111111001000010111110111001110000110111000000111000000000000000
1111100001101001110111000001011100001110001101110110000000001111000000000001100111111100000001111111111100111100000111110111111100001111111110010001001110001111000101111100000001101001111000000000000000000000000110000000001000001000110111111111110000011111
0011111001101001110111110001011100001110001101110111101111110010000000000001100111111100000001111111111111111100000111110111111110110000001000010001001110001111000101110000010001101001100000111000000000000000100110000000000000000111001000000111110000011111
0011111001101001110111110001011111110011110011100111101000001101000000000001111000011100000111110011111111111100000111111000000001001111101000011000110000110000000101110000010001101001100000111000000110110001111110000000000111111000001000000111110000011111
0000000111101001101011001110010010001110001101100111101000001101000111100001111000011100000110000001111100110011100110011111111101011111101000011001001110001110110110001100101001101000011111111000000000110000111110000000000111000111110111000000000000011111
0000000111101001101011001110010010001110001101100111100000000000000111100001100100011000000110000001111100110011100110011110111111111111111000011001001110001110110110001100101001101000011111111000000000110000000000000000000111000111110111111111110000011111
0000000111101001110111111110010011110000001010010111010001110001000111100000011011011100000110000000011111000011100111011111111101110001110100010110101111110000010110000000010001101000011111110111111000110000000000000000000111000111110111111111110000011111
0000000111101001110111111110010010001100001010010110100001110001000111100000011011000000000110000000011111000011111000011111111101110001111010010110101111001110110110000000010001101000011111110000000000110000111111000000111111111111001000000111110000000000
0000000111100101110111111110010010001100001010010110100001110001000111100000011100111100001001100000011111000011100111011111111101110001111010010110101111001110110110000000010001011000011111110000000000000000111111000000111000000001001000000111110000000000
0111100111111111110111110001110001111101110101000111111110001110100111101111100011100011110001100011100000111100000001100000000010001110000000011101010001000001110001110000010000000000011000010000000000000000111111000000111000000001001000000111110000000000
0111101111111111110111110001110001111101110110111111110000000000011000010011100011100111111110011111100000000011100001100000000011111111110000000010010001000001110001110000010000000000011000010111111100000000111111000001000111000110110111000000000111111111
0111100100100011110111000001110001111101110110111111110000000000011000010011100011100011110000011111111111111111100001100000000011111111110000000010010001000001110001111100010000111011011000011000000011100111111111000001000111000110110111111000001111111111
0000010110001111111110000000111110001100000111111111110000000000011000010010011100111111110000011100000000111111100001100000000011111111110000000000011111001110000011111110000000001110010111111000000011000111000000000001000111000110110111111000000111111111
1111101110001111111110000000111110001100000111111111110111011111111000010010011100111111110000011100000000111111100001100000000000000100010000000000011111001110000011111110000000001110001000000001111011011000110000000010111000111000000111111000000111111111
1111101110001111111111000000111110001100000111111111110111011111111000010010011100111111110100011100011111100000011111100000000000000100010000000000011111001110000011111100000000001110001000000001111011011000110000000011111000111111110000000111100111111111
1111101111111111111111000011000001110001111101000001100000000001011111110011100011111111111011100011100100100000011111100000000001111111111001111101000001110001111100111100000000000000001000001001111011011000110000000011111000111111110000000111100111111111
1111101111111111111111000011000001110001111110111110010000000001011111110011100000000011111011100011100100100000011111000000000001111111110110000010000001110001111100111100000000000000001000001001111011000111000111000011111000000000000000000111100111111111
1000011111111111111001111100100011110001111110111110010000000001100000001111111100000011111011100011100100100011111111100000000001111111110110000010000001110001111011000001100000000000000111101001111011000111000110000000011000000111111111000111100111111111
1000011111111111111001111100100010001111111110011110101100000000111111111111111100000011111100011111111011011111100000111111111111111111001010000110000000001110111011000001100000000000000111100110000100000111000111000011100111000111110000111111100111111111
1000011111111111111000000010100001111111111111111111111100000000111111111111101100000011111100011111111011011111100000111111111111111111000000000000000000000001111010111111100000000000000111101110000111111000110000111101100111111000001111000110001000000000
1111111110000000010000000001111111111111111111111111111100000000111111111100111100000011111100000000000011111111100000111111111111111111000000000000000000000000000001111111110111111110000000011110000111111001001111111110011111111000001111000001111000000000
1111110110000000010000000001111111111111111110011001001111111110100000011100111111111111111111100011100000100000000000111110000010000000001101100110000000000000000001111111110111111110010000001110000111111001001000111110011111111000001111000110001000000000
1111110110000000010000000001111111111111111110011001001111111110011111111100111111111111111111100011100000100000000000111110000010000000001101100110000000000000000001111111110111111110010000001110000111100110111001111110011111100000110011000110011000000000
1111101011111111100000000001111111111111111110011001001111111110011111111100111100000111111111100011100000100011111111111110000010000000001101100110000000000000000001111111111000000000101000001110000111100001111001111110011111100000110011000110011000000000
1111101010000111111111101010101111000001111111100110110011111110011111100100111000000111111111100000011111011111100000111110000010000000110010011000000001111100001010101000000000011110101000001111111111100001111000111110000011000000000000111110000001111111
1111101010000111111111111010001111000001100000000111000011111110011111111111111111100111110111111111100011011111100000111110000010000000111100011111111001111100001110100000000000011110101000001111111111100110000000111111100000000000000000111110000010000000
1111101010000111111111111010001111000001100000000111000011111110111101111111111111100111111111011111011100100000000000111110000010000000111100011111111001111100001110100000000000011110101000001111111111100110000000111111100000000000110000111110000010000000
1111101010000111111110000011111101000001100110000111111100000001000000011011110100000100011000111100100011111100011111111111111101111111000000011110011001111100000000111110000000011110101000001111111111100110000000111100000000111111001111000010000010000000
1111101010000111111110101101110001000001100110000111111100000001100000011011110100000100011011011111000011111100011111111111111101111111000000011110011001111101110001001110000000011110101000001111111111100110000000100000000000000000110000111010000010000000
1111101010111111111110001101110001000001100110000111111100000001011000011011110100000011111111011111011100011100011111111111111101111111000000011110011001111101110001011110000000000010101000001111111111100000000000011100000000000000000000111010000110000000
1111101010111111111110010010001110011111110111111011110100000001011000011011110100000011111111011111000000000000011111111111111101111111010000100000010000000110001110110110000000000010101000001111111111100000000000011100000000000000000000111010000110000000
1111111110111111100001101110001110011111111110000100000111111111011111111000001011111100011111011111111111111111111111111111111100000000011111011110000000000110001110001001111000000010000000001111111111100000000000011100000000000111111111000100000010000000
1111111110111111100001101110001110011111111111111011111111111111011111100111110111111100011111011111111111111111111111100001111100000000000000100000000000000110001110001001111000000010000000001111111111100000000000011100000000100011111111000100000000000000
1111111110111111111111110001110001111111111111111011111100000001011111100111110111111011111000111111100111110111111111100001111101111111000000100000000000000001110001110000000000000010000000000000000001100000011111011100000000100100000001111000000001100000
1111111110111111111111110001110001111100000111111011111100000001011111100111110111100100011100111111111011110111111111100001111101111111000000100000011111000001110001110000000000000010000000000000000001100000011111011100000111100111111110000000000101100000
1111111110100000000000000001111111111100000111111011111100000001011111100111110111100100011011011111100100000000000000100001111101111111000000100000011111000000000001111111111111111010000000000000011110000000011111011100000111000000000000000000000100000000
1111111110100000000000000001000000011111111110000011111111111110111111100111110011100011111100000000100001110000000000100001111110000000000000111110000000000111111101111111111111111010000000000000010001111111111111011100000111100000000000000000000100000000
1111110001011000000000000001000000011111110111111100000000011110000000000111111111100011111100011000100000010000000000000011111110000111111111000000010000000111111101111111111111100101110000000000011110000000000000000000000000100000001111111000000000000000
1111110001011000000000000000111111101111110111111100000000011110000000000100011000011111100000011000100000010011111000001011111110000111111111000000010000001000000011111111111111100101110000000000011110000001111111100000000000000000001111111000000000000000
1111110001011000000000110111000001101110111110000111111000011110100000000100011000011111100000011000011100010011111000000011111110000111100000011110000010001001111100000011111111100101110000000000011110000000000000011000000001111111110011111000000000000000
1110110000011000000000111111000001101110111110000111111000011110100000000100011000011111100000000000011100010011111000000011111110000111100000011110000010001001111100000011111111100111110010001111100000000001111111100000011110111111110011111011111100000000
1000001111111000000000111111000001101110111110000111111000011110111111111100011000011111100000011000011100010011111000000011111110000111100000011110000010001001111100000011111111100000001111101111100000000000000000000011100001000111110001111000000100000000
1000001111111000000000111111000001101110111110000111111000011110011111111100011000011111100000011000100001101011111000000011111110000111100000011110000010001001111100000011111111100000001111101111110000000000000000000011100001000111110000000000000000000000
1000001111111000000000000000111111101110111110011111111000011110011111111100011000011111100000011000100001101011011000111111111110000111100000000110000010001000000011111111111111100000001111101111100000000000000000000011100001000111110000000000001000000000
1000001111111000000000000000111111101110111110011111111000011110011111111100011000011111100000011000100000011000100000111111111110000111100000000110000010001000000011111111111111100000001111101111100000000000000000000011100001000111111100000000000000000000
1000001111111000000000000001000110011111000010100000001001110001100000000011111111100000000011111000111101101000000000111111111101110001101111111010111100000110011101111111111111100000001111100000000000000000000000000000000001111111111100000000000000000000
1000111001000000000000000000000000000000000000000000000000000000000011111100000000010110111000011111000000000111111111000000000101111100000001111111111111101110011000001111010111111101100011100000000000000000000011111111111011111111000000000000000000000000
0111100001111111000000000000000000000000000000000000000000000000000011111100000100011000000100011000000111111000011000111111111001111100000001111111111111110000000100010000011000000001111000010000000000000000000011111110001011100011000000000000000000011111
0111100001111111000000000000000000000000000000000000000000000000000011111100011011010110000100011000000111111000011000111111111001111100000001111111111111110000000100010000011000000001111000010000000001000000000000111110001011100011000000000000000000011111
0111100001111110000111110111011000001111110000000001111111000001111111000000011111010110000100011000000111111000011000111111111001111100000001111111110000001111100100010000011110000001111000010000000000000000000000111110001011100011000000000000000000111111
0111100001111110000111110111011000001111110000000001111111000001111111000000011111001000111000011000000111111000011000111111111101111100000001111111110000001111100100010000011110000001111000010000000010000001111000111110001011100011000000000000000000011111
0111100001111110000111110111011000001111110000000001100000110111111111000000011111001000111000000000000111111000011000100000000100010011111001111111110000001111100100010000011110000001111000010000000011111101111100111111110100011111011111111000000000011111
0111100001111110000111110111011000001111110000000001101000111111111111000000011111001000111000011000000111111000011000100000000100000011101001000000000000000000000000000000000000000000000000000000000000000001111100111111111011111110100000000000000111100000
0111100000000011111110111111011111110000000000000001101000111111111111000000011111001000000100011000000111111000011000100000000000000011101001000000000000000000000000000000000000000000000000000000000000000001111111000000000011111111011111111000000111100000
0111100000000011111110111111100000001000000000000001101000111111111111000000000000001000000100011000111111000111111111100000000000000011101001000000000000000000000000000000000000000000000000000000000000000001111111000000010000000000000000000000000111100000
0111111111111100000111111111100000001000000000000000010111111111111110000100000000001110000100000000111111000111001111100111111100000000010111000000000000000000000000000000000000000000000000000000000000000000000000000000011110000011101111111111111000100000
1000000011111101111110000011111111111000000000000000010111111111111110000100000000000000100111111011011000100111101111100111111000000000010111000000000000000000000000000000000000000000000000000000000000000000000000000000001110000011101111100000000111100000
1000000011111101111110000011111000111000111111111111110111111111111110000111111111101111011111111100111000100111101111100111111000000000010000000000000000000000000000000000000000000000000000000000000000000000000111111110011110000011101111100000011000000000
1000000011111101111111111111111000111000111111111111110111111111111110000111111111101111100111111100011111011111101111100111111000000000010000000000000000000000000000000000000000000000000000000000000000000001111000000010010000000011101111100000011000000000
1111111111111101111111111111100111000111011000011111110111111111111110000111111111111111111111111011111000111111101111100111111000000000010000000000000000000000000000000000000000000000000000000000000000000010001111111100010000000011100000000000011111111111
1111111110000010000111111111100111000111011000011111110111111111111111111111111111111111111111111011111000111111010000011111111000000000010000000000000000000000000000000000000000000000000000000000000000000010001111111110000000000011100000000000011111011111
1000000010111101111110111111100111000100100111111111110101011111111111111111111000000000000011111011111111000000101111011000011000000101010000000000000000000000000000000000000000000000000000000000000000000001110000000000000000000011100000000000011111111111
1000000011111110000110011000001000111011000111111111110101011111111111111111111000111000111011111011111111000000101111011000011000000101010000000000000000000000000000000000000000000000000000000000000000000001110000000000000000100011100000000000011111111111
1000000011111110000110011000001000111011000111111110000101011111111111111111111000111111000011111011011000100000101111011000000100000111011110000000000000000000000000000000000000000000000000000000000000000001110000110000000000000000010000000110011111111111
1000000011111110000110011000001111111100000111111110000101011111111111111111111000111111000100111100011000100000101111011000000000000101011110000000000000000000000000000000000000000000000000000000000000000000001111001111110000000011110000000110011111111111
0111111100001110000000011000001111000101111111111010000101011111000001111100000000000100111011111011111111100111111111111111111100000101011110000000000000000000000000000000000000000000000000000000000000000011110000110000000000011111110000000110011111111111
0111111100001110000000011000001111000101111111111110000101011111000001111100000111111011000111111111111111100111111111111111111000000101011110000000000000000000000000000000000000000000000000000000000000000011110000000000000000011111110000000110011111111111
0111111100110110011111111000001111010101011111111110000101011111000001111100000111111011111000000111111111100000011100100111111000000101011110000000000000000000000000000000000000000000000000000000000000000011110000000000001100000111110001111000011111111111
0111111111001001100111111111111111111000000000011111111101011111000101111111111111000100000111000111111111100000111100111111111000000101000000000000000000000000000000000000000000000000000000000000000000000010001100110000011111100111110001111000011110000111
0111111111001001100111111111111111111000000000100000000110111111000001111100000000000100000111000111111111111111111100111111111000000010011111000000000000000000000000000000000000000000000000000000000000000010001100110000011111100111111001110110011110000111
0111111111001001100111111111111111111000000000100000000110111111000001111100000000000100000111000111111111111111111100111000000100000010011111111011111111100000000000000000011001101100000000010000000001000110001111000001111111100111110001001001111110000111
0000000011111111111111111111111111111000000000100000000111111111111111111100000111111111000000000000111111000000111100111111111100000001011111111011111111100000000000000000000000000000111111110000000001111000001111000001111111100111111111001001111110000111
0000000011111111111111111111111000010100000001111111111111100001111111111100000111111011011111111000111111000000111111111111111101111000000000000001111111010111100000000000000000000000111111110000000001000110001111000001111110011011110000110001111110000111
0000000011010111100111111111000100010011111001111111111111100001111111111100000111111011011111111000111111000000111111111111111101111000000000000001100000110111011100000000011000010100111111111111111110011111110000111110001110011100001110001110000010000110
1000000000100111110111111000111000010011111001111111111111100001000000000111111111000100100111000111011111000000111111110000000101111000000000000001100000110111100011100000010000011011111111101111111110011110001111111110000001100000000110001110001101111001
1000000000100111110111111000111000001100001111111111111111011111000000000011111000000100100111000111011111000000000111001111111000000100000000000000001111001111100011100000010000011011111111101111111110011110000000000000000001111100001110001110001101111001
1000000000011000001011111000111000001100001111111111111111011111000000000111111000000100100111000111011111111111000111001111111000000100000000000000001111001011100011100000101111100111111111101111111110011110000000111111110001111100000000110001101101111001
1111101110111111111110000011000111110000001111111111000111011111000000000111111000000111111000111000101111111100111001001000011100000100011100000000001111110000011100111110000000000010001000001111111110011110000000111111110001111100000000110001101101111000
1111101110111111111110000011000111110000000111111111000111011111000000000110000111111100000000111000001111111100111001001000011100000100011100000000011111110000011100111110000000000010001000001111111110000001111110000001110001110100000000110001101101111000
0000000000111111111110000011000111110000000111111111000110100000000000000110000111111100000000111000001011111100111001001000011011111010011100000000011111110000011100111110000000000011111111111111111110000001111110110110001110001000000000001110001100000001
0000000000111111110110111011111000111000001110111100010010011110000000000110000111111111111111111000001111000111000111001000011010000110110111000010001111100011100000100010010000000011111111111111111111000001111110110110001110001000001111111110001100000001
0000000000111111110110111011111000111000111110111111111110011110000000000110000111000000000111111001111111100111000111001000011010000110000000000010000011100011100000100010010000000011111111111111111110000000001110110110001110001000001111110000000011111110
0111000111111110001010111011111000111000111110111111111110011110000010010110000000111100000111000110001111000111000111110111100110000100000000000010000011100011100000100010101110000000011100010000000000111110000001001000000001110000001111110000000000000000
1000111000010110100101000011000100100111111110111010011110000000111111111011100111000011111000000110010000111100111000000111100011111110000110100010000000011011011100111101011010010111100011100000000000111110000001001000000001110000001111110000000000000000
1000111000010110100101000011000100100111111110111001011110000000111111111000011111000011111000000001100000000011011000000111100011111110000101100010000000011011011100111101011010010111100011100000000000111110000000001111111111110000001111110000110000000000
1000111000101110100101000000111100100111111110111001011110000000111111111011100111000011111000000001100000111011011000000111100011111110000101100010000000011011000011111101011010001011100011101111100000111111111110111110001110000000000000000000110001111110
0000000000011110011011000111101100100111001101011001011110000000111111111001100111001100111110000001100000011000100110000111100011111110000101100101001100011011011100011100100110000111111111111111100000111111111110111110001110000000000000000000110010000001
1011000001011110011011000111001000100111001101011001011110000000111111111001100111001100111110000001100000111000011110000111100011111110000101100101001100011011011100011100100110000101111100101111100000000000001110111110001110000000000111110000110000000001
1011000001011110011100111100001011101000111110111001011001111100000000011111100000111111111111001111100000111000011110000000000011000001100101100010000011101000000011000011000110000101111100101111100000111110000001000001111110000000000111111000110110000001
0100111111011110111011000111001011101000111110111001011001111100111111101111100000111111111111111110000000111111100110000000000011000001100101100010000011101000111100011100100010000100000011011111100000111110000001001110000000000000000110000000000000010001
1111000000000110111011000111000011101000001110111001011000011111111111101111100000111100111111111110000000111111100110000000000000000111100101100010001111101000111100011100100010011111111100001111100000111111111110110001000001000000000110000000000000000000
0000000000011110111011000111000011101000001110111000111000001111111111101111101111000011000000111111110000111111100110000000000000001111100011100010001111101000111100011100100010000111111111110000000000000001110000001110110000111001110111110100001001111111
0011111100011110000011100111100011110111110001000110111000001111111111101111101000111100111111111111111110111111100110000000000000001111100010011101110000010000111000011000111110000111000000110000000000000001110000001111000001001001110111110100001001111110
0011111100011110000011100111100011110111110001000110111000001111111111100111101000111111111111111111110001111111111110000000000000001111100010011101110000010000111000011000111110000111000000110000000000000001110001110001000001000000001111110100001001111001
0101111100011110000011100111100011110111110001000110111000001111111111100111101000111111011111111111110001111111111110000000000000001111100010011101110000010000111000011000111110000111000001010000000000000001111111111111000001000000001111110100001001111001
0011111100011111111000100000111100000010000001111001111111111111111111101111110111000000000111111111110001111111111110000000010000000000000001100001111110111111000011111011100000000111000000110000000000000000000000000000000001000001110000001011111000000001
0011111100011111111000100000111100000010000000000111111111011111111111111111110111000000001110111111110001111111111110000000000000000100000000011111111110111111000011111011100000000111000000110000011110000000000000000000000001000001110000000100000110000001
0000000000011111111000100000111100000101111111111111111111011111111110011111111000011111110110111111110001000001111110011111111100000100000000000000000001011111000011111011100000000111111111110000011110000000000100000110000000111000001000000100000110000001
0000000000011111111000100000111100000101111111111111111111011111111110010111111111100000000110000111110001000001111110011111111100000100000000000000000001011111000011111011100000000111111111110000011110000000000100001000000000110001110110000100000110000001
0000000000011111111000100000111111111101001111111111111111011111111111110111111111111111111111000111110001000001111111100001111100000100000000000000001100000000000011111011100000000111111111110000011110111111111111110110000001001001110110000100000110000001
1110000001111111111111111111101111111000001111111111111111011011111111110111111111111111111110000111110001000000000000011101111100100100000000000000001111100000001000000000000000000001111110000000011110111111111100011110111111110000001110001100000110000000
1110000000000011111111111111000000000111111111100111000111001111111111111111111000000011111110111111111111111111111111100001111100001100011100011000000000011111111100000000000000111111111110000000001111111111111101111110111001110000001111000000000111111111
1110000000000011111111111111000000000011111000000011111111111111111111111111111000000011111111111111111110000000011111100001111100000000000000111111100000011111111100000000000000111111111110000000001111111000001101111110111001111110000001111001110110011101
1110000000000011111111111111000000000111110111111110011111111111111111111111111000001100000000011111111001111111111111100001111100000000000110000000010000011111111100000000000000111111111110000000001111111000001101110001111001111110000001111001110110011101
1111111110000011111111111111000000000111110111111110011111111111111111110000001000001100000000100001111110000000011111111110000000000000000110000000010000011111111100000000000000111110000000000000001111111000001101110001111111111110000001111001110110011101
1111111111111111111000000111000000000111110111111111111111111111111111110111111000011100000111011110001111111111111111111110000000000000000000000000010000011111111100011111100000000000000000000000001111111000001101110001111001111110000001111001110010011100
1111111111111111111000000111000000000111110111111111111111111111111111111111111111111100000111011110001111111111111111111100000000000000000000000000010000011111111100011111100000000000000000000000001111111000001010011110111001111110000001111001110010011100
1111111111111111111000000111000000000111110111111111111111111111111111111011111111111100000111011110001111111111111111111110000000000000000000000000010000011111111100011111100000000000000000000000000000111001001010011110111001111110000001111001110010001100
1111111111111111111000000111000000000111110111111111111111111111111111111111111111110000000111011110001111111111111111111110000000000000000000000000010000011111111100011111100000000000000000000000000000111110111001111110111001111110000001111001110010011100
1111111111111111111000000111000000000111100111111111111111111111111111111111111111110000000000010111111111111111111111111111111100000000000000000000010000011111111100011111100000000000000000000000000000111111111010010001111000001111111110000000001100000011
1011111111111111111110111110000000001110000001111111111111111111111111111111111111111111111111111000000000001111111111111111111100000000000000000001111110001111111110000010000000000000000000000111111111000000000111111111000001111000100101111111110000000000
1111111111111111111110111110000000001110000001111111111111111111000001111111111111111111110001111011100000001111111111111111111100000000000000000001111110001111111110000010000000000000000000001000000000111001111000000111111001110111111001110111110000000000
1111111111111111111110111110000000001110000001111111111111111111000001111111111111111111110001111011100000111111111111011111111100000000000000000001111110001111111110000010000000000000000000001000000000111111111111111111111111110111100101001001110000000000
1111111111111111111110111010000000001110000001111111111111111111000000111111111111111111110001111011100000111111111111111111111100000000000000000001111110001111111110000010000000000000000000001000000000111111111111111111111111110111100101000001111111000000
1111111111111111111110111110000000001110000001111111111111111111000001111111111111111111110001111011100000111000011111101111111100000000000000000001111110001111111110000010000000000000000000000000000000111111111111111111111111111000111011000001111111000000
1111111111100111111110111110000000001111111111111100000111111111000001111111111000000001111110000100000000110000010000001111111100000000011111000000000000001111111110000010000000011000000000000111111110111001111000000111111111111000111011000001101111000000
1111111111100111111110111110000000001111111111111100000000000111111110000111111111111110011111111000000000110000011111111111111100011111111111000000000000001111111110000010000000011000000000000111111110111001111000000111111001111000111011000001111111000000
1111111111111100000001111110000000001111111111111100000000000111111110000111111000000001111111111111111111000000011111111111111100011111111111000000000000001111111110000001111111000000000000001111111110111001111000000111111001110111111011000001111111000000
1111001110001110011111111110000000001111111111111100000000000111111110000111111111111111111111111101111111000000011111111111111100011111111111000000000000001111111110000000000110001110001100001111111110000000000111000000111001110111111011111111111111000000
1101101111111111111111000001111111011111111111111111111000000111111110111000000000000010001111100001111111111111111111101111111100011111100000000000000000000100000001111100000000000000001001000000000110000011000111000000111111110111100011111111110111100000
1111101111111111111111001011111111110000010001111111101000000000111110000111111110000010001111100011111111111111111111101111111111111111111000000001110111110000000000101100000000000000001000001000000110000010000110111001001000000110111111111111110111100000
1111101111111111111111111010000011110000010001111111100000000000111111111001111110000010001111100001100000000111111111101001111111111111111000000001110111110000111110100000000000000000001000001000000110000010000110111000110000000001000010000000000111100000
1111101111111111111111111010000011110000010001111111100000000000111111111001111110000010001111111101101111111000011111111001111111111111111000000001110111110000111110100000001000000000001000001000000110000010000001000001110000000110000010000000000111100000
1111101111111110000000000100000011110000010001111111100011111100000000000001111111111110001111111101110000000011101111111111111111000000111000000001110111110000111111011111111110000000001000001000000110000010000000111000001000000000000000000000000111100000
1111111111111001111000000100000011110000010001111111100011111100000000000001111111111110001111111111100000000011101111110111111111000000111000000001110111110000111111011111100001100000000000001000000001111101000000111000001000000000000000000000000000000000
1111000001110110001000111110111100011110011100000111100011111010000000000001111111111110001111111111111111111100010111100111111110100000111000011111000110000111000010000011101110010001111100001001111001000010111111000000001000001111111111111000000000000000
1111000001110110001000111110111100011110011100000111100011111100000000000001111111111110001111111111111111111100010111100111111111000000111000011111000110000111000010000011101110010001111100001001111001000010111111000000001000001000111000111000000000000000
1111000001110110001000111110111100011110011100000111100011111100000000000001100111111101111111111111111100111100010111110111111111000000111000011111000110000111000010000011101110010001111100000111111001000010111110111001001000001111000000111000000000000000
1111000001110001110111000001011100001110001101110111100000000000000000000001100111111100001111111100000011000011110111110111111111111111111000010001001110001111000101111100010001110001111100001111111001000010111110111001110000110111000000111000000000000000
1111100001101001110111000001011100001110001101110110000000001111000000000001100111111100000001111111111100111100000111110111111100001111111110010001001110001111000101111100010001101001111000000000000000000000000110000000001000001000110111111111110000011111
0011111001101001110111110001011100001110001101110111101111110010000000000001100111111100000001111111111111111100000111110111111110110000001000010001001110001111000101110000010001101001100000111000000000000000000110000000000000000111001000000111110000011111
0011111001101001110111110001011111110011110011100111101000001101000000000001111000011100000111110011111111111100000111111000000001001111101000011000110000110000000101110000010001101001100000111000000110110001111110000000000111111000001000000111110000011111
0000010111101001101011001110010010001110001101100111101000001100000111100001111000011100000110000001111100110011100110011111111101001111101000011001001110001110110110000100101001101000011111111000000000110000111110000000000111000111110111000000000000011111
0000000111101001101011001110010010001110001101100111100000000000000111100001100110011000000110000001111100110011100110011111111111111111111000011001001110001110110110001100101001101000011111111000000000110000000000000000000111000111110111111111110000011111
0000000111101001110111111110010011110000001010010111010001110001000111100000011011011100000110000000011111000011100111011111111101110001110100010110101111110000110110000000010001101000011111110111111000110000000000000000000111000111110111111111110000011111
0000000111101001110111111110010010001100001010010110100001110001000111100000011011000000000110000000011111000011111000011111111101110001111010010100101111001110110110000000010001101000011111110000000000110000111111000000111111111111000000000111110000000000
0000000111100101110111111110010010001100001010010110100001110001000111100000011100111100001001100000011111000011100111011111111101110001111010010110101111001110110110000000010001011000011111110000000000000000111111000000111000000001001000000111110000000000
0111100111111111110111110001010001111101110101000111111110001110100111101111100011100011110001100011100000111100000001100000000010001110000000011101010001000001110001110000010000000000011000010000000000000000111111000000111000000001001000000111110000100000
0111100111111111110111110001110001111101110110111111110000000000011000010011100011100111111110011111100000000011100001100000000011111111110000000010010001000001110001110000010000000000011000010111111100000000111111000001000111000110110111000000000111111111
0111100100100011110111000001110001111101110110111111110000000000011000010011100011100011110000011111111111111111100001100000000011111111110000000010010001000001110001111100010000111011011000011000000011000111111111000001000111000110110111111000001111111111
0000010110001111111110000000111110001100000111111111110000000000011000010010011100111111110000011100000000111111100001100000000011111111110000000000011111001110000011111110000000001110010111111000000011000111000000000001000111000110110111111000000111111111
1111101110001111111110000000111110001100000111111111110111011111111000010010011100111111110000011100000000111111100001100000000000000100010000000000011111001110000011111110000000001110001000000001111011011000110000000010111000111000000111111000000111111111
1111101110001111111111000000111110001100000111111111110111011111111000010010011100111111110100011100011111100000011111100010000000000100010000000000011111001110000011111100000000001110001000000001111011011000110000000011111000111111110000000111100111111111
1111101111111111111111000011000001110001111101000001100000000001011111110011100011111111111011100011100100100000011111100000000001111111111001111101000001110001111100111100000000000000001000001001111011011000110000000011111000011111110000000111100111111111
1111101111111111111111000011000001110001111110111110010000000001011111110011100000000011111011100011100100100000011111000000000001111111110110000010000001110001111100111100000000000000001000001001111011000111000111000011111000000000000000000111100111111111
1000011111111111111001111100100001110001111110111110010000000001100000001111111100000011111011100011100100100011111111100000000001111111110110000010000001110001111011000001100000000000000111101001111011000111000110000000011000000111111111000111100111111111
1000011111111111111001111100100010001111111110011110101100000000111111111111111100000011111100011111111011011111100000111111111111111111001010000110000000001110111011000001100000000000000111100110000100000111000111000011100111000111110000111111100111111111
1000011111111111111000000010100001111111111111111111111100000000111111111111111100000011111100011111111011011111100000111111111111111111000000000000000000000001111010111111100000000000000111101110000111111000110000111101100111111000001111000110001000000000
1111111110000000010000000001111111111111111111111111111100000000111111111100111100000011111100000000000011111111100000111111111111111111000000000000000000000000000001111111110111111110000000001110000111111001001111111110011111111000001111000001111000000000
1111110110000000010000000001111111111111111110011001001111111110100000011100111111111111111111100011100000100000000000111110000010000000001101100110000000000000000001111111110111111110010000001110000111111001001000111110011111111000001111000110001000000000
1111110110000000010000000001111111111111111110011001001111111110011111111100111111111111111111100011100000100000000000111110000010000000001101100110000000000000000001111111110111111110010000001110000111100110111001111110011111100000110011000110011000000000
1111101011111111100000000001111111111111111110011001001111111110011111111100111100000111111111100011100000100011111111111110000010000000001101100110000000000000000001111111111000000000101000001110000111100001111000111110011111100000110011000110011000000000
1111101010000111111111101010101111000001111111100110110011111110011111100100111000000111111111100000011111011111100000111110000010000000110010011000000001110100001010101000000000011110101000001111111111100001111000111110000011000000000000111110000001111111
1111101010000111111111111010001111000001100000000111000011111110011111111111111111100111111111111111110011011111100000111110000010000000111100011111111001111100001110100000000000011110101000001111111111100110000000111111100000000000000000111110000010000000
1111101010000111111111111010001111000001100000000111000011111110111111111111111111100111111111011111011100100010010000111110000010000000111100011111111001111100001110100000000000011110101000001111111111100110000000111111100000000000110000111110000010000000
1111101010000111111110000011111111000001100110000111111100000001000000011011110100000100011000111100100011111100011111111111111101111111000000011110011001111100000000111110000000011110101000001111111111100110000000111100000000111111001111000010000010000000
1111101010000111111110001101110001000001100110000111111100000001100000011011110100000100011011011111000011111100011111111111111101111111000000011110011001111101110001001110000000011110101000001111111111100110000000100000000000000000110000111010000010000000
1111101010111111111110001101110001000001100110000111111100000001011000011011110100000011111111011111011100011100011111111111111101111111000000011110011001111101110001001110000000000010101000001111111111100000000000011100000000000000000000111010000110000000
1111101010111111111110010010001110011111110111111011110100000001011000011011110100000011111111011110000000000000011111111111111101111111010000100000010000000110001110110110000000000010101000001111111111100000000000011100000000000000000000111010000110000000
1111111110111111100001101110001110011111111110000100000111111111011111111000001011111100011111011111111111111111111111111011111100000000011111011110000000000110001110001001111000000010000000001111111111100000000000011100000000000111111111000100000010000000
1111111110111111100001101110001110011111111111111011111111111111011111100111110111111100011111011111111111111111111111100001111100000000000000100000000000000110001110001001111000000010000000001111111111100000000000011100000000100011111111000100000000000000
1111111110111111111111110001110001111111111111111011111100000001011111100111110111111011111000111111100111110111111111100001111101111111000000100000000000000001110001110000000000000010000000000000000001100000011111011100000000100100000001111000000001100000
1111111110111111111111110001110001111100000111111011111100000001011111100111110111100100011100111111111011110111111111100001111101111111000000100000011111000001110001110000000000000010000000000000000001100000011111011100000111100111111110000000000101100000
1011111110100000000000000001111111111100000111111011111100000001011111100111110111100100011011011111100100000000000000100001111101111111000000100000011111000000000001111111111111111010000000000000011110000000011111011100000111000000000000000000000100000000
1111111110100000000000000001000000011111111110000011111111110110111111000111110011100011111100000000100001110000000000100001111110000000000000111110000000000111111101111111111111111010000000000000010001111111111111011100000111100000000000000000000100000000
1111110001011000000000000001000000001111110111111100000000011110000000000111111111100011111100011000100000010000000000000011111110000111111111000000010000000111111101111111111111100101110000000000011110000000000000000000000000000000001111111000000000000000
1111110001011000000000000000111111101111110111111100000000011110000000000100011000011111100000011000100000010011111000000011111110000111111111000000010000001000000011111111111111100101110000000000011110000001111111100000000000000000001111111000000000000000
1111110001011000000000111111000001101110111110000111111000011110100000000100011000011111100000011000011100010011111000000011111110000111100000011110000010001001111100000011111111100101110000000000011110000000000000011000000001111111110011111000000000000000
1110110000011000000000111111000001101110111110000111111000011110100000000100011000011111100000000000011100010011111000000011111110000111100000011110000010001001111100000011111111100111110010001111100000000001111111100000011110111111110011111011111100000000
1000001111111000000000111111000001101110111110000111111000011110111111111100011000011111100000011000011100010011111000000011111110000111100000011110000010001001111100000011111111100000001111101111100000000000000000000011100001000111110001111000000100000000
1000001111111000000000111111000001101110111110000111111000011110011111111100011000011111100000011000100001101011111000000011111110000111100000011110000010001001111100000011111111100000001111101111110000000000000000000011100001000111110000000000000000000000
1000001111111000000000000000111111101110111110011111111000011110011111111100011000011111100000011000100001101011011000111111111110000111100000000110000010001000000011111111111111100000001111101111100000000000000000000011100001000111110000000000001000000000
1000001111111000000000000000111111101110111110011111111000011110011111111100011000011111100000011000100000011000100000111111111110000111100000000110000010001000000011111111111111100000001111101111100000000000000000000011100001000111111100000000000000000000
1000001111111000000000000001000110011111000010100000001001110001100000000011111111100000000011111000011101101000000000111111111101110001101111111010111100000110011101111111111111100000001111100000000000000000000000000000000001111111111100000000000000000000
1000111001000000010100001111100110001000000000000001111111000001111111111100000000010110111000011111000000000111011111000000000101111100000001111111111111101110011000001111010111111101100011100000000000000000000011111111111000000000000000000000000000000000
0111100001111111100111110111011111110000000000000001111111000001111111111100000100011000000100011000000111111000011000111111111001111100000001111111111111110000000100010000011000000001111000010000000000000000000011111110001000011100000000000000000000011111
0111100001111111100111110111011111110000000000000001111111000001111111111100011011010110000100011000000111111000011000111111111001111100000001111111111111110000000100010000011000000001111000010000000001000000000000111110001000011100000000000000000000011111
0111100001111110000111110111011000001111110000000001111111000001111111000000011111010100000100011000000111111000011000111111111001111100000001111111110000001111100100010000011110000001111000010000000000000000000000111110001000011100000000000000000000111111
0111100001111110000111110111011000001111110000000001111111000001111111000000011111001000111000011000000111111000011000111111111101111100000001111111110000001111100100010000011110000001111000010000000010000001111001111110001000011100000000000000000000011111
0111100001111110000111110111011000001111110000000001100000110111111111000000011111001000111000000000000111111000011000100000000100010011111001111111110000001111100100010000011110000001111000010000000011111101111100111111110111100000011111111000000000011111
0111100001111110000111110111011000001111110000000001101000111111111111000000011111001000111000011000000111111000011000100000000100000011101001111111110000001111100100010000011110000001111000010000000000000001111100111111111000000001100000000000000111100100
0111100000000011111110111111011111110000000000000001101000111111111111000000011111001000000100011000000111111000011000100000000000000011101001111111111111110000000100000010000000111111111000010000000000000001111111000000000000000000011111111000000111100000
0111100000000011111110111111100000001000000000000001101000111111111111000000000000001000000100011000111111000111111111100000000000000011101001111111111111101111111000000010000000111111111000010000000000000001111111000000010000000000000000000000000111100000
0111111111111100000111111111100000001000000000000000010111111111111110000100000000001110000100000000111111000111001111100111111100000000010111111111111111101111111000000000011111000000000000010000000010000000000000000000011110000011101111111111111000100000
1000000011111101111110000011111111111000000000000000000111111111111110000100000000000000100111111011011000100111101111100111111000000000010111111111111111100000000000111110000001000000111111100000000010000000000000000000001110000011101111100000000111100000
1000000011111101111110000011111000111000111111111111110111111111111110000111111111101111011111111100111000100111101111100111111000000000010000000000000011100011100000111110000001000000111111100000011010000000000111111110011110000011101111100000011000000000
1000000011111101111111111111111000111000111111111111110111111111111110000111111111101111100111111100011111011111101111100111111000000000010000000000000011100011100000000000000001000000111111100000011000000001111000000010010000000011101111100000011000000000
1111111111111101111111111111100111000111111000011111110111111111111110000111111111111111111111111011111000111111101111100111111000000000010000000111100100011100011000000000000001000000000000000000000000000010001111111100010000000011100000000000011111111111
1111111110000010000111111111100111000111011000011111110111111111111111111111111111111111111111111011111000111111010000011111111000000000010000000111100100011100011000000000011110111110000000000000000100000010001111111110000000000011100000000000011111111111
1000000010111101111110111111100111000100100111111111110101011111111111111111111000000100000011111011111111000000101111011000011000000101010000000000011011011100011000000010000001000010111111100000000110000101110000000000000000000011100000000000011111111111
1000000011111110000110011000001000111011000111111111110101011111111111111111111000111000111011111011111111000000101111011000011000000101010000000000011100100011101111100110011110000000111111100000000110000101110000000000000000000011100000000000011111111111
1000000011111110000110011000001000111011000111111110000101011111111111111111111000111111000011111011011000100000101111011000000100000101011110000000011100100011101111100110011110000000111111100000000100000101110000110000000000000000010000000110011111111111
1000000011111110000110011000001111111100000111111110000101011111111111111111111000111111000100111100011000100000101111011000000000000101011110000000011111000000001111100110011110000000111111100000000100000100001111001111110000000011110000000110011111111111
0111111100001110000000011000001111000101111111111110000101011111000001111100000000000100111011111011111111100111111111111111111100000101011110000000000001011100001111100111111110001111000000010000000100000111110000110000000000011111110000000110011111111111
0111111100001110000000011010001111000101111111111110000101011111000001111100000111111011000111111111111111100111111111111111111000000101011110000000000001011100001111100111111110001111000000010000000100000111110000000000000000011111110000000110011111111111
0111111100110110011111111000001111010101011111111110000101011111000001111100000111111011111000000111111111100000011100100111111000000101011110000000000101010100001111100000000110010011000000011111111000000111110000000000001100000111110001111000011111111111
0111111111001001100111111111111111111000000000011111111101011111000001111111111111000100000111000111111111100000111100111111111000000101000000000111111111100000000000000000011001101100000000010000000001100110001100110000011111100111110001111000011110000111
0111111111001001100111111111111111111000000000100000000110111111000001111100000000000100000111000111111111111111111100111111111000000010011111111011111111100000000000000000011001101100000000010000000001100110001100110000011111100111111001110110011110000111
0111111111001001100111111111111111111000000000100000000110111111000001111100000000000100000111000111111111111111111100111000000100000010011111111011111111100000000000000000011001101100000000010000000001000110001111000001111111100111110001001001111110000111
0000000011111111111111111111111111111000000000100000000111111111111111111100000111111111000000000000111111000000111100111111111100000000011111111011111111100000000000000000000000000000111111110000000001111000001111000001111111100111111111001001111110000111
0000000011111111111111111111111000010100000001111111111111100001111111111100000111111011011111111000111111000000111111111111111101111000000000000001111111010111100000000000000000000000111111110000000001000110001111000001111110011011110000110001111110000111
0000000011010111100111111111000100010011111001111111111111100001111111111100000111111011011111111000111111000000111111111111111101111000000000000001100000110111011000000000011000010100111111111111111110011111110000111110001110011100001110001110000010000110
1000000000100111110111111000111000010011111001111111111111100001000000000111111111000100100111000111011111000000111111110000000101111000000000000001100000110111100011100000010000011011111111101111111110011110001111111110000001100000000110001110001101111001
1000000000100111010111111000111000001100001111111111111111011111000000000011111000000100100111000111011111000000000111001111111000000100000000000000001111001111100011100000010000011011111111101111111110011110000000000000000001111100001110001110001101111001
1000000000011000001011111000111000001100001111111111111111011111000000000111111000000100100111000111011111111111000111001111111000000100000000000000001111001111100011100000101111100111111111101111111110011110000000111111110001111100000000110001101101111001
1111101110111111111110000011000111110000001111111111000111011111000000000111111000000111111000111000101111111100111001001000010100000100011100000000001111110000011100111110000000000010001000001111111110011110000000111111110001111100000000110001101101111000
1111101110111111111110000011000111110000000111111111000111011111000000000110000111111100000000111000001111111100111001001000011100000100011100000000011111110000011100111110000000000010001000001111111110000001111110000001110001110100000000110001101101111000
0000000000101111111110000011000111110000000111111111000110100000000000000110000111111100000000111000001111111100111001001000011011111010011100000000011111110000011100111110000000000011111111111111111110000001111110110110001110001000000000001110001100000001
0000000000111111110110111011111000111000001110111100010010011110000000000110000111111111111111111000001111000111000111001000011010000110110111000010001111100011100000100010010000000011111111111111111111000001111110110110001110001000001111111110001100000001
0000000000111111110110111011111000111000111110111111111110011110000000000110000111000000000111111001111111100111000111001000011010000110000000000010000011100011100000100010010000000011111111111111111110000000001110110110001110001000001111110000000011111110
0111000111111110001010111011111000111000111110111111111110011110000000000110000000111100000111000110001111000111000111110111100110000110000000000010000011100011100000100010101110000000011100010000000000111110000001001000000001110000001111110000000000000000
1000111000010110100101000011000100100111111110111010011110000000111111111011100111000011111000000110010000111100111000000111100011111110000110100010000000011011011100111101011010010111100011100000000000111110000001001000000001110000001111110000000000000000
1000111000010110100101000011000100100111111110111001011110000000111111111000011111000011111000000001100000000011011000000111100011111110000101100010000000011011011100111101011010010111100011100000000000111110000000001111111111110000001111110000110000000000
1000111000101110100101000000111100100111111110111001011110000000111111111011100111000011111000000001100000111011011000000111100011111110000101100010000000011011000011111101011010001011100011101111100000111111111110111110001110000000000000000000110001111110
0000000000011110011011000111000100100111001101011001011110000000111111111001100111001100111110000001100000011000100110000111100011111110000101100101001100011011111100011100100110000111111111111111100000111111000001001110001110000000000000000000110000000001
1011000001011110011011000111000100100111001101011001011110000000111111111001100111001100111110000001100000111000011110000111100011111110000101100101001100011011011100011100100110000101111100101111100000000000110001001110001110000000000111110000110000000001
1011000001011110011100111100111111100000111110111001011001111100000000011111100000111111111111001111101000111000011110000000000011000001100101100010000011101000000011000011000110000101111100101111100000111110111110110001111110000000000111111000110110000001
0100111111011110111011000111000011101000111110111001011001111100111111101111100000111111111110111110000000111111100110000000000011000001100101100010000011101000111100011100100010000100000011011111100000111110111110111110000000000000000110000000000000000001
1111000000000110111011000111000011101000001110111001011000011111111111101111100000111100111111111110000000111111100110000000000000000111100101100010001111101000111100011100100010011111111100001111100000111111000001000001000001000000000110000000000000000000
0000000000011110111011000111000011101000001110111000111000001111111111101111101111000011000000111111110000111111100110000000000000001111100011100010001111101000111100011100100010000111111111110000000000000001001111111110110000111001110111110100001001111111
0011111100011110000011100111100011110111110001000110111000001111111111101111101000111100111111111111111110111111100110000000000000001111100010011101110000010000111000011000011110000111000000110000000000000001001111111111000001001001110111110100001001111110
0011111100011110000011100111100011110111110001000110111000001111111111100111101000111111111111111111110001111111111110000000000000001111100010011101110000010000111000011000011110000111000000110000000000000001001110000001000001000000001111110100001001111001
0101111100011110000011100111100011110111110001000110111000001111111111100111101000111111111111111111110001111111111110000000000000001111100010011101110000010000111000011000011110000111000001010000000000000001111111111111000001000000001111110100001001111001
0011111100011111111000100000111100000010000001111001111111111111111111101111110111000000000111111111110001111111111110000000000000000000000001100001111110111111000011111000000000000111000000110000000000000000000000000000000001000001110000001011111000000001
0011111100011111111000100000111100000010000000000111111111011111111111111111110111000000001110111111110001111111111110000000000000000100000000011111111110111111000011111000000000000111000000110000011110000000000000000000000001000001110000000100000110000001
0000000000011111111000100000111100000101111111111111111111011111111110011111111000011111110110111111110001000001111110011111111100000100000000000000000001011111000011111000000000000111111111110000011110000000000100000110000000111000001000000100000110000001
0000000000011111111000100000111100000101111111111111111111011111111110010111111111100000000110000111110001000001111110011111111100000100000000000000000001011111000011111000000000000111111111110000011110000000000100001000000000110001110110000100000110000001
0000000000011111111000100000111111111101001111111111111111011111111111110111111111111111111111000111110001000001111111100001111100000100000000000000001101000000000011111000000000000111111111110000011110111111111111110110000001001001110110000100000110000001
1110000001111111111111111111101111111000001111111111111111011011111111110111111111111111111110000111110001000000000000011101111100100100000000000000001111100000001000000000000000000001111110000000011110111111111100011110111111110000001110001100000110000000
1110000000000011111111111111000000000111111111100111000111001111111111111111111000000011111110111111111111111111111111100001111100001100011100011000000000011111111100000000000000111111111110000000001111111111111101111110111001110000001110000000000111111111
1110000000000011111111111111000000000111111000000011111111111111111111111111111000000011111111111111111110000000011111100001111100000000000000111111100000011111111100000000000000111111111110000000001111111000001101111110111001111110000001111001110111111111
1110000000000011111111111111000000000111110111111110011111111111111111111111111000001100000000011111111001111111111111100001111100000000000110000000010000011111111100000000000000111111111110000000001111111000001101110001111001111110000001111001110111111110
1111111110000011111111111111000000000111110111111110011111111111111111110000001000001100000000100001111110000000011111111110000000000000000110000000010000011111111100000000000000111110000000000000001111111000001101110001111111111110000001111001110111111110
1111111111111111111000000111000000000111110111111111111111111111111111110111111000011100000111011110001111111111111111111110000000000000000000000000010000011111111100011111100000000000000000000000001111111000001111110001111001111110000001111001110000000000
1111111111111111111000000111000000000111110111111111111111111111111111111111111111111100000111011110001111111111111111111100000000000000000000000000010000011111111100011111100000000011111111111110001111111000110101100001011001111110000001111001110000000001
1111111111111111111000000111000100000111110111111111111111111111111111111011111111111100000111011110001110001110001110001111110001110001110001110001100001101111111100011111100000000011111111111110000000111001110101100001011001111110000001111001110000000001
1111111111111111111000000111000000000111110111111111111111111111111111111011111111110001000111011110001110001110001110001111110001110001110001110001100001101111111100011111100000000011111111111110000000111110000110000001011001111110000001111001110000000001
1111111111111111111000000111000000000111110111111111111111111111111111111111111111110000000000011111110001110001110001110001110010001110001110001110011110011111111100011111100000000011111111111110000000111111000101101110011000001111111110000000001111111110
